data/luts/bleach_bypass.cube
TITLE "Bleach Bypass"
LUT_3D_SIZE 33
DOMAIN_MIN 0.0 0.0 0.0
DOMAIN_MAX 1.0 1.0 1.0
0.000000 0.000000 0.000000
0.000000 0.000000 0.000000
0.000000 0.000000 0.000000
0.000000 0.000000 0.000000
0.000000 0.000000 0.000000
0.000000 0.000000 0.000000
0.000000 0.000000 0.000000
0.007263 0.000000 0.000000
0.043750 0.000000 0.000000
0.086682 0.000000 0.000000
0.135254 0.000000 0.000000
0.188660 0.000000 0.000000
0.246094 0.000000 0.000000
0.306750 0.000000 0.000000
0.369824 0.000000 0.000000
0.434509 0.000000 0.000000
0.500000 0.000000 0.000000
0.565491 0.000000 0.000000
0.630176 0.000000 0.000000
0.693250 0.000000 0.000000
0.753906 0.000000 0.000000
0.811340 0.000000 0.000000
0.864746 0.000000 0.000000
0.913318 0.000000 0.000000
0.956250 0.000000 0.000000
0.992737 0.000000 0.000000
1.000000 0.000000 0.000000
1.000000 0.000000 0.000000
1.000000 0.000000 0.000000
1.000000 0.000000 0.000000
1.000000 0.000000 0.000000
1.000000 0.000000 0.000000
1.000000 0.000000 0.000000
0.000000 0.000000 0.000000
0.000000 0.000000 0.000000
0.000000 0.000000 0.000000
0.000000 0.000000 0.000000
0.000000 0.000000 0.000000
0.000000 0.000000 0.000000
0.000000 0.000000 0.000000
0.007263 0.000000 0.000000
0.043750 0.000000 0.000000
0.086682 0.000000 0.000000
0.135254 0.000000 0.000000
0.188660 0.000000 0.000000
0.246094 0.000000 0.000000
0.306750 0.000000 0.000000
0.369824 0.000000 0.000000
0.434509 0.000000 0.000000
0.500000 0.000000 0.000000
0.565491 0.000000 0.000000
0.630176 0.000000 0.000000
0.693250 0.000000 0.000000
0.753906 0.000000 0.000000
0.811340 0.000000 0.000000
0.864746 0.000000 0.000000
0.913318 0.000000 0.000000
0.956250 0.000000 0.000000
0.992737 0.000000 0.000000
1.000000 0.000000 0.000000
1.000000 0.000000 0.000000
1.000000 0.000000 0.000000
1.000000 0.000000 0.000000
1.000000 0.000000 0.000000
1.000000 0.000000 0.000000
1.000000 0.000000 0.000000
0.000000 0.000000 0.000000
0.000000 0.000000 0.000000
0.000000 0.000000 0.000000
0.000000 0.000000 0.000000
0.000000 0.000000 0.000000
0.000000 0.000000 0.000000
0.000000 0.000000 0.000000
0.007263 0.000000 0.000000
0.043750 0.000000 0.000000
0.086682 0.000000 0.000000
0.135254 0.000000 0.000000
0.188660 0.000000 0.000000
0.246094 0.000000 0.000000
0.306750 0.000000 0.000000
0.369824 0.000000 0.000000
0.434509 0.000000 0.000000
0.500000 0.000000 0.000000
0.565491 0.000000 0.000000
0.630176 0.000000 0.000000
0.693250 0.000000 0.000000
0.753906 0.000000 0.000000
0.811340 0.000000 0.000000
0.864746 0.000000 0.000000
0.913318 0.000000 0.000000
0.956250 0.000000 0.000000
0.992737 0.000000 0.000000
1.000000 0.000000 0.000000
1.000000 0.000000 0.000000
1.000000 0.000000 0.000000
1.000000 0.000000 0.000000
1.000000 0.000000 0.000000
1.000000 0.000000 0.000000
1.000000 0.000000 0.000000
0.000000 0.000000 0.000000
0.000000 0.000000 0.000000
0.000000 0.000000 0.000000
0.000000 0.000000 0.000000
0.000000 0.000000 0.000000
0.000000 0.000000 0.000000
0.000000 0.000000 0.000000
0.007263 0.000000 0.000000
0.043750 0.000000 0.000000
0.086682 0.000000 0.000000
0.135254 0.000000 0.000000
0.188660 0.000000 0.000000
0.246094 0.000000 0.000000
0.306750 0.000000 0.000000
0.369824 0.000000 0.000000
0.434509 0.000000 0.000000
0.500000 0.000000 0.000000
0.565491 0.000000 0.000000
0.630176 0.000000 0.000000
0.693250 0.000000 0.000000
0.753906 0.000000 0.000000
0.811340 0.000000 0.000000
0.864746 0.000000 0.000000
0.913318 0.000000 0.000000
0.956250 0.000000 0.000000
0.992737 0.000000 0.000000
1.000000 0.000000 0.000000
1.000000 0.000000 0.000000
1.000000 0.000000 0.000000
1.000000 0.000000 0.000000
1.000000 0.000000 0.000000
1.000000 0.000000 0.000000
1.000000 0.000000 0.000000
0.000000 0.000000 0.000000
0.000000 0.000000 0.000000
0.000000 0.000000 0.000000
0.000000 0.000000 0.000000
0.000000 0.000000 0.000000
0.000000 0.000000 0.000000
0.000000 0.000000 0.000000
0.007263 0.000000 0.000000
0.043750 0.000000 0.000000
0.086682 0.000000 0.000000
0.135254 0.000000 0.000000
0.188660 0.000000 0.000000
0.246094 0.000000 0.000000
0.306750 0.000000 0.000000
0.369824 0.000000 0.000000
0.434509 0.000000 0.000000
0.500000 0.000000 0.000000
0.565491 0.000000 0.000000
0.630176 0.000000 0.000000
0.693250 0.000000 0.000000
0.753906 0.000000 0.000000
0.811340 0.000000 0.000000
0.864746 0.000000 0.000000
0.913318 0.000000 0.000000
0.956250 0.000000 0.000000
0.992737 0.000000 0.000000
1.000000 0.000000 0.000000
1.000000 0.000000 0.000000
1.000000 0.000000 0.000000
1.000000 0.000000 0.000000
1.000000 0.000000 0.000000
1.000000 0.000000 0.000000
1.000000 0.000000 0.000000
0.000000 0.000000 0.000000
0.000000 0.000000 0.000000
0.000000 0.000000 0.000000
0.000000 0.000000 0.000000
0.000000 0.000000 0.000000
0.000000 0.000000 0.000000
0.000000 0.000000 0.000000
0.007263 0.000000 0.000000
0.043750 0.000000 0.000000
0.086682 0.000000 0.000000
0.135254 0.000000 0.000000
0.188660 0.000000 0.000000
0.246094 0.000000 0.000000
0.306750 0.000000 0.000000
0.369824 0.000000 0.000000
0.434509 0.000000 0.000000
0.500000 0.000000 0.000000
0.565491 0.000000 0.000000
0.630176 0.000000 0.000000
0.693250 0.000000 0.000000
0.753906 0.000000 0.000000
0.811340 0.000000 0.000000
0.864746 0.000000 0.000000
0.913318 0.000000 0.000000
0.956250 0.000000 0.000000
0.992737 0.000000 0.000000
1.000000 0.000000 0.000000
1.000000 0.000000 0.000000
1.000000 0.000000 0.000000
1.000000 0.000000 0.000000
1.000000 0.000000 0.000000
1.000000 0.000000 0.000000
1.000000 0.000000 0.000000
0.000000 0.000000 0.000000
0.000000 0.000000 0.000000
0.000000 0.000000 0.000000
0.000000 0.000000 0.000000
0.000000 0.000000 0.000000
0.000000 0.000000 0.000000
0.000000 0.000000 0.000000
0.007263 0.000000 0.000000
0.043750 0.000000 0.000000
0.086682 0.000000 0.000000
0.135254 0.000000 0.000000
0.188660 0.000000 0.000000
0.246094 0.000000 0.000000
0.306750 0.000000 0.000000
0.369824 0.000000 0.000000
0.434509 0.000000 0.000000
0.500000 0.000000 0.000000
0.565491 0.000000 0.000000
0.630176 0.000000 0.000000
0.693250 0.000000 0.000000
0.753906 0.000000 0.000000
0.811340 0.000000 0.000000
0.864746 0.000000 0.000000
0.913318 0.000000 0.000000
0.956250 0.000000 0.000000
0.992737 0.000000 0.000000
1.000000 0.000000 0.000000
1.000000 0.000000 0.000000
1.000000 0.000000 0.000000
1.000000 0.000000 0.000000
1.000000 0.000000 0.000000
1.000000 0.000000 0.000000
1.000000 0.000000 0.000000
0.000000 0.007263 0.000000
0.000000 0.007263 0.000000
0.000000 0.007263 0.000000
0.000000 0.007263 0.000000
0.000000 0.007263 0.000000
0.000000 0.007263 0.000000
0.000000 0.007263 0.000000
0.007263 0.007263 0.000000
0.043750 0.007263 0.000000
0.086682 0.007263 0.000000
0.135254 0.007263 0.000000
0.188660 0.007263 0.000000
0.246094 0.007263 0.000000
0.306750 0.007263 0.000000
0.369824 0.007263 0.000000
0.434509 0.007263 0.000000
0.500000 0.007263 0.000000
0.565491 0.007263 0.000000
0.630176 0.007263 0.000000
0.693250 0.007263 0.000000
0.753906 0.007263 0.000000
0.811340 0.007263 0.000000
0.864746 0.007263 0.000000
0.913318 0.007263 0.000000
0.956250 0.007263 0.000000
0.992737 0.007263 0.000000
1.000000 0.007263 0.000000
1.000000 0.007263 0.000000
1.000000 0.007263 0.000000
1.000000 0.007263 0.000000
1.000000 0.007263 0.000000
1.000000 0.007263 0.000000
1.000000 0.007263 0.000000
0.000000 0.043750 0.000000
0.000000 0.043750 0.000000
0.000000 0.043750 0.000000
0.000000 0.043750 0.000000
0.000000 0.043750 0.000000
0.000000 0.043750 0.000000
0.000000 0.043750 0.000000
0.007263 0.043750 0.000000
0.043750 0.043750 0.000000
0.086682 0.043750 0.000000
0.135254 0.043750 0.000000
0.188660 0.043750 0.000000
0.246094 0.043750 0.000000
0.306750 0.043750 0.000000
0.369824 0.043750 0.000000
0.434509 0.043750 0.000000
0.500000 0.043750 0.000000
0.565491 0.043750 0.000000
0.630176 0.043750 0.000000
0.693250 0.043750 0.000000
0.753906 0.043750 0.000000
0.811340 0.043750 0.000000
0.864746 0.043750 0.000000
0.913318 0.043750 0.000000
0.956250 0.043750 0.000000
0.992737 0.043750 0.000000
1.000000 0.043750 0.000000
1.000000 0.043750 0.000000
1.000000 0.043750 0.000000
1.000000 0.043750 0.000000
1.000000 0.043750 0.000000
1.000000 0.043750 0.000000
1.000000 0.043750 0.000000
0.000000 0.086682 0.000000
0.000000 0.086682 0.000000
0.000000 0.086682 0.000000
0.000000 0.086682 0.000000
0.000000 0.086682 0.000000
0.000000 0.086682 0.000000
0.000000 0.086682 0.000000
0.007263 0.086682 0.000000
0.043750 0.086682 0.000000
0.086682 0.086682 0.000000
0.135254 0.086682 0.000000
0.188660 0.086682 0.000000
0.246094 0.086682 0.000000
0.306750 0.086682 0.000000
0.369824 0.086682 0.000000
0.434509 0.086682 0.000000
0.500000 0.086682 0.000000
0.565491 0.086682 0.000000
0.630176 0.086682 0.000000
0.693250 0.086682 0.000000
0.753906 0.086682 0.000000
0.811340 0.086682 0.000000
0.864746 0.086682 0.000000
0.913318 0.086682 0.000000
0.956250 0.086682 0.000000
0.992737 0.086682 0.000000
1.000000 0.086682 0.000000
1.000000 0.086682 0.000000
1.000000 0.086682 0.000000
1.000000 0.086682 0.000000
1.000000 0.086682 0.000000
1.000000 0.086682 0.000000
1.000000 0.086682 0.000000
0.000000 0.135254 0.000000
0.000000 0.135254 0.000000
0.000000 0.135254 0.000000
0.000000 0.135254 0.000000
0.000000 0.135254 0.000000
0.000000 0.135254 0.000000
0.000000 0.135254 0.000000
0.007263 0.135254 0.000000
0.043750 0.135254 0.000000
0.086682 0.135254 0.000000
0.135254 0.135254 0.000000
0.188660 0.135254 0.000000
0.246094 0.135254 0.000000
0.306750 0.135254 0.000000
0.369824 0.135254 0.000000
0.434509 0.135254 0.000000
0.500000 0.135254 0.000000
0.565491 0.135254 0.000000
0.630176 0.135254 0.000000
0.693250 0.135254 0.000000
0.753906 0.135254 0.000000
0.811340 0.135254 0.000000
0.864746 0.135254 0.000000
0.913318 0.135254 0.000000
0.956250 0.135254 0.000000
0.992737 0.135254 0.000000
1.000000 0.135254 0.000000
1.000000 0.135254 0.000000
1.000000 0.135254 0.000000
1.000000 0.135254 0.000000
1.000000 0.135254 0.000000
1.000000 0.135254 0.000000
1.000000 0.135254 0.000000
0.000000 0.188660 0.000000
0.000000 0.188660 0.000000
0.000000 0.188660 0.000000
0.000000 0.188660 0.000000
0.000000 0.188660 0.000000
0.000000 0.188660 0.000000
0.000000 0.188660 0.000000
0.007263 0.188660 0.000000
0.043750 0.188660 0.000000
0.086682 0.188660 0.000000
0.135254 0.188660 0.000000
0.188660 0.188660 0.000000
0.246094 0.188660 0.000000
0.306750 0.188660 0.000000
0.369824 0.188660 0.000000
0.434509 0.188660 0.000000
0.500000 0.188660 0.000000
0.565491 0.188660 0.000000
0.630176 0.188660 0.000000
0.693250 0.188660 0.000000
0.753906 0.188660 0.000000
0.811340 0.188660 0.000000
0.864746 0.188660 0.000000
0.913318 0.188660 0.000000
0.956250 0.188660 0.000000
0.992737 0.188660 0.000000
1.000000 0.188660 0.000000
1.000000 0.188660 0.000000
1.000000 0.188660 0.000000
1.000000 0.188660 0.000000
1.000000 0.188660 0.000000
1.000000 0.188660 0.000000
1.000000 0.188660 0.000000
0.000000 0.246094 0.000000
0.000000 0.246094 0.000000
0.000000 0.246094 0.000000
0.000000 0.246094 0.000000
0.000000 0.246094 0.000000
0.000000 0.246094 0.000000
0.000000 0.246094 0.000000
0.007263 0.246094 0.000000
0.043750 0.246094 0.000000
0.086682 0.246094 0.000000
0.135254 0.246094 0.000000
0.188660 0.246094 0.000000
0.246094 0.246094 0.000000
0.306750 0.246094 0.000000
0.369824 0.246094 0.000000
0.434509 0.246094 0.000000
0.500000 0.246094 0.000000
0.565491 0.246094 0.000000
0.630176 0.246094 0.000000
0.693250 0.246094 0.000000
0.753906 0.246094 0.000000
0.811340 0.246094 0.000000
0.864746 0.246094 0.000000
0.913318 0.246094 0.000000
0.956250 0.246094 0.000000
0.992737 0.246094 0.000000
1.000000 0.246094 0.000000
1.000000 0.246094 0.000000
1.000000 0.246094 0.000000
1.000000 0.246094 0.000000
1.000000 0.246094 0.000000
1.000000 0.246094 0.000000
1.000000 0.246094 0.000000
0.000000 0.306750 0.000000
0.000000 0.306750 0.000000
0.000000 0.306750 0.000000
0.000000 0.306750 0.000000
0.000000 0.306750 0.000000
0.000000 0.306750 0.000000
0.000000 0.306750 0.000000
0.007263 0.306750 0.000000
0.043750 0.306750 0.000000
0.086682 0.306750 0.000000
0.135254 0.306750 0.000000
0.188660 0.306750 0.000000
0.246094 0.306750 0.000000
0.306750 0.306750 0.000000
0.369824 0.306750 0.000000
0.434509 0.306750 0.000000
0.500000 0.306750 0.000000
0.565491 0.306750 0.000000
0.630176 0.306750 0.000000
0.693250 0.306750 0.000000
0.753906 0.306750 0.000000
0.811340 0.306750 0.000000
0.864746 0.306750 0.000000
0.913318 0.306750 0.000000
0.956250 0.306750 0.000000
0.992737 0.306750 0.000000
1.000000 0.306750 0.000000
1.000000 0.306750 0.000000
1.000000 0.306750 0.000000
1.000000 0.306750 0.000000
1.000000 0.306750 0.000000
1.000000 0.306750 0.000000
1.000000 0.306750 0.000000
0.000000 0.369824 0.000000
0.000000 0.369824 0.000000
0.000000 0.369824 0.000000
0.000000 0.369824 0.000000
0.000000 0.369824 0.000000
0.000000 0.369824 0.000000
0.000000 0.369824 0.000000
0.007263 0.369824 0.000000
0.043750 0.369824 0.000000
0.086682 0.369824 0.000000
0.135254 0.369824 0.000000
0.188660 0.369824 0.000000
0.246094 0.369824 0.000000
0.306750 0.369824 0.000000
0.369824 0.369824 0.000000
0.434509 0.369824 0.000000
0.500000 0.369824 0.000000
0.565491 0.369824 0.000000
0.630176 0.369824 0.000000
0.693250 0.369824 0.000000
0.753906 0.369824 0.000000
0.811340 0.369824 0.000000
0.864746 0.369824 0.000000
0.913318 0.369824 0.000000
0.956250 0.369824 0.000000
0.992737 0.369824 0.000000
1.000000 0.369824 0.000000
1.000000 0.369824 0.000000
1.000000 0.369824 0.000000
1.000000 0.369824 0.000000
1.000000 0.369824 0.000000
1.000000 0.369824 0.000000
1.000000 0.369824 0.000000
0.000000 0.434509 0.000000
0.000000 0.434509 0.000000
0.000000 0.434509 0.000000
0.000000 0.434509 0.000000
0.000000 0.434509 0.000000
0.000000 0.434509 0.000000
0.000000 0.434509 0.000000
0.007263 0.434509 0.000000
0.043750 0.434509 0.000000
0.086682 0.434509 0.000000
0.135254 0.434509 0.000000
0.188660 0.434509 0.000000
0.246094 0.434509 0.000000
0.306750 0.434509 0.000000
0.369824 0.434509 0.000000
0.434509 0.434509 0.000000
0.500000 0.434509 0.000000
0.565491 0.434509 0.000000
0.630176 0.434509 0.000000
0.693250 0.434509 0.000000
0.753906 0.434509 0.000000
0.811340 0.434509 0.000000
0.864746 0.434509 0.000000
0.913318 0.434509 0.000000
0.956250 0.434509 0.000000
0.992737 0.434509 0.000000
1.000000 0.434509 0.000000
1.000000 0.434509 0.000000
1.000000 0.434509 0.000000
1.000000 0.434509 0.000000
1.000000 0.434509 0.000000
1.000000 0.434509 0.000000
1.000000 0.434509 0.000000
0.000000 0.500000 0.000000
0.000000 0.500000 0.000000
0.000000 0.500000 0.000000
0.000000 0.500000 0.000000
0.000000 0.500000 0.000000
0.000000 0.500000 0.000000
0.000000 0.500000 0.000000
0.007263 0.500000 0.000000
0.043750 0.500000 0.000000
0.086682 0.500000 0.000000
0.135254 0.500000 0.000000
0.188660 0.500000 0.000000
0.246094 0.500000 0.000000
0.306750 0.500000 0.000000
0.369824 0.500000 0.000000
0.434509 0.500000 0.000000
0.500000 0.500000 0.000000
0.565491 0.500000 0.000000
0.630176 0.500000 0.000000
0.693250 0.500000 0.000000
0.753906 0.500000 0.000000
0.811340 0.500000 0.000000
0.864746 0.500000 0.000000
0.913318 0.500000 0.000000
0.956250 0.500000 0.000000
0.992737 0.500000 0.000000
1.000000 0.500000 0.000000
1.000000 0.500000 0.000000
1.000000 0.500000 0.000000
1.000000 0.500000 0.000000
1.000000 0.500000 0.000000
1.000000 0.500000 0.000000
1.000000 0.500000 0.000000
0.000000 0.565491 0.000000
0.000000 0.565491 0.000000
0.000000 0.565491 0.000000
0.000000 0.565491 0.000000
0.000000 0.565491 0.000000
0.000000 0.565491 0.000000
0.000000 0.565491 0.000000
0.007263 0.565491 0.000000
0.043750 0.565491 0.000000
0.086682 0.565491 0.000000
0.135254 0.565491 0.000000
0.188660 0.565491 0.000000
0.246094 0.565491 0.000000
0.306750 0.565491 0.000000
0.369824 0.565491 0.000000
0.434509 0.565491 0.000000
0.500000 0.565491 0.000000
0.565491 0.565491 0.000000
0.630176 0.565491 0.000000
0.693250 0.565491 0.000000
0.753906 0.565491 0.000000
0.811340 0.565491 0.000000
0.864746 0.565491 0.000000
0.913318 0.565491 0.000000
0.956250 0.565491 0.000000
0.992737 0.565491 0.000000
1.000000 0.565491 0.000000
1.000000 0.565491 0.000000
1.000000 0.565491 0.000000
1.000000 0.565491 0.000000
1.000000 0.565491 0.000000
1.000000 0.565491 0.000000
1.000000 0.565491 0.000000
0.000000 0.630176 0.000000
0.000000 0.630176 0.000000
0.000000 0.630176 0.000000
0.000000 0.630176 0.000000
0.000000 0.630176 0.000000
0.000000 0.630176 0.000000
0.000000 0.630176 0.000000
0.007263 0.630176 0.000000
0.043750 0.630176 0.000000
0.086682 0.630176 0.000000
0.135254 0.630176 0.000000
0.188660 0.630176 0.000000
0.246094 0.630176 0.000000
0.306750 0.630176 0.000000
0.369824 0.630176 0.000000
0.434509 0.630176 0.000000
0.500000 0.630176 0.000000
0.565491 0.630176 0.000000
0.630176 0.630176 0.000000
0.693250 0.630176 0.000000
0.753906 0.630176 0.000000
0.811340 0.630176 0.000000
0.864746 0.630176 0.000000
0.913318 0.630176 0.000000
0.956250 0.630176 0.000000
0.992737 0.630176 0.000000
1.000000 0.630176 0.000000
1.000000 0.630176 0.000000
1.000000 0.630176 0.000000
1.000000 0.630176 0.000000
1.000000 0.630176 0.000000
1.000000 0.630176 0.000000
1.000000 0.630176 0.000000
0.000000 0.693250 0.000000
0.000000 0.693250 0.000000
0.000000 0.693250 0.000000
0.000000 0.693250 0.000000
0.000000 0.693250 0.000000
0.000000 0.693250 0.000000
0.000000 0.693250 0.000000
0.007263 0.693250 0.000000
0.043750 0.693250 0.000000
0.086682 0.693250 0.000000
0.135254 0.693250 0.000000
0.188660 0.693250 0.000000
0.246094 0.693250 0.000000
0.306750 0.693250 0.000000
0.369824 0.693250 0.000000
0.434509 0.693250 0.000000
0.500000 0.693250 0.000000
0.565491 0.693250 0.000000
0.630176 0.693250 0.000000
0.693250 0.693250 0.000000
0.753906 0.693250 0.000000
0.811340 0.693250 0.000000
0.864746 0.693250 0.000000
0.913318 0.693250 0.000000
0.956250 0.693250 0.000000
0.992737 0.693250 0.000000
1.000000 0.693250 0.000000
1.000000 0.693250 0.000000
1.000000 0.693250 0.000000
1.000000 0.693250 0.000000
1.000000 0.693250 0.000000
1.000000 0.693250 0.000000
1.000000 0.693250 0.000000
0.000000 0.753906 0.000000
0.000000 0.753906 0.000000
0.000000 0.753906 0.000000
0.000000 0.753906 0.000000
0.000000 0.753906 0.000000
0.000000 0.753906 0.000000
0.000000 0.753906 0.000000
0.007263 0.753906 0.000000
0.043750 0.753906 0.000000
0.086682 0.753906 0.000000
0.135254 0.753906 0.000000
0.188660 0.753906 0.000000
0.246094 0.753906 0.000000
0.306750 0.753906 0.000000
0.369824 0.753906 0.000000
0.434509 0.753906 0.000000
0.500000 0.753906 0.000000
0.565491 0.753906 0.000000
0.630176 0.753906 0.000000
0.693250 0.753906 0.000000
0.753906 0.753906 0.000000
0.811340 0.753906 0.000000
0.864746 0.753906 0.000000
0.913318 0.753906 0.000000
0.956250 0.753906 0.000000
0.992737 0.753906 0.000000
1.000000 0.753906 0.000000
1.000000 0.753906 0.000000
1.000000 0.753906 0.000000
1.000000 0.753906 0.000000
1.000000 0.753906 0.000000
1.000000 0.753906 0.000000
1.000000 0.753906 0.000000
0.000000 0.811340 0.000000
0.000000 0.811340 0.000000
0.000000 0.811340 0.000000
0.000000 0.811340 0.000000
0.000000 0.811340 0.000000
0.000000 0.811340 0.000000
0.000000 0.811340 0.000000
0.007263 0.811340 0.000000
0.043750 0.811340 0.000000
0.086682 0.811340 0.000000
0.135254 0.811340 0.000000
0.188660 0.811340 0.000000
0.246094 0.811340 0.000000
0.306750 0.811340 0.000000
0.369824 0.811340 0.000000
0.434509 0.811340 0.000000
0.500000 0.811340 0.000000
0.565491 0.811340 0.000000
0.630176 0.811340 0.000000
0.693250 0.811340 0.000000
0.753906 0.811340 0.000000
0.811340 0.811340 0.000000
0.864746 0.811340 0.000000
0.913318 0.811340 0.000000
0.956250 0.811340 0.000000
0.992737 0.811340 0.000000
1.000000 0.811340 0.000000
1.000000 0.811340 0.000000
1.000000 0.811340 0.000000
1.000000 0.811340 0.000000
1.000000 0.811340 0.000000
1.000000 0.811340 0.000000
1.000000 0.811340 0.000000
0.000000 0.864746 0.000000
0.000000 0.864746 0.000000
0.000000 0.864746 0.000000
0.000000 0.864746 0.000000
0.000000 0.864746 0.000000
0.000000 0.864746 0.000000
0.000000 0.864746 0.000000
0.007263 0.864746 0.000000
0.043750 0.864746 0.000000
0.086682 0.864746 0.000000
0.135254 0.864746 0.000000
0.188660 0.864746 0.000000
0.246094 0.864746 0.000000
0.306750 0.864746 0.000000
0.369824 0.864746 0.000000
0.434509 0.864746 0.000000
0.500000 0.864746 0.000000
0.565491 0.864746 0.000000
0.630176 0.864746 0.000000
0.693250 0.864746 0.000000
0.753906 0.864746 0.000000
0.811340 0.864746 0.000000
0.864746 0.864746 0.000000
0.913318 0.864746 0.000000
0.956250 0.864746 0.000000
0.992737 0.864746 0.000000
1.000000 0.864746 0.000000
1.000000 0.864746 0.000000
1.000000 0.864746 0.000000
1.000000 0.864746 0.000000
1.000000 0.864746 0.000000
1.000000 0.864746 0.000000
1.000000 0.864746 0.000000
0.000000 0.913318 0.000000
0.000000 0.913318 0.000000
0.000000 0.913318 0.000000
0.000000 0.913318 0.000000
0.000000 0.913318 0.000000
0.000000 0.913318 0.000000
0.000000 0.913318 0.000000
0.007263 0.913318 0.000000
0.043750 0.913318 0.000000
0.086682 0.913318 0.000000
0.135254 0.913318 0.000000
0.188660 0.913318 0.000000
0.246094 0.913318 0.000000
0.306750 0.913318 0.000000
0.369824 0.913318 0.000000
0.434509 0.913318 0.000000
0.500000 0.913318 0.000000
0.565491 0.913318 0.000000
0.630176 0.913318 0.000000
0.693250 0.913318 0.000000
0.753906 0.913318 0.000000
0.811340 0.913318 0.000000
0.864746 0.913318 0.000000
0.913318 0.913318 0.000000
0.956250 0.913318 0.000000
0.992737 0.913318 0.000000
1.000000 0.913318 0.000000
1.000000 0.913318 0.000000
1.000000 0.913318 0.000000
1.000000 0.913318 0.000000
1.000000 0.913318 0.000000
1.000000 0.913318 0.000000
1.000000 0.913318 0.000000
0.000000 0.956250 0.000000
0.000000 0.956250 0.000000
0.000000 0.956250 0.000000
0.000000 0.956250 0.000000
0.000000 0.956250 0.000000
0.000000 0.956250 0.000000
0.000000 0.956250 0.000000
0.007263 0.956250 0.000000
0.043750 0.956250 0.000000
0.086682 0.956250 0.000000
0.135254 0.956250 0.000000
0.188660 0.956250 0.000000
0.246094 0.956250 0.000000
0.306750 0.956250 0.000000
0.369824 0.956250 0.000000
0.434509 0.956250 0.000000
0.500000 0.956250 0.000000
0.565491 0.956250 0.000000
0.630176 0.956250 0.000000
0.693250 0.956250 0.000000
0.753906 0.956250 0.000000
0.811340 0.956250 0.000000
0.864746 0.956250 0.000000
0.913318 0.956250 0.000000
0.956250 0.956250 0.000000
0.992737 0.956250 0.000000
1.000000 0.956250 0.000000
1.000000 0.956250 0.000000
1.000000 0.956250 0.000000
1.000000 0.956250 0.000000
1.000000 0.956250 0.000000
1.000000 0.956250 0.000000
1.000000 0.956250 0.000000
0.000000 0.992737 0.000000
0.000000 0.992737 0.000000
0.000000 0.992737 0.000000
0.000000 0.992737 0.000000
0.000000 0.992737 0.000000
0.000000 0.992737 0.000000
0.000000 0.992737 0.000000
0.007263 0.992737 0.000000
0.043750 0.992737 0.000000
0.086682 0.992737 0.000000
0.135254 0.992737 0.000000
0.188660 0.992737 0.000000
0.246094 0.992737 0.000000
0.306750 0.992737 0.000000
0.369824 0.992737 0.000000
0.434509 0.992737 0.000000
0.500000 0.992737 0.000000
0.565491 0.992737 0.000000
0.630176 0.992737 0.000000
0.693250 0.992737 0.000000
0.753906 0.992737 0.000000
0.811340 0.992737 0.000000
0.864746 0.992737 0.000000
0.913318 0.992737 0.000000
0.956250 0.992737 0.000000
0.992737 0.992737 0.000000
1.000000 0.992737 0.000000
1.000000 0.992737 0.000000
1.000000 0.992737 0.000000
1.000000 0.992737 0.000000
1.000000 0.992737 0.000000
1.000000 0.992737 0.000000
1.000000 0.992737 0.000000
0.000000 1.000000 0.000000
0.000000 1.000000 0.000000
0.000000 1.000000 0.000000
0.000000 1.000000 0.000000
0.000000 1.000000 0.000000
0.000000 1.000000 0.000000
0.000000 1.000000 0.000000
0.007263 1.000000 0.000000
0.043750 1.000000 0.000000
0.086682 1.000000 0.000000
0.135254 1.000000 0.000000
0.188660 1.000000 0.000000
0.246094 1.000000 0.000000
0.306750 1.000000 0.000000
0.369824 1.000000 0.000000
0.434509 1.000000 0.000000
0.500000 1.000000 0.000000
0.565491 1.000000 0.000000
0.630176 1.000000 0.000000
0.693250 1.000000 0.000000
0.753906 1.000000 0.000000
0.811340 1.000000 0.000000
0.864746 1.000000 0.000000
0.913318 1.000000 0.000000
0.956250 1.000000 0.000000
0.992737 1.000000 0.000000
1.000000 1.000000 0.000000
