data/luts/bleach_bypass.cube
TITLE "Bleach Bypass"
LUT_3D_SIZE 9
DOMAIN_MIN 0.0 0.0 0.0
DOMAIN_MAX 1.0 1.0 1.0
0.000000 0.000000 0.000000
0.000000 0.000000 0.000000
0.043750 0.000000 0.000000
0.246094 0.000000 0.000000
0.500000 0.000000 0.000000
0.753906 0.000000 0.000000
0.956250 0.000000 0.000000
1.000000 0.000000 0.000000
1.000000 0.000000 0.000000
0.000000 0.000000 0.000000
0.000000 0.000000 0.000000
0.043750 0.000000 0.000000
0.246094 0.000000 0.000000
0.500000 0.000000 0.000000
0.753906 0.000000 0.000000
0.956250 0.000000 0.000000
1.000000 0.000000 0.000000
1.000000 0.000000 0.000000
0.000000 0.043750 0.000000
0.000000 0.043750 0.000000
0.043750 0.043750 0.000000
0.246094 0.043750 0.000000
0.500000 0.043750 0.000000
0.753906 0.043750 0.000000
0.956250 0.043750 0.000000
1.000000 0.043750 0.000000
1.000000 0.043750 0.000000
0.000000 0.246094 0.000000
0.000000 0.246094 0.000000
0.043750 0.246094 0.000000
0.246094 0.246094 0.000000
0.500000 0.246094 0.000000
0.753906 0.246094 0.000000
0.956250 0.246094 0.000000
1.000000 0.246094 0.000000
1.000000 0.246094 0.000000
0.000000 0.500000 0.000000
0.000000 0.500000 0.000000
0.043750 0.500000 0.000000
0.246094 0.500000 0.000000
0.500000 0.500000 0.000000
0.753906 0.500000 0.000000
0.956250 0.500000 0.000000
1.000000 0.500000 0.000000
1.000000 0.500000 0.000000
0.000000 0.753906 0.000000
0.000000 0.753906 0.000000
0.043750 0.753906 0.000000
0.246094 0.753906 0.000000
0.500000 0.753906 0.000000
0.753906 0.753906 0.000000
0.956250 0.753906 0.000000
1.000000 0.753906 0.000000
1.000000 0.753906 0.000000
0.000000 0.956250 0.000000
0.000000 0.956250 0.000000
0.043750 0.956250 0.000000
0.246094 0.956250 0.000000
0.500000 0.956250 0.000000
0.753906 0.956250 0.000000
0.956250 0.956250 0.000000
1.000000 0.956250 0.000000
1.000000 0.956250 0.000000
0.000000 1.000000 0.000000
0.000000 1.000000 0.000000
0.043750 1.000000 0.000000
0.246094 1.000000 0.000000
0.500000 1.000000 0.000000
0.753906 1.000000 0.000000
0.956250 1.000000 0.000000
1.000000 1.000000 0.000000
1.000000 1.000000 0.000000
0.000000 1.000000 0.000000
0.000000 1.000000 0.000000
0.043750 1.000000 0.000000
0.246094 1.000000 0.000000
0.500000 1.000000 0.000000
0.753906 1.000000 0.000000
0.956250 1.000000 0.000000
1.000000 1.000000 0.000000
1.000000 1.000000 0.000000
0.000000 0.000000 0.000000
0.000000 0.000000 0.000000
0.043750 0.000000 0.000000
0.246094 0.000000 0.000000
0.500000 0.000000 0.000000
0.753906 0.000000 0.000000
0.956250 0.000000 0.000000
1.000000 0.000000 0.000000
1.000000 0.000000 0.000000
0.000000 0.000000 0.000000
0.000000 0.000000 0.000000
0.043750 0.000000 0.000000
0.246094 0.000000 0.000000
0.500000 0.000000 0.000000
0.753906 0.000000 0.000000
0.956250 0.000000 0.000000
1.000000 0.000000 0.000000
1.000000 0.000000 0.000000
0.000000 0.043750 0.000000
0.000000 0.043750 0.000000
0.043750 0.043750 0.000000
0.246094 0.043750 0.000000
0.500000 0.043750 0.000000
0.753906 0.043750 0.000000
0.956250 0.043750 0.000000
1.000000 0.043750 0.000000
1.000000 0.043750 0.000000
0.000000 0.246094 0.000000
0.000000 0.246094 0.000000
0.043750 0.246094 0.000000
0.246094 0.246094 0.000000
0.500000 0.246094 0.000000
0.753906 0.246094 0.000000
0.956250 0.246094 0.000000
1.000000 0.246094 0.000000
1.000000 0.246094 0.000000
0.000000 0.500000 0.000000
0.000000 0.500000 0.000000
0.043750 0.500000 0.000000
0.246094 0.500000 0.000000
0.500000 0.500000 0.000000
0.753906 0.500000 0.000000
0.956250 0.500000 0.000000
1.000000 0.500000 0.000000
1.000000 0.500000 0.000000
0.000000 0.753906 0.000000
0.000000 0.753906 0.000000
0.043750 0.753906 0.000000
0.246094 0.753906 0.000000
0.500000 0.753906 0.000000
0.753906 0.753906 0.000000
0.956250 0.753906 0.000000
1.000000 0.753906 0.000000
1.000000 0.753906 0.000000
0.000000 0.956250 0.000000
0.000000 0.956250 0.000000
0.043750 0.956250 0.000000
0.246094 0.956250 0.000000
0.500000 0.956250 0.000000
0.753906 0.956250 0.000000
0.956250 0.956250 0.000000
1.000000 0.956250 0.000000
1.000000 0.956250 0.000000
0.000000 1.000000 0.000000
0.000000 1.000000 0.000000
0.043750 1.000000 0.000000
0.246094 1.000000 0.000000
0.500000 1.000000 0.000000
0.753906 1.000000 0.000000
0.956250 1.000000 0.000000
1.000000 1.000000 0.000000
1.000000 1.000000 0.000000
0.000000 1.000000 0.000000
0.000000 1.000000 0.000000
0.043750 1.000000 0.000000
0.246094 1.000000 0.000000
0.500000 1.000000 0.000000
0.753906 1.000000 0.000000
0.956250 1.000000 0.000000
1.000000 1.000000 0.000000
1.000000 1.000000 0.000000
0.000000 0.000000 0.043750
0.000000 0.000000 0.043750
0.043750 0.000000 0.043750
0.246094 0.000000 0.043750
0.500000 0.000000 0.043750
0.753906 0.000000 0.043750
0.956250 0.000000 0.043750
1.000000 0.000000 0.043750
1.000000 0.000000 0.043750
0.000000 0.000000 0.043750
0.000000 0.000000 0.043750
0.043750 0.000000 0.043750
0.246094 0.000000 0.043750
0.500000 0.000000 0.043750
0.753906 0.000000 0.043750
0.956250 0.000000 0.043750
1.000000 0.000000 0.043750
1.000000 0.000000 0.043750
0.000000 0.043750 0.043750
0.000000 0.043750 0.043750
0.043750 0.043750 0.043750
0.246094 0.043750 0.043750
0.500000 0.043750 0.043750
0.753906 0.043750 0.043750
0.956250 0.043750 0.043750
1.000000 0.043750 0.043750
1.000000 0.043750 0.043750
0.000000 0.246094 0.043750
0.000000 0.246094 0.043750
0.043750 0.246094 0.043750
0.246094 0.246094 0.043750
0.500000 0.246094 0.043750
0.753906 0.246094 0.043750
0.956250 0.246094 0.043750
1.000000 0.246094 0.043750
1.000000 0.246094 0.043750
0.000000 0.500000 0.043750
0.000000 0.500000 0.043750
0.043750 0.500000 0.043750
0.246094 0.500000 0.043750
0.500000 0.500000 0.043750
0.753906 0.500000 0.043750
0.956250 0.500000 0.043750
1.000000 0.500000 0.043750
1.000000 0.500000 0.043750
0.000000 0.753906 0.043750
0.000000 0.753906 0.043750
0.043750 0.753906 0.043750
0.246094 0.753906 0.043750
0.500000 0.753906 0.043750
0.753906 0.753906 0.043750
0.956250 0.753906 0.043750
1.000000 0.753906 0.043750
1.000000 0.753906 0.043750
0.000000 0.956250 0.043750
0.000000 0.956250 0.043750
0.043750 0.956250 0.043750
0.246094 0.956250 0.043750
0.500000 0.956250 0.043750
0.753906 0.956250 0.043750
0.956250 0.956250 0.043750
1.000000 0.956250 0.043750
1.000000 0.956250 0.043750
0.000000 1.000000 0.043750
0.000000 1.000000 0.043750
0.043750 1.000000 0.043750
0.246094 1.000000 0.043750
0.500000 1.000000 0.043750
0.753906 1.000000 0.043750
0.956250 1.000000 0.043750
1.000000 1.000000 0.043750
1.000000 1.000000 0.043750
0.000000 1.000000 0.043750
0.000000 1.000000 0.043750
0.043750 1.000000 0.043750
0.246094 1.000000 0.043750
0.500000 1.000000 0.043750
0.753906 1.000000 0.043750
0.956250 1.000000 0.043750
1.000000 1.000000 0.043750
1.000000 1.000000 0.043750
0.000000 0.000000 0.246094
0.000000 0.000000 0.246094
0.043750 0.000000 0.246094
0.246094 0.000000 0.246094
0.500000 0.000000 0.246094
0.753906 0.000000 0.246094
0.956250 0.000000 0.246094
1.000000 0.000000 0.246094
1.000000 0.000000 0.246094
0.000000 0.000000 0.246094
0.000000 0.000000 0.246094
0.043750 0.000000 0.246094
0.246094 0.000000 0.246094
0.500000 0.000000 0.246094
0.753906 0.000000 0.246094
0.956250 0.000000 0.246094
1.000000 0.000000 0.246094
1.000000 0.000000 0.246094
0.000000 0.043750 0.246094
0.000000 0.043750 0.246094
0.043750 0.043750 0.246094
0.246094 0.043750 0.246094
0.500000 0.043750 0.246094
0.753906 0.043750 0.246094
0.956250 0.043750 0.246094
1.000000 0.043750 0.246094
1.000000 0.043750 0.246094
0.000000 0.246094 0.246094
0.000000 0.246094 0.246094
0.043750 0.246094 0.246094
0.246094 0.246094 0.246094
0.500000 0.246094 0.246094
0.753906 0.246094 0.246094
0.956250 0.246094 0.246094
1.000000 0.246094 0.246094
1.000000 0.246094 0.246094
0.000000 0.500000 0.246094
0.000000 0.500000 0.246094
0.043750 0.500000 0.246094
0.246094 0.500000 0.246094
0.500000 0.500000 0.246094
0.753906 0.500000 0.246094
0.956250 0.500000 0.246094
1.000000 0.500000 0.246094
1.000000 0.500000 0.246094
0.000000 0.753906 0.246094
0.000000 0.753906 0.246094
0.043750 0.753906 0.246094
0.246094 0.753906 0.246094
0.500000 0.753906 0.246094
0.753906 0.753906 0.246094
0.956250 0.753906 0.246094
1.000000 0.753906 0.246094
1.000000 0.753906 0.246094
0.000000 0.956250 0.246094
0.000000 0.956250 0.246094
0.043750 0.956250 0.246094
0.246094 0.956250 0.246094
0.500000 0.956250 0.246094
0.753906 0.956250 0.246094
0.956250 0.956250 0.246094
1.000000 0.956250 0.246094
1.000000 0.956250 0.246094
0.000000 1.000000 0.246094
0.000000 1.000000 0.246094
0.043750 1.000000 0.246094
0.246094 1.000000 0.246094
0.500000 1.000000 0.246094
0.753906 1.000000 0.246094
0.956250 1.000000 0.246094
1.000000 1.000000 0.246094
1.000000 1.000000 0.246094
0.000000 1.000000 0.246094
0.000000 1.000000 0.246094
0.043750 1.000000 0.246094
0.246094 1.000000 0.246094
0.500000 1.000000 0.246094
0.753906 1.000000 0.246094
0.956250 1.000000 0.246094
1.000000 1.000000 0.246094
1.000000 1.000000 0.246094
0.000000 0.000000 0.500000
0.000000 0.000000 0.500000
0.043750 0.000000 0.500000
0.246094 0.000000 0.500000
0.500000 0.000000 0.500000
0.753906 0.000000 0.500000
0.956250 0.000000 0.500000
1.000000 0.000000 0.500000
1.000000 0.000000 0.500000
0.000000 0.000000 0.500000
0.000000 0.000000 0.500000
0.043750 0.000000 0.500000
0.246094 0.000000 0.500000
0.500000 0.000000 0.500000
0.753906 0.000000 0.500000
0.956250 0.000000 0.500000
1.000000 0.000000 0.500000
1.000000 0.000000 0.500000
0.000000 0.043750 0.500000
0.000000 0.043750 0.500000
0.043750 0.043750 0.500000
0.246094 0.043750 0.500000
0.500000 0.043750 0.500000
0.753906 0.043750 0.500000
0.956250 0.043750 0.500000
1.000000 0.043750 0.500000
1.000000 0.043750 0.500000
0.000000 0.246094 0.500000
0.000000 0.246094 0.500000
0.043750 0.246094 0.500000
0.246094 0.246094 0.500000
0.500000 0.246094 0.500000
0.753906 0.246094 0.500000
0.956250 0.246094 0.500000
1.000000 0.246094 0.500000
1.000000 0.246094 0.500000
0.000000 0.500000 0.500000
0.000000 0.500000 0.500000
0.043750 0.500000 0.500000
0.246094 0.500000 0.500000
0.500000 0.500000 0.500000
0.753906 0.500000 0.500000
0.956250 0.500000 0.500000
1.000000 0.500000 0.500000
1.000000 0.500000 0.500000
0.000000 0.753906 0.500000
0.000000 0.753906 0.500000
0.043750 0.753906 0.500000
0.246094 0.753906 0.500000
0.500000 0.753906 0.500000
0.753906 0.753906 0.500000
0.956250 0.753906 0.500000
1.000000 0.753906 0.500000
1.000000 0.753906 0.500000
0.000000 0.956250 0.500000
0.000000 0.956250 0.500000
0.043750 0.956250 0.500000
0.246094 0.956250 0.500000
0.500000 0.956250 0.500000
0.753906 0.956250 0.500000
0.956250 0.956250 0.500000
1.000000 0.956250 0.500000
1.000000 0.956250 0.500000
0.000000 1.000000 0.500000
0.000000 1.000000 0.500000
0.043750 1.000000 0.500000
0.246094 1.000000 0.500000
0.500000 1.000000 0.500000
0.753906 1.000000 0.500000
0.956250 1.000000 0.500000
1.000000 1.000000 0.500000
1.000000 1.000000 0.500000
0.000000 1.000000 0.500000
0.000000 1.000000 0.500000
0.043750 1.000000 0.500000
0.246094 1.000000 0.500000
0.500000 1.000000 0.500000
0.753906 1.000000 0.500000
0.956250 1.000000 0.500000
1.000000 1.000000 0.500000
1.000000 1.000000 0.500000
0.000000 0.000000 0.753906
0.000000 0.000000 0.753906
0.043750 0.000000 0.753906
0.246094 0.000000 0.753906
0.500000 0.000000 0.753906
0.753906 0.000000 0.753906
0.956250 0.000000 0.753906
1.000000 0.000000 0.753906
1.000000 0.000000 0.753906
0.000000 0.000000 0.753906
0.000000 0.000000 0.753906
0.043750 0.000000 0.753906
0.246094 0.000000 0.753906
0.500000 0.000000 0.753906
0.753906 0.000000 0.753906
0.956250 0.000000 0.753906
1.000000 0.000000 0.753906
1.000000 0.000000 0.753906
0.000000 0.043750 0.753906
0.000000 0.043750 0.753906
0.043750 0.043750 0.753906
0.246094 0.043750 0.753906
0.500000 0.043750 0.753906
0.753906 0.043750 0.753906
0.956250 0.043750 0.753906
1.000000 0.043750 0.753906
1.000000 0.043750 0.753906
0.000000 0.246094 0.753906
0.000000 0.246094 0.753906
0.043750 0.246094 0.753906
0.246094 0.246094 0.753906
0.500000 0.246094 0.753906
0.753906 0.246094 0.753906
0.956250 0.246094 0.753906
1.000000 0.246094 0.753906
1.000000 0.246094 0.753906
0.000000 0.500000 0.753906
0.000000 0.500000 0.753906
0.043750 0.500000 0.753906
0.246094 0.500000 0.753906
0.500000 0.500000 0.753906
0.753906 0.500000 0.753906
0.956250 0.500000 0.753906
1.000000 0.500000 0.753906
1.000000 0.500000 0.753906
0.000000 0.753906 0.753906
0.000000 0.753906 0.753906
0.043750 0.753906 0.753906
0.246094 0.753906 0.753906
0.500000 0.753906 0.753906
0.753906 0.753906 0.753906
0.956250 0.753906 0.753906
1.000000 0.753906 0.753906
1.000000 0.753906 0.753906
0.000000 0.956250 0.753906
0.000000 0.956250 0.753906
0.043750 0.956250 0.753906
0.246094 0.956250 0.753906
0.500000 0.956250 0.753906
0.753906 0.956250 0.753906
0.956250 0.956250 0.753906
1.000000 0.956250 0.753906
1.000000 0.956250 0.753906
0.000000 1.000000 0.753906
0.000000 1.000000 0.753906
0.043750 1.000000 0.753906
0.246094 1.000000 0.753906
0.500000 1.000000 0.753906
0.753906 1.000000 0.753906
0.956250 1.000000 0.753906
1.000000 1.000000 0.753906
1.000000 1.000000 0.753906
0.000000 1.000000 0.753906
0.000000 1.000000 0.753906
0.043750 1.000000 0.753906
0.246094 1.000000 0.753906
0.500000 1.000000 0.753906
0.753906 1.000000 0.753906
0.956250 1.000000 0.753906
1.000000 1.000000 0.753906
1.000000 1.000000 0.753906
0.000000 0.000000 0.956250
0.000000 0.000000 0.956250
0.043750 0.000000 0.956250
0.246094 0.000000 0.956250
0.500000 0.000000 0.956250
0.753906 0.000000 0.956250
0.956250 0.000000 0.956250
1.000000 0.000000 0.956250
1.000000 0.000000 0.956250
0.000000 0.000000 0.956250
0.000000 0.000000 0.956250
0.043750 0.000000 0.956250
0.246094 0.000000 0.956250
0.500000 0.000000 0.956250
0.753906 0.000000 0.956250
0.956250 0.000000 0.956250
1.000000 0.000000 0.956250
1.000000 0.000000 0.956250
0.000000 0.043750 0.956250
0.000000 0.043750 0.956250
0.043750 0.043750 0.956250
0.246094 0.043750 0.956250
0.500000 0.043750 0.956250
0.753906 0.043750 0.956250
0.956250 0.043750 0.956250
1.000000 0.043750 0.956250
1.000000 0.043750 0.956250
0.000000 0.246094 0.956250
0.000000 0.246094 0.956250
0.043750 0.246094 0.956250
0.246094 0.246094 0.956250
0.500000 0.246094 0.956250
0.753906 0.246094 0.956250
0.956250 0.246094 0.956250
1.000000 0.246094 0.956250
1.000000 0.246094 0.956250
0.000000 0.500000 0.956250
0.000000 0.500000 0.956250
0.043750 0.500000 0.956250
0.246094 0.500000 0.956250
0.500000 0.500000 0.956250
0.753906 0.500000 0.956250
0.956250 0.500000 0.956250
1.000000 0.500000 0.956250
1.000000 0.500000 0.956250
0.000000 0.753906 0.956250
0.000000 0.753906 0.956250
0.043750 0.753906 0.956250
0.246094 0.753906 0.956250
0.500000 0.753906 0.956250
0.753906 0.753906 0.956250
0.956250 0.753906 0.956250
1.000000 0.753906 0.956250
1.000000 0.753906 0.956250
0.000000 0.956250 0.956250
0.000000 0.956250 0.956250
0.043750 0.956250 0.956250
0.246094 0.956250 0.956250
0.500000 0.956250 0.956250
0.753906 0.956250 0.956250
0.956250 0.956250 0.956250
1.000000 0.956250 0.956250
1.000000 0.956250 0.956250
0.000000 1.000000 0.956250
0.000000 1.000000 0.956250
0.043750 1.000000 0.956250
0.246094 1.000000 0.956250
0.500000 1.000000 0.956250
0.753906 1.000000 0.956250
0.956250 1.000000 0.956250
1.000000 1.000000 0.956250
1.000000 1.000000 0.956250
0.000000 1.000000 0.956250
0.000000 1.000000 0.956250
0.043750 1.000000 0.956250
0.246094 1.000000 0.956250
0.500000 1.000000 0.956250
0.753906 1.000000 0.956250
0.956250 1.000000 0.956250
1.000000 1.000000 0.956250
1.000000 1.000000 0.956250
0.000000 0.000000 1.000000
0.000000 0.000000 1.000000
0.043750 0.000000 1.000000
0.246094 0.000000 1.000000
0.500000 0.000000 1.000000
0.753906 0.000000 1.000000
0.956250 0.000000 1.000000
1.000000 0.000000 1.000000
1.000000 0.000000 1.000000
0.000000 0.000000 1.000000
0.000000 0.000000 1.000000
0.043750 0.000000 1.000000
0.246094 0.000000 1.000000
0.500000 0.000000 1.000000
0.753906 0.000000 1.000000
0.956250 0.000000 1.000000
1.000000 0.000000 1.000000
1.000000 0.000000 1.000000
0.000000 0.043750 1.000000
0.000000 0.043750 1.000000
0.043750 0.043750 1.000000
0.246094 0.043750 1.000000
0.500000 0.043750 1.000000
0.753906 0.043750 1.000000
0.956250 0.043750 1.000000
1.000000 0.043750 1.000000
1.000000 0.043750 1.000000
0.000000 0.246094 1.000000
0.000000 0.246094 1.000000
0.043750 0.246094 1.000000
0.246094 0.246094 1.000000
0.500000 0.246094 1.000000
0.753906 0.246094 1.000000
0.956250 0.246094 1.000000
1.000000 0.246094 1.000000
1.000000 0.246094 1.000000
0.000000 0.500000 1.000000
0.000000 0.500000 1.000000
0.043750 0.500000 1.000000
0.246094 0.500000 1.000000
0.500000 0.500000 1.000000
0.753906 0.500000 1.000000
0.956250 0.500000 1.000000
1.000000 0.500000 1.000000
1.000000 0.500000 1.000000
0.000000 0.753906 1.000000
0.000000 0.753906 1.000000
0.043750 0.753906 1.000000
0.246094 0.753906 1.000000
0.500000 0.753906 1.000000
0.753906 0.753906 1.000000
0.956250 0.753906 1.000000
1.000000 0.753906 1.000000
1.000000 0.753906 1.000000
0.000000 0.956250 1.000000
0.000000 0.956250 1.000000
0.043750 0.956250 1.000000
0.246094 0.956250 1.000000
0.500000 0.956250 1.000000
0.753906 0.956250 1.000000
0.956250 0.956250 1.000000
1.000000 0.956250 1.000000
1.000000 0.956250 1.000000
0.000000 1.000000 1.000000
0.000000 1.000000 1.000000
0.043750 1.000000 1.000000
0.246094 1.000000 1.000000
0.500000 1.000000 1.000000
0.753906 1.000000 1.000000
0.956250 1.000000 1.000000
1.000000 1.000000 1.000000
1.000000 1.000000 1.000000
0.000000 1.000000 1.000000
0.000000 1.000000 1.000000
0.043750 1.000000 1.000000
0.246094 1.000000 1.000000
0.500000 1.000000 1.000000
0.753906 1.000000 1.000000
0.956250 1.000000 1.000000
1.000000 1.000000 1.000000
1.000000 1.000000 1.000000
0.000000 0.000000 1.000000
0.000000 0.000000 1.000000
0.043750 0.000000 1.000000
0.246094 0.000000 1.000000
0.500000 0.000000 1.000000
0.753906 0.000000 1.000000
0.956250 0.000000 1.000000
1.000000 0.000000 1.000000
1.000000 0.000000 1.000000
0.000000 0.000000 1.000000
0.000000 0.000000 1.000000
0.043750 0.000000 1.000000
0.246094 0.000000 1.000000
0.500000 0.000000 1.000000
0.753906 0.000000 1.000000
0.956250 0.000000 1.000000
1.000000 0.000000 1.000000
1.000000 0.000000 1.000000
0.000000 0.043750 1.000000
0.000000 0.043750 1.000000
0.043750 0.043750 1.000000
0.246094 0.043750 1.000000
0.500000 0.043750 1.000000
0.753906 0.043750 1.000000
0.956250 0.043750 1.000000
1.000000 0.043750 1.000000
1.000000 0.043750 1.000000
0.000000 0.246094 1.000000
0.000000 0.246094 1.000000
0.043750 0.246094 1.000000
0.246094 0.246094 1.000000
0.500000 0.246094 1.000000
0.753906 0.246094 1.000000
0.956250 0.246094 1.000000
1.000000 0.246094 1.000000
1.000000 0.246094 1.000000
0.000000 0.500000 1.000000
0.000000 0.500000 1.000000
0.043750 0.500000 1.000000
0.246094 0.500000 1.000000
0.500000 0.500000 1.000000
0.753906 0.500000 1.000000
0.956250 0.500000 1.000000
1.000000 0.500000 1.000000
1.000000 0.500000 1.000000
0.000000 0.753906 1.000000
0.000000 0.753906 1.000000
0.043750 0.753906 1.000000
0.246094 0.753906 1.000000
0.500000 0.753906 1.000000
0.753906 0.753906 1.000000
0.956250 0.753906 1.000000
1.000000 0.753906 1.000000
1.000000 0.753906 1.000000
0.000000 0.956250 1.000000
0.000000 0.956250 1.000000
0.043750 0.956250 1.000000
0.246094 0.956250 1.000000
0.500000 0.956250 1.000000
0.753906 0.956250 1.000000
0.956250 0.956250 1.000000
1.000000 0.956250 1.000000
1.000000 0.956250 1.000000
0.000000 1.000000 1.000000
0.000000 1.000000 1.000000
0.043750 1.000000 1.000000
0.246094 1.000000 1.000000
0.500000 1.000000 1.000000
0.753906 1.000000 1.000000
0.956250 1.000000 1.000000
1.000000 1.000000 1.000000
1.000000 1.000000 1.000000
0.000000 1.000000 1.000000
0.000000 1.000000 1.000000
0.043750 1.000000 1.000000
0.246094 1.000000 1.000000
0.500000 1.000000 1.000000
0.753906 1.000000 1.000000
0.956250 1.000000 1.000000
1.000000 1.000000 1.000000
1.000000 1.000000 1.000000
