data/luts/bleach_bypass.cube
TITLE "Bleach Bypass"
LUT_3D_SIZE 5
DOMAIN_MIN 0.0 0.0 0.0
DOMAIN_MAX 1.0 1.0 1.0
0.000000 0.000000 0.000000
0.043750 0.000000 0.000000
0.500000 0.000000 0.000000
0.956250 0.000000 0.000000
1.000000 0.000000 0.000000
0.000000 0.043750 0.000000
0.043750 0.043750 0.000000
0.500000 0.043750 0.000000
0.956250 0.043750 0.000000
1.000000 0.043750 0.000000
0.000000 0.500000 0.000000
0.043750 0.500000 0.000000
0.500000 0.500000 0.000000
0.956250 0.500000 0.000000
1.000000 0.500000 0.000000
0.000000 0.956250 0.000000
0.043750 0.956250 0.000000
0.500000 0.956250 0.000000
0.956250 0.956250 0.000000
1.000000 0.956250 0.000000
0.000000 1.000000 0.000000
0.043750 1.000000 0.000000
0.500000 1.000000 0.000000
0.956250 1.000000 0.000000
1.000000 1.000000 0.000000
0.000000 0.000000 0.043750
0.043750 0.000000 0.043750
0.500000 0.000000 0.043750
0.956250 0.000000 0.043750
1.000000 0.000000 0.043750
0.000000 0.043750 0.043750
0.043750 0.043750 0.043750
0.500000 0.043750 0.043750
0.956250 0.043750 0.043750
1.000000 0.043750 0.043750
0.000000 0.500000 0.043750
0.043750 0.500000 0.043750
0.500000 0.500000 0.043750
0.956250 0.500000 0.043750
1.000000 0.500000 0.043750
0.000000 0.956250 0.043750
0.043750 0.956250 0.043750
0.500000 0.956250 0.043750
0.956250 0.956250 0.043750
1.000000 0.956250 0.043750
0.000000 1.000000 0.043750
0.043750 1.000000 0.043750
0.500000 1.000000 0.043750
0.956250 1.000000 0.043750
1.000000 1.000000 0.043750
0.000000 0.000000 0.500000
0.043750 0.000000 0.500000
0.500000 0.000000 0.500000
0.956250 0.000000 0.500000
1.000000 0.000000 0.500000
0.000000 0.043750 0.500000
0.043750 0.043750 0.500000
0.500000 0.043750 0.500000
0.956250 0.043750 0.500000
1.000000 0.043750 0.500000
0.000000 0.500000 0.500000
0.043750 0.500000 0.500000
0.500000 0.500000 0.500000
0.956250 0.500000 0.500000
1.000000 0.500000 0.500000
0.000000 0.956250 0.500000
0.043750 0.956250 0.500000
0.500000 0.956250 0.500000
0.956250 0.956250 0.500000
1.000000 0.956250 0.500000
0.000000 1.000000 0.500000
0.043750 1.000000 0.500000
0.500000 1.000000 0.500000
0.956250 1.000000 0.500000
1.000000 1.000000 0.500000
0.000000 0.000000 0.956250
0.043750 0.000000 0.956250
0.500000 0.000000 0.956250
0.956250 0.000000 0.956250
1.000000 0.000000 0.956250
0.000000 0.043750 0.956250
0.043750 0.043750 0.956250
0.500000 0.043750 0.956250
0.956250 0.043750 0.956250
1.000000 0.043750 0.956250
0.000000 0.500000 0.956250
0.043750 0.500000 0.956250
0.500000 0.500000 0.956250
0.956250 0.500000 0.956250
1.000000 0.500000 0.956250
0.000000 0.956250 0.956250
0.043750 0.956250 0.956250
0.500000 0.956250 0.956250
0.956250 0.956250 0.956250
1.000000 0.956250 0.956250
0.000000 1.000000 0.956250
0.043750 1.000000 0.956250
0.500000 1.000000 0.956250
0.956250 1.000000 0.956250
1.000000 1.000000 0.956250
0.000000 0.000000 1.000000
0.043750 0.000000 1.000000
0.500000 0.000000 1.000000
0.956250 0.000000 1.000000
1.000000 0.000000 1.000000
0.000000 0.043750 1.000000
0.043750 0.043750 1.000000
0.500000 0.043750 1.000000
0.956250 0.043750 1.000000
1.000000 0.043750 1.000000
0.000000 0.500000 1.000000
0.043750 0.500000 1.000000
0.500000 0.500000 1.000000
0.956250 0.500000 1.000000
1.000000 0.500000 1.000000
0.000000 0.956250 1.000000
0.043750 0.956250 1.000000
0.500000 0.956250 1.000000
0.956250 0.956250 1.000000
1.000000 0.956250 1.000000
0.000000 1.000000 1.000000
0.043750 1.000000 1.000000
0.500000 1.000000 1.000000
0.956250 1.000000 1.000000
1.000000 1.000000 1.000000
