data/luts/cinematic.cube
TITLE "Cinematic"
LUT_3D_SIZE 5
DOMAIN_MIN 0.0 0.0 0.0
DOMAIN_MAX 1.0 1.0 1.0
0.021600 0.040000 0.096000
0.214202 0.050758 0.100645
0.406805 0.061515 0.105291
0.599407 0.072273 0.109936
0.792010 0.083030 0.114581
0.066014 0.255589 0.111627
0.258616 0.266347 0.116272
0.451219 0.277104 0.120918
0.643821 0.287862 0.125563
0.836424 0.298619 0.130208
0.110428 0.471178 0.127254
0.302536 0.481936 0.133136
0.492693 0.492693 0.143893
0.682851 0.503451 0.154651
0.873008 0.514208 0.165408
0.148567 0.686767 0.158567
0.338725 0.697525 0.169325
0.532811 0.708282 0.178118
0.727858 0.719040 0.186431
0.922906 0.729798 0.194744
0.195355 0.902356 0.189457
0.390402 0.913114 0.197770
0.585450 0.923872 0.206083
0.780497 0.934629 0.214395
0.975544 0.945387 0.222708
0.026084 0.043653 0.276978
0.218686 0.054411 0.281623
0.411289 0.065168 0.286268
0.603891 0.075926 0.290913
0.796493 0.086684 0.295559
0.070498 0.259242 0.292605
0.263100 0.270000 0.297250
0.455702 0.280758 0.301895
0.648305 0.291515 0.306541
0.840473 0.302273 0.312273
0.114911 0.474832 0.308232
0.306189 0.485589 0.316189
0.496347 0.496347 0.326947
0.686504 0.507104 0.337704
0.876662 0.517862 0.348462
0.152221 0.690421 0.341621
0.343077 0.701178 0.352029
0.538125 0.711936 0.360341
0.733172 0.722693 0.368654
0.928220 0.733451 0.376967
0.200669 0.906010 0.371680
0.395716 0.916767 0.379993
0.590764 0.927525 0.388306
0.785811 0.938282 0.396618
0.980858 0.949040 0.404931
0.030567 0.047307 0.457955
0.223170 0.058064 0.462600
0.415772 0.068822 0.467246
0.608375 0.079579 0.471891
0.800977 0.090337 0.476536
0.074981 0.262896 0.473582
0.267584 0.273653 0.478228
0.460186 0.284411 0.482873
0.652789 0.295168 0.487518
0.844126 0.305926 0.495326
0.119395 0.478485 0.489209
0.309842 0.489242 0.499242
0.500000 0.500000 0.510000
0.690158 0.510758 0.520758
0.880895 0.521515 0.531225
0.155874 0.694074 0.524674
0.348391 0.704832 0.534252
0.543439 0.715589 0.542564
0.738486 0.726347 0.550877
0.933533 0.737104 0.559190
0.205983 0.909663 0.553903
0.401030 0.920421 0.562216
0.596077 0.931178 0.570529
0.791125 0.941936 0.578841
0.986172 0.952693 0.587154
0.035051 0.050960 0.638933
0.227653 0.061718 0.643578
0.420256 0.072475 0.648223
0.612858 0.083233 0.652869
0.805461 0.093990 0.657514
0.079465 0.266549 0.654560
0.272067 0.277307 0.659205
0.464670 0.288064 0.663850
0.657272 0.298822 0.668496
0.847779 0.309579 0.678379
0.123338 0.482138 0.671538
0.313496 0.492896 0.682296
0.503653 0.503653 0.693053
0.693811 0.514411 0.703811
0.886209 0.525168 0.713448
0.159527 0.697727 0.707727
0.353705 0.708485 0.716475
0.548753 0.719242 0.724787
0.743800 0.730000 0.733100
0.938847 0.740758 0.741413
0.211297 0.913316 0.736126
0.406344 0.924074 0.744439
0.601391 0.934832 0.752752
0.796439 0.945589 0.761064
0.991486 0.956347 0.769377
0.039534 0.054613 0.819910
0.232137 0.065371 0.824556
0.424739 0.076128 0.829201
0.617342 0.086886 0.833846
0.809944 0.097644 0.838492
0.083948 0.270202 0.835537
0.276551 0.280960 0.840183
0.469153 0.291718 0.844828
0.661275 0.302475 0.850675
0.851433 0.313233 0.861433
0.126992 0.485792 0.854592
0.317149 0.496549 0.865349
0.507307 0.507307 0.876107
0.697464 0.518064 0.886864
0.891523 0.528822 0.895671
0.163972 0.701381 0.890385
0.359019 0.712138 0.898698
0.554067 0.722896 0.907010
0.749114 0.733653 0.915323
0.944161 0.744411 0.923636
0.216611 0.916970 0.918349
0.411658 0.927727 0.926662
0.606705 0.938485 0.934975
0.801753 0.949242 0.943287
0.996800 0.960000 0.951600
