data/luts/cinematic.cube
TITLE "Cinematic"
LUT_3D_SIZE 9
DOMAIN_MIN 0.0 0.0 0.0
DOMAIN_MAX 1.0 1.0 1.0
0.021600 0.040000 0.096000
0.117901 0.045379 0.098323
0.214202 0.050758 0.100645
0.310504 0.056136 0.102968
0.406805 0.061515 0.105291
0.503106 0.066894 0.107613
0.599407 0.072273 0.109936
0.695709 0.077651 0.112259
0.792010 0.083030 0.114581
0.043807 0.147795 0.103814
0.140108 0.153173 0.106136
0.236409 0.158552 0.108459
0.332711 0.163931 0.110782
0.429012 0.169310 0.113104
0.525313 0.174688 0.115427
0.621614 0.180067 0.117749
0.717916 0.185446 0.120072
0.814217 0.190825 0.122395
0.066014 0.255589 0.111627
0.162315 0.260968 0.113950
0.258616 0.266347 0.116272
0.354918 0.271725 0.118595
0.451219 0.277104 0.120918
0.547520 0.282483 0.123240
0.643821 0.287862 0.125563
0.740123 0.293241 0.127886
0.836424 0.298619 0.130208
0.088221 0.363384 0.119441
0.184522 0.368762 0.121763
0.280823 0.374141 0.124086
0.377125 0.379520 0.126409
0.473426 0.384899 0.128731
0.569678 0.390278 0.131178
0.664756 0.395656 0.136556
0.759835 0.401035 0.141935
0.854914 0.406414 0.147314
0.110428 0.471178 0.127254
0.206729 0.476557 0.129577
0.302536 0.481936 0.133136
0.397615 0.487315 0.138515
0.492693 0.492693 0.143893
0.587772 0.498072 0.149272
0.682851 0.503451 0.154651
0.777930 0.508830 0.160030
0.873008 0.514208 0.165408
0.130473 0.578973 0.140473
0.225552 0.584352 0.145852
0.320630 0.589730 0.151230
0.415709 0.595109 0.156609
0.510788 0.600488 0.161988
0.605867 0.605867 0.167367
0.701539 0.611245 0.172449
0.799063 0.616624 0.176605
0.896586 0.622003 0.180761
0.148567 0.686767 0.158567
0.243646 0.692146 0.163946
0.338725 0.697525 0.169325
0.435287 0.702904 0.173962
0.532811 0.708282 0.178118
0.630335 0.713661 0.182275
0.727858 0.719040 0.186431
0.825382 0.724419 0.190587
0.922906 0.729798 0.194744
0.169036 0.794562 0.175475
0.266559 0.799941 0.179631
0.364083 0.805319 0.183788
0.461607 0.810698 0.187944
0.559130 0.816077 0.192100
0.656654 0.821456 0.196257
0.754178 0.826835 0.200413
0.851701 0.832213 0.204569
0.949225 0.837592 0.208726
0.195355 0.902356 0.189457
0.292879 0.907735 0.193614
0.390402 0.913114 0.197770
0.487926 0.918493 0.201926
0.585450 0.923872 0.206083
0.682973 0.929250 0.210239
0.780497 0.934629 0.214395
0.878021 0.940008 0.218552
0.975544 0.945387 0.222708
0.023842 0.041827 0.186489
0.120143 0.047205 0.188811
0.216444 0.052584 0.191134
0.312746 0.057963 0.193457
0.409047 0.063342 0.195779
0.505348 0.068721 0.198102
0.601649 0.074099 0.200425
0.697950 0.079478 0.202747
0.794252 0.084857 0.205070
0.046049 0.149621 0.194302
0.142350 0.155000 0.196625
0.238651 0.160379 0.198948
0.334952 0.165758 0.201270
0.431254 0.171136 0.203593
0.527555 0.176515 0.205916
0.623856 0.181894 0.208238
0.720157 0.187273 0.210561
0.816459 0.192651 0.212884
0.068256 0.257416 0.202116
0.164557 0.262795 0.204439
0.260858 0.268173 0.206761
0.357159 0.273552 0.209084
0.453461 0.278931 0.211407
0.549762 0.284310 0.213729
0.646063 0.289688 0.216052
0.742364 0.295067 0.218374
0.838646 0.300446 0.220746
0.090463 0.365210 0.209929
0.186764 0.370589 0.212252
0.283065 0.375968 0.214575
0.379366 0.381347 0.216897
0.475668 0.386725 0.219220
0.571504 0.392104 0.222704
0.666583 0.397483 0.228083
0.761662 0.402862 0.233462
0.856741 0.408241 0.238841
0.112670 0.473005 0.217743
0.208971 0.478384 0.220066
0.304362 0.483762 0.224662
0.399441 0.489141 0.230041
0.494520 0.494520 0.235420
0.589599 0.499899 0.240799
0.684678 0.505278 0.246178
0.779756 0.510656 0.251556
0.874835 0.516035 0.256935
0.132299 0.580799 0.231999
0.227378 0.586178 0.237378
0.322457 0.591557 0.242757
0.417536 0.596936 0.248136
0.512615 0.602315 0.253515
0.607693 0.607693 0.258893
0.704196 0.613072 0.263560
0.801720 0.618451 0.267717
0.899243 0.623830 0.271873
0.150394 0.688594 0.250094
0.245473 0.693973 0.255473
0.340552 0.699352 0.260852
0.437944 0.704730 0.265073
0.535468 0.710109 0.269230
0.632992 0.715488 0.273386
0.730515 0.720867 0.277542
0.828039 0.726245 0.281699
0.925563 0.731624 0.285855
0.171692 0.796389 0.266587
0.269216 0.801767 0.270743
0.366740 0.807146 0.274899
0.464264 0.812525 0.279056
0.561787 0.817904 0.283212
0.659311 0.823282 0.287368
0.756835 0.828661 0.291525
0.854358 0.834040 0.295681
0.951882 0.839419 0.299837
0.198012 0.904183 0.280569
0.295536 0.909562 0.284725
0.393059 0.914941 0.288881
0.490583 0.920319 0.293038
0.588107 0.925698 0.297194
0.685630 0.931077 0.301350
0.783154 0.936456 0.305507
0.880678 0.941835 0.309663
0.978201 0.947213 0.313819
0.026084 0.043653 0.276978
0.122385 0.049032 0.279300
0.218686 0.054411 0.281623
0.314987 0.059790 0.283946
0.411289 0.065168 0.286268
0.507590 0.070547 0.288591
0.603891 0.075926 0.290913
0.700192 0.081305 0.293236
0.796493 0.086684 0.295559
0.048291 0.151448 0.284791
0.144592 0.156827 0.287114
0.240893 0.162205 0.289436
0.337194 0.167584 0.291759
0.433495 0.172963 0.294082
0.529797 0.178342 0.296404
0.626098 0.183721 0.298727
0.722399 0.189099 0.301050
0.818700 0.194478 0.303372
0.070498 0.259242 0.292605
0.166799 0.264621 0.294927
0.263100 0.270000 0.297250
0.359401 0.275379 0.299573
0.455702 0.280758 0.301895
0.552004 0.286136 0.304218
0.648305 0.291515 0.306541
0.744606 0.296894 0.308863
0.840473 0.302273 0.312273
0.092705 0.367037 0.300418
0.189006 0.372416 0.302741
0.285307 0.377795 0.305064
0.381608 0.383173 0.307386
0.477909 0.388552 0.309709
0.573331 0.393931 0.314231
0.668410 0.399310 0.319610
0.763488 0.404688 0.324988
0.858567 0.410067 0.330367
0.114911 0.474832 0.308232
0.211110 0.480210 0.310810
0.306189 0.485589 0.316189
0.401268 0.490968 0.321568
0.496347 0.496347 0.326947
0.591425 0.501725 0.332325
0.686504 0.507104 0.337704
0.781583 0.512483 0.343083
0.876662 0.517862 0.348462
0.134126 0.582626 0.323526
0.229205 0.588005 0.328905
0.324284 0.593384 0.334284
0.419362 0.598762 0.339662
0.514441 0.604141 0.345041
0.609520 0.609520 0.350420
0.706853 0.614899 0.354672
0.804376 0.620278 0.358828
0.901900 0.625656 0.362984
0.152221 0.690421 0.341621
0.247299 0.695799 0.346999
0.343077 0.701178 0.352029
0.440601 0.706557 0.356185
0.538125 0.711936 0.360341
0.635648 0.717315 0.364498
0.733172 0.722693 0.368654
0.830696 0.728072 0.372810
0.928220 0.733451 0.376967
0.174349 0.798215 0.357698
0.271873 0.803594 0.361854
0.369397 0.808973 0.366011
0.466920 0.814352 0.370167
0.564444 0.819730 0.374323
0.661968 0.825109 0.378480
0.759492 0.830488 0.382636
0.857015 0.835867 0.386792
0.954539 0.841245 0.390949
0.200669 0.906010 0.371680
0.298192 0.911389 0.375837
0.395716 0.916767 0.379993
0.493240 0.922146 0.384149
0.590764 0.927525 0.388306
0.688287 0.932904 0.392462
0.785811 0.938282 0.396618
0.883335 0.943661 0.400775
0.980858 0.949040 0.404931
0.028325 0.045480 0.367466
0.124627 0.050859 0.369789
0.220928 0.056238 0.372112
0.317229 0.061616 0.374434
0.413530 0.066995 0.376757
0.509832 0.072374 0.379080
0.606133 0.077753 0.381402
0.702434 0.083131 0.383725
0.798735 0.088510 0.386048
0.050532 0.153275 0.375280
0.146834 0.158653 0.377603
0.243135 0.164032 0.379925
0.339436 0.169411 0.382248
0.435737 0.174790 0.384571
0.532039 0.180168 0.386893
0.628340 0.185547 0.389216
0.724641 0.190926 0.391539
0.820942 0.196305 0.393861
0.072739 0.261069 0.383093
0.169041 0.266448 0.385416
0.265342 0.271827 0.387739
0.361643 0.277205 0.390061
0.457944 0.282584 0.392384
0.554246 0.287963 0.394707
0.650547 0.293342 0.397029
0.746848 0.298721 0.399352
0.842299 0.304099 0.403799
0.094946 0.368864 0.390907
0.191248 0.374242 0.393230
0.287549 0.379621 0.395552
0.383850 0.385000 0.397875
0.480079 0.390379 0.400379
0.575158 0.395758 0.405758
0.670236 0.401136 0.411136
0.765315 0.406515 0.416515
0.860394 0.411894 0.421894
0.117153 0.476658 0.398721
0.212937 0.482037 0.402337
0.308016 0.487416 0.407716
0.403095 0.492795 0.413095
0.498173 0.498173 0.418473
0.593252 0.503552 0.423852
0.688331 0.508931 0.429231
0.783410 0.514310 0.434610
0.878488 0.519688 0.439988
0.135953 0.584453 0.415053
0.231032 0.589832 0.420432
0.326110 0.595210 0.425810
0.421189 0.600589 0.431189
0.516268 0.605968 0.436568
0.611986 0.611347 0.441627
0.709510 0.616725 0.445783
0.807033 0.622104 0.449940
0.904557 0.627483 0.454096
0.154047 0.692247 0.433147
0.249126 0.697626 0.438526
0.345734 0.703005 0.443140
0.443258 0.708384 0.447296
0.540782 0.713762 0.451453
0.638305 0.719141 0.455609
0.735829 0.724520 0.459765
0.833353 0.729899 0.463922
0.930876 0.735278 0.468078
0.177006 0.800042 0.448810
0.274530 0.805421 0.452966
0.372054 0.810799 0.457122
0.469577 0.816178 0.461279
0.567101 0.821557 0.465435
0.664625 0.826936 0.469591
0.762148 0.832315 0.473748
0.859672 0.837693 0.477904
0.957196 0.843072 0.482060
0.203326 0.907836 0.462792
0.300849 0.913215 0.466948
0.398373 0.918594 0.471104
0.495897 0.923973 0.475261
0.593420 0.929352 0.479417
0.690944 0.934730 0.483573
0.788468 0.940109 0.487730
0.885992 0.945488 0.491886
0.983515 0.950867 0.496042
0.030567 0.047307 0.457955
0.126868 0.052685 0.460278
0.223170 0.058064 0.462600
0.319471 0.063443 0.464923
0.415772 0.068822 0.467246
0.512073 0.074201 0.469568
0.608375 0.079579 0.471891
0.704676 0.084958 0.474214
0.800977 0.090337 0.476536
0.052774 0.155101 0.465769
0.149075 0.160480 0.468091
0.245377 0.165859 0.470414
0.341678 0.171238 0.472737
0.437979 0.176616 0.475059
0.534280 0.181995 0.477382
0.630582 0.187374 0.479705
0.726883 0.192753 0.482027
0.823184 0.198131 0.484350
0.074981 0.262896 0.473582
0.171282 0.268275 0.475905
0.267584 0.273653 0.478228
0.363885 0.279032 0.480550
0.460186 0.284411 0.482873
0.556487 0.289790 0.485196
0.652789 0.295168 0.487518
0.749047 0.300547 0.489947
0.844126 0.305926 0.495326
0.097188 0.370690 0.481396
0.193489 0.376069 0.483718
0.289791 0.381448 0.486041
0.386092 0.386827 0.488364
0.481905 0.392205 0.491905
0.576984 0.397584 0.497284
0.672063 0.402963 0.502663
0.767142 0.408342 0.508042
0.862221 0.413721 0.513421
0.119395 0.478485 0.489209
0.214764 0.483864 0.493864
0.309842 0.489242 0.499242
0.404921 0.494621 0.504621
0.500000 0.500000 0.510000
0.595079 0.505379 0.515379
0.690158 0.510758 0.520758
0.785236 0.516136 0.526136
0.880895 0.521515 0.531225
0.137779 0.586279 0.506579
0.232858 0.591658 0.511958
0.327937 0.597037 0.517337
0.423016 0.602416 0.522716
0.518095 0.607795 0.528095
0.614643 0.613173 0.532738
0.712167 0.618552 0.536895
0.809690 0.623931 0.541051
0.907214 0.629310 0.545207
0.155874 0.694074 0.524674
0.250953 0.699453 0.530053
0.348391 0.704832 0.534252
0.445915 0.710210 0.538408
0.543439 0.715589 0.542564
0.640962 0.720968 0.546721
0.738486 0.726347 0.550877
0.836010 0.731725 0.555033
0.933533 0.737104 0.559190
0.179663 0.801869 0.539921
0.277187 0.807247 0.544077
0.374711 0.812626 0.548234
0.472234 0.818005 0.552390
0.569758 0.823384 0.556546
0.667282 0.828762 0.560703
0.764805 0.834141 0.564859
0.862329 0.839520 0.569015
0.959853 0.844899 0.573172
0.205983 0.909663 0.553903
0.303506 0.915042 0.558060
0.401030 0.920421 0.562216
0.498554 0.925799 0.566372
0.596077 0.931178 0.570529
0.693601 0.936557 0.574685
0.791125 0.941936 0.578841
0.888648 0.947315 0.582998
0.986172 0.952693 0.587154
0.032809 0.049133 0.548444
0.129110 0.054512 0.550767
0.225412 0.059891 0.553089
0.321713 0.065270 0.555412
0.418014 0.070648 0.557735
0.514315 0.076027 0.560057
0.610616 0.081406 0.562380
0.706918 0.086785 0.564703
0.803219 0.092164 0.567025
0.055016 0.156928 0.556257
0.151317 0.162307 0.558580
0.247618 0.167685 0.560903
0.343920 0.173064 0.563225
0.440221 0.178443 0.565548
0.536522 0.183822 0.567871
0.632823 0.189201 0.570193
0.729125 0.194579 0.572516
0.825426 0.199958 0.574839
0.077223 0.264722 0.564071
0.173524 0.270101 0.566394
0.269825 0.275480 0.568716
0.366127 0.280859 0.571039
0.462428 0.286238 0.573362
0.558729 0.291616 0.575684
0.655030 0.296995 0.578007
0.750874 0.302374 0.581474
0.845953 0.307753 0.586853
0.099430 0.372517 0.571885
0.195731 0.377896 0.574207
0.292032 0.383275 0.576530
0.388334 0.388653 0.578853
0.483732 0.394032 0.583432
0.578811 0.399411 0.588811
0.673890 0.404790 0.594190
0.768968 0.410168 0.599568
0.864047 0.415547 0.604947
0.121512 0.480312 0.580012
0.216590 0.485690 0.585390
0.311669 0.491069 0.590769
0.406748 0.496448 0.596148
0.501827 0.501827 0.601527
0.596905 0.507205 0.606905
0.691984 0.512584 0.612284
0.787063 0.517963 0.617663
0.883552 0.523342 0.622337
0.139606 0.588106 0.598106
0.234685 0.593485 0.603485
0.329764 0.598864 0.608864
0.424842 0.604242 0.614242
0.519921 0.609621 0.619621
0.617300 0.615000 0.623850
0.714824 0.620379 0.628006
0.812347 0.625758 0.632163
0.909871 0.631136 0.636319
0.157701 0.695901 0.616201
0.253525 0.701279 0.621207
0.351048 0.706658 0.625363
0.448572 0.712037 0.629520
0.546096 0.717416 0.633676
0.643619 0.722795 0.637832
0.741143 0.728173 0.641988
0.838667 0.733552 0.646145
0.936190 0.738931 0.650301
0.182320 0.803695 0.631033
0.279844 0.809074 0.635189
0.377368 0.814453 0.639345
0.474891 0.819832 0.643502
0.572415 0.825210 0.647658
0.669939 0.830589 0.651814
0.767462 0.835968 0.655971
0.864986 0.841347 0.660127
0.962510 0.846725 0.664283
0.208640 0.911490 0.645015
0.306163 0.916869 0.649171
0.403687 0.922247 0.653327
0.501211 0.927626 0.657484
0.598734 0.933005 0.661640
0.696258 0.938384 0.665796
0.793782 0.943762 0.669953
0.891305 0.949141 0.674109
0.988829 0.954520 0.678265
0.035051 0.050960 0.638933
0.131352 0.056339 0.641255
0.227653 0.061718 0.643578
0.323955 0.067096 0.645901
0.420256 0.072475 0.648223
0.516557 0.077854 0.650546
0.612858 0.083233 0.652869
0.709159 0.088611 0.655191
0.805461 0.093990 0.657514
0.057258 0.158755 0.646746
0.153559 0.164133 0.649069
0.249860 0.169512 0.651392
0.346162 0.174891 0.653714
0.442463 0.180270 0.656037
0.538764 0.185648 0.658360
0.635065 0.191027 0.660682
0.731366 0.196406 0.663005
0.827668 0.201785 0.665328
0.079465 0.266549 0.654560
0.175766 0.271928 0.656882
0.272067 0.277307 0.659205
0.368368 0.282685 0.661528
0.464670 0.288064 0.663850
0.560971 0.293443 0.666173
0.657272 0.298822 0.668496
0.752701 0.304201 0.673001
0.847779 0.309579 0.678379
0.101672 0.374344 0.662373
0.197973 0.379722 0.664696
0.294274 0.385101 0.667019
0.390480 0.390480 0.669580
0.485559 0.395859 0.674959
0.580638 0.401238 0.680338
0.675716 0.406616 0.685716
0.770795 0.411995 0.691095
0.865874 0.417374 0.696474
0.123338 0.482138 0.671538
0.218417 0.487517 0.676917
0.313496 0.492896 0.682296
0.408575 0.498275 0.687675
0.503653 0.503653 0.693053
0.598732 0.509032 0.698432
0.693811 0.514411 0.703811
0.788890 0.519790 0.709190
0.886209 0.525168 0.713448
0.141433 0.589933 0.689633
0.236512 0.595312 0.695012
0.331590 0.600690 0.700390
0.426669 0.606069 0.705769
0.522433 0.611448 0.710805
0.619957 0.616827 0.714962
0.717481 0.622205 0.719118
0.815004 0.627584 0.723274
0.912528 0.632963 0.727431
0.159527 0.697727 0.707727
0.256182 0.703106 0.712318
0.353705 0.708485 0.716475
0.451229 0.713864 0.720631
0.548753 0.719242 0.724787
0.646276 0.724621 0.728944
0.743800 0.730000 0.733100
0.841324 0.735379 0.737256
0.938847 0.740758 0.741413
0.184977 0.805522 0.722144
0.282501 0.810901 0.726301
0.380025 0.816279 0.730457
0.477548 0.821658 0.734613
0.575072 0.827037 0.738770
0.672596 0.832416 0.742926
0.770119 0.837795 0.747082
0.867643 0.843173 0.751238
0.965167 0.848552 0.755395
0.211297 0.913316 0.736126
0.308820 0.918695 0.740283
0.406344 0.924074 0.744439
0.503868 0.929453 0.748595
0.601391 0.934832 0.752752
0.698915 0.940210 0.756908
0.796439 0.945589 0.761064
0.893962 0.950968 0.765221
0.991486 0.956347 0.769377
0.037293 0.052787 0.729421
0.133594 0.058165 0.731744
0.229895 0.063544 0.734067
0.326196 0.068923 0.736389
0.422498 0.074302 0.738712
0.518799 0.079681 0.741035
0.615100 0.085059 0.743357
0.711401 0.090438 0.745680
0.807703 0.095817 0.748003
0.059500 0.160581 0.737235
0.155801 0.165960 0.739558
0.252102 0.171339 0.741880
0.348403 0.176718 0.744203
0.444705 0.182096 0.746526
0.541006 0.187475 0.748848
0.637307 0.192854 0.751171
0.733608 0.198233 0.753494
0.829909 0.203611 0.755816
0.081707 0.268376 0.745049
0.178008 0.273755 0.747371
0.274309 0.279133 0.749694
0.370610 0.284512 0.752017
0.466912 0.289891 0.754339
0.563213 0.295270 0.756662
0.659448 0.300648 0.759148
0.754527 0.306027 0.764527
0.849606 0.311406 0.769906
0.103914 0.376170 0.752862
0.200215 0.381549 0.755185
0.296516 0.386928 0.757507
0.392307 0.392307 0.761107
0.487385 0.397685 0.766485
0.582464 0.403064 0.771864
0.677543 0.408443 0.777243
0.772622 0.413822 0.782622
0.867701 0.419201 0.788001
0.125165 0.483965 0.763065
0.220244 0.489344 0.768444
0.315322 0.494722 0.773822
0.410401 0.500101 0.779201
0.505480 0.505480 0.784580
0.600559 0.510859 0.789959
0.695638 0.516238 0.795338
0.791342 0.521616 0.800404
0.888866 0.526995 0.804560
0.143259 0.591759 0.781159
0.238338 0.597138 0.786538
0.333417 0.602517 0.791917
0.428496 0.607896 0.797296
0.525090 0.613275 0.801917
0.622614 0.618653 0.806073
0.720138 0.624032 0.810229
0.817661 0.629411 0.814386
0.915185 0.634790 0.818542
0.161354 0.699554 0.799254
0.258839 0.704933 0.803430
0.356362 0.710312 0.807586
0.453886 0.715690 0.811743
0.551410 0.721069 0.815899
0.648933 0.726448 0.820055
0.746457 0.731827 0.824212
0.843981 0.737205 0.828368
0.941504 0.742584 0.832524
0.187634 0.807349 0.813256
0.285158 0.812727 0.817412
0.382682 0.818106 0.821568
0.480205 0.823485 0.825725
0.577729 0.828864 0.829881
0.675253 0.834242 0.834037
0.772776 0.839621 0.838194
0.870300 0.845000 0.842350
0.967824 0.850379 0.846506
0.213954 0.915143 0.827238
0.311477 0.920522 0.831394
0.409001 0.925901 0.835551
0.506525 0.931279 0.839707
0.604048 0.936658 0.843863
0.701572 0.942037 0.848020
0.799096 0.947416 0.852176
0.896619 0.952795 0.856332
0.994143 0.958173 0.860488
0.039534 0.054613 0.819910
0.135836 0.059992 0.822233
0.232137 0.065371 0.824556
0.328438 0.070750 0.826878
0.424739 0.076128 0.829201
0.521041 0.081507 0.831524
0.617342 0.086886 0.833846
0.713643 0.092265 0.836169
0.809944 0.097644 0.838492
0.061741 0.162408 0.827724
0.158043 0.167787 0.830046
0.254344 0.173165 0.832369
0.350645 0.178544 0.834692
0.446946 0.183923 0.837014
0.543248 0.189302 0.839337
0.639549 0.194681 0.841660
0.735850 0.200059 0.843982
0.832151 0.205438 0.846305
0.083948 0.270202 0.835537
0.180250 0.275581 0.837860
0.276551 0.280960 0.840183
0.372852 0.286339 0.842505
0.469153 0.291718 0.844828
0.565455 0.297096 0.847151
0.661275 0.302475 0.850675
0.756354 0.307854 0.856054
0.851433 0.313233 0.861433
0.106155 0.377997 0.843351
0.202457 0.383376 0.845674
0.298758 0.388755 0.847996
0.394133 0.394133 0.852633
0.489212 0.399512 0.858012
0.584291 0.404891 0.863391
0.679370 0.410270 0.868770
0.774448 0.415648 0.874148
0.869527 0.421027 0.879527
0.126992 0.485792 0.854592
0.222070 0.491170 0.859970
0.317149 0.496549 0.865349
0.412228 0.501928 0.870728
0.507307 0.507307 0.876107
0.602385 0.512685 0.881485
0.697464 0.518064 0.886864
0.793999 0.523443 0.891515
0.891523 0.528822 0.895671
0.145086 0.593586 0.872686
0.240165 0.598965 0.878065
0.335244 0.604344 0.883444
0.430322 0.609722 0.888822
0.527747 0.615101 0.893028
0.625271 0.620480 0.897185
0.722795 0.625859 0.901341
0.820318 0.631238 0.905497
0.917842 0.636616 0.909654
0.163972 0.701381 0.890385
0.261496 0.706759 0.894541
0.359019 0.712138 0.898698
0.456543 0.717517 0.902854
0.554067 0.722896 0.907010
0.651590 0.728275 0.911167
0.749114 0.733653 0.915323
0.846638 0.739032 0.919479
0.944161 0.744411 0.923636
0.190291 0.809175 0.904367
0.287815 0.814554 0.908524
0.385339 0.819933 0.912680
0.482862 0.825312 0.916836
0.580386 0.830690 0.920993
0.677910 0.836069 0.925149
0.775433 0.841448 0.929305
0.872957 0.846827 0.933462
0.970481 0.852205 0.937618
0.216611 0.916970 0.918349
0.314134 0.922349 0.922506
0.411658 0.927727 0.926662
0.509182 0.933106 0.930818
0.606705 0.938485 0.934975
0.704229 0.943864 0.939131
0.801753 0.949242 0.943287
0.899276 0.954621 0.947444
0.996800 0.960000 0.951600
