data/luts/cinematic.cube
TITLE "Cinematic"
LUT_3D_SIZE 33
DOMAIN_MIN 0.0 0.0 0.0
DOMAIN_MAX 1.0 1.0 1.0
0.021600 0.040000 0.096000
0.045675 0.041345 0.096581
0.069751 0.042689 0.097161
0.093826 0.044034 0.097742
0.117901 0.045379 0.098323
0.141977 0.046723 0.098903
0.166052 0.048068 0.099484
0.190127 0.049413 0.100065
0.214202 0.050758 0.100645
0.238278 0.052102 0.101226
0.262353 0.053447 0.101807
0.286428 0.054792 0.102387
0.310504 0.056136 0.102968
0.334579 0.057481 0.103549
0.358654 0.058826 0.104129
0.382730 0.060170 0.104710
0.406805 0.061515 0.105291
0.430880 0.062860 0.105871
0.454956 0.064205 0.106452
0.479031 0.065549 0.107033
0.503106 0.066894 0.107613
0.527181 0.068239 0.108194
0.551257 0.069583 0.108775
0.575332 0.070928 0.109355
0.599407 0.072273 0.109936
0.623483 0.073617 0.110517
0.647558 0.074962 0.111097
0.671633 0.076307 0.111678
0.695709 0.077651 0.112259
0.719784 0.078996 0.112839
0.743859 0.080341 0.113420
0.767935 0.081686 0.114001
0.792010 0.083030 0.114581
0.027152 0.066949 0.097953
0.051227 0.068293 0.098534
0.075302 0.069638 0.099115
0.099378 0.070983 0.099695
0.123453 0.072327 0.100276
0.147528 0.073672 0.100857
0.171604 0.075017 0.101437
0.195679 0.076362 0.102018
0.219754 0.077706 0.102599
0.243830 0.079051 0.103179
0.267905 0.080396 0.103760
0.291980 0.081740 0.104341
0.316055 0.083085 0.104921
0.340131 0.084430 0.105502
0.364206 0.085774 0.106083
0.388281 0.087119 0.106663
0.412357 0.088464 0.107244
0.436432 0.089808 0.107825
0.460507 0.091153 0.108405
0.484583 0.092498 0.108986
0.508658 0.093843 0.109567
0.532733 0.095187 0.110147
0.556809 0.096532 0.110728
0.580884 0.097877 0.111309
0.604959 0.099221 0.111889
0.629034 0.100566 0.112470
0.653110 0.101911 0.113051
0.677185 0.103255 0.113631
0.701260 0.104600 0.114212
0.725336 0.105945 0.114793
0.749411 0.107289 0.115373
0.773486 0.108634 0.115954
0.797562 0.109979 0.116535
0.032703 0.093897 0.099907
0.056779 0.095242 0.100487
0.080854 0.096587 0.101068
0.104929 0.097931 0.101649
0.129005 0.099276 0.102229
0.153080 0.100621 0.102810
0.177155 0.101965 0.103391
0.201231 0.103310 0.103971
0.225306 0.104655 0.104552
0.249381 0.106000 0.105133
0.273457 0.107344 0.105713
0.297532 0.108689 0.106294
0.321607 0.110034 0.106875
0.345682 0.111378 0.107455
0.369758 0.112723 0.108036
0.393833 0.114068 0.108617
0.417908 0.115412 0.109197
0.441984 0.116757 0.109778
0.466059 0.118102 0.110359
0.490134 0.119446 0.110939
0.514210 0.120791 0.111520
0.538285 0.122136 0.112101
0.562360 0.123481 0.112681
0.586436 0.124825 0.113262
0.610511 0.126170 0.113843
0.634586 0.127515 0.114423
0.658661 0.128859 0.115004
0.682737 0.130204 0.115585
0.706812 0.131549 0.116165
0.730887 0.132893 0.116746
0.754963 0.134238 0.117327
0.779038 0.135583 0.117907
0.803113 0.136928 0.118488
0.038255 0.120846 0.101860
0.062331 0.122191 0.102441
0.086406 0.123535 0.103021
0.110481 0.124880 0.103602
0.134556 0.126225 0.104183
0.158632 0.127569 0.104763
0.182707 0.128914 0.105344
0.206782 0.130259 0.105925
0.230858 0.131603 0.106505
0.254933 0.132948 0.107086
0.279008 0.134293 0.107667
0.303084 0.135638 0.108247
0.327159 0.136982 0.108828
0.351234 0.138327 0.109409
0.375310 0.139672 0.109989
0.399385 0.141016 0.110570
0.423460 0.142361 0.111151
0.447535 0.143706 0.111731
0.471611 0.145050 0.112312
0.495686 0.146395 0.112893
0.519761 0.147740 0.113473
0.543837 0.149085 0.114054
0.567912 0.150429 0.114635
0.591987 0.151774 0.115215
0.616063 0.153119 0.115796
0.640138 0.154463 0.116377
0.664213 0.155808 0.116957
0.688289 0.157153 0.117538
0.712364 0.158497 0.118119
0.736439 0.159842 0.118699
0.760514 0.161187 0.119280
0.784590 0.162531 0.119861
0.808665 0.163876 0.120441
0.043807 0.147795 0.103814
0.067882 0.149139 0.104394
0.091958 0.150484 0.104975
0.116033 0.151829 0.105556
0.140108 0.153173 0.106136
0.164183 0.154518 0.106717
0.188259 0.155863 0.107298
0.212334 0.157207 0.107878
0.236409 0.158552 0.108459
0.260485 0.159897 0.109040
0.284560 0.161242 0.109620
0.308635 0.162586 0.110201
0.332711 0.163931 0.110782
0.356786 0.165276 0.111362
0.380861 0.166620 0.111943
0.404937 0.167965 0.112524
0.429012 0.169310 0.113104
0.453087 0.170654 0.113685
0.477162 0.171999 0.114266
0.501238 0.173344 0.114846
0.525313 0.174688 0.115427
0.549388 0.176033 0.116007
0.573464 0.177378 0.116588
0.597539 0.178723 0.117169
0.621614 0.180067 0.117749
0.645690 0.181412 0.118330
0.669765 0.182757 0.118911
0.693840 0.184101 0.119491
0.717916 0.185446 0.120072
0.741991 0.186791 0.120653
0.766066 0.188135 0.121233
0.790141 0.189480 0.121814
0.814217 0.190825 0.122395
0.049359 0.174743 0.105767
0.073434 0.176088 0.106348
0.097509 0.177433 0.106928
0.121585 0.178777 0.107509
0.145660 0.180122 0.108090
0.169735 0.181467 0.108670
0.193811 0.182811 0.109251
0.217886 0.184156 0.109832
0.241961 0.185501 0.110412
0.266036 0.186845 0.110993
0.290112 0.188190 0.111574
0.314187 0.189535 0.112154
0.338262 0.190880 0.112735
0.362338 0.192224 0.113316
0.386413 0.193569 0.113896
0.410488 0.194914 0.114477
0.434564 0.196258 0.115058
0.458639 0.197603 0.115638
0.482714 0.198948 0.116219
0.506790 0.200292 0.116800
0.530865 0.201637 0.117380
0.554940 0.202982 0.117961
0.579015 0.204326 0.118542
0.603091 0.205671 0.119122
0.627166 0.207016 0.119703
0.651241 0.208361 0.120284
0.675317 0.209705 0.120864
0.699392 0.211050 0.121445
0.723467 0.212395 0.122026
0.747543 0.213739 0.122606
0.771618 0.215084 0.123187
0.795693 0.216429 0.123768
0.819769 0.217773 0.124348
0.054910 0.201692 0.107720
0.078986 0.203037 0.108301
0.103061 0.204381 0.108882
0.127136 0.205726 0.109462
0.151212 0.207071 0.110043
0.175287 0.208415 0.110624
0.199362 0.209760 0.111204
0.223438 0.211105 0.111785
0.247513 0.212449 0.112366
0.271588 0.213794 0.112946
0.295664 0.215139 0.113527
0.319739 0.216483 0.114108
0.343814 0.217828 0.114688
0.367889 0.219173 0.115269
0.391965 0.220518 0.115850
0.416040 0.221862 0.116430
0.440115 0.223207 0.117011
0.464191 0.224552 0.117592
0.488266 0.225896 0.118172
0.512341 0.227241 0.118753
0.536417 0.228586 0.119334
0.560492 0.229930 0.119914
0.584567 0.231275 0.120495
0.608643 0.232620 0.121076
0.632718 0.233965 0.121656
0.656793 0.235309 0.122237
0.680868 0.236654 0.122818
0.704944 0.237999 0.123398
0.729019 0.239343 0.123979
0.753094 0.240688 0.124560
0.777170 0.242033 0.125140
0.801245 0.243377 0.125721
0.825320 0.244722 0.126302
0.060462 0.228640 0.109674
0.084537 0.229985 0.110254
0.108613 0.231330 0.110835
0.132688 0.232675 0.111416
0.156763 0.234019 0.111996
0.180839 0.235364 0.112577
0.204914 0.236709 0.113158
0.228989 0.238053 0.113738
0.253065 0.239398 0.114319
0.277140 0.240743 0.114900
0.301215 0.242087 0.115480
0.325291 0.243432 0.116061
0.349366 0.244777 0.116642
0.373441 0.246122 0.117222
0.397516 0.247466 0.117803
0.421592 0.248811 0.118384
0.445667 0.250156 0.118964
0.469742 0.251500 0.119545
0.493818 0.252845 0.120126
0.517893 0.254190 0.120706
0.541968 0.255534 0.121287
0.566044 0.256879 0.121868
0.590119 0.258224 0.122448
0.614194 0.259568 0.123029
0.638270 0.260913 0.123610
0.662345 0.262258 0.124190
0.686420 0.263603 0.124771
0.710495 0.264947 0.125352
0.734571 0.266292 0.125932
0.758646 0.267637 0.126513
0.782721 0.268981 0.127094
0.806797 0.270326 0.127674
0.830872 0.271671 0.128255
0.066014 0.255589 0.111627
0.090089 0.256934 0.112208
0.114165 0.258279 0.112788
0.138240 0.259623 0.113369
0.162315 0.260968 0.113950
0.186390 0.262313 0.114530
0.210466 0.263657 0.115111
0.234541 0.265002 0.115692
0.258616 0.266347 0.116272
0.282692 0.267691 0.116853
0.306767 0.269036 0.117434
0.330842 0.270381 0.118014
0.354918 0.271725 0.118595
0.378993 0.273070 0.119176
0.403068 0.274415 0.119756
0.427144 0.275760 0.120337
0.451219 0.277104 0.120918
0.475294 0.278449 0.121498
0.499369 0.279794 0.122079
0.523445 0.281138 0.122660
0.547520 0.282483 0.123240
0.571595 0.283828 0.123821
0.595671 0.285172 0.124402
0.619746 0.286517 0.124982
0.643821 0.287862 0.125563
0.667897 0.289206 0.126144
0.691972 0.290551 0.126724
0.716047 0.291896 0.127305
0.740123 0.293241 0.127886
0.764198 0.294585 0.128466
0.788273 0.295930 0.129047
0.812348 0.297275 0.129628
0.836424 0.298619 0.130208
0.071566 0.282538 0.113581
0.095641 0.283882 0.114161
0.119716 0.285227 0.114742
0.143792 0.286572 0.115323
0.167867 0.287917 0.115903
0.191942 0.289261 0.116484
0.216018 0.290606 0.117064
0.240093 0.291951 0.117645
0.264168 0.293295 0.118226
0.288243 0.294640 0.118806
0.312319 0.295985 0.119387
0.336394 0.297329 0.119968
0.360469 0.298674 0.120548
0.384545 0.300019 0.121129
0.408620 0.301363 0.121710
0.432695 0.302708 0.122290
0.456771 0.304053 0.122871
0.480846 0.305398 0.123452
0.504921 0.306742 0.124032
0.528997 0.308087 0.124613
0.553072 0.309432 0.125194
0.577147 0.310776 0.125774
0.601222 0.312121 0.126355
0.625298 0.313466 0.126936
0.649373 0.314810 0.127516
0.673448 0.316155 0.128097
0.697524 0.317500 0.128678
0.721599 0.318845 0.129258
0.745674 0.320189 0.129839
0.769750 0.321534 0.130420
0.793804 0.322879 0.131054
0.817573 0.324223 0.132398
0.841343 0.325568 0.133743
0.077117 0.309486 0.115534
0.101193 0.310831 0.116115
0.125268 0.312176 0.116695
0.149343 0.313520 0.117276
0.173419 0.314865 0.117857
0.197494 0.316210 0.118437
0.221569 0.317555 0.119018
0.245645 0.318899 0.119599
0.269720 0.320244 0.120179
0.293795 0.321589 0.120760
0.317870 0.322933 0.121341
0.341946 0.324278 0.121921
0.366021 0.325623 0.122502
0.390096 0.326967 0.123083
0.414172 0.328312 0.123663
0.438247 0.329657 0.124244
0.462322 0.331002 0.124825
0.486398 0.332346 0.125405
0.510473 0.333691 0.125986
0.534548 0.335036 0.126567
0.558624 0.336380 0.127147
0.582699 0.337725 0.127728
0.606774 0.339070 0.128309
0.630849 0.340414 0.128889
0.654925 0.341759 0.129470
0.679000 0.343104 0.130050
0.703075 0.344448 0.130631
0.727018 0.345793 0.131543
0.750788 0.347138 0.132888
0.774558 0.348483 0.134233
0.798327 0.349827 0.135577
0.822097 0.351172 0.136922
0.845867 0.352517 0.138267
0.082669 0.336435 0.117487
0.106744 0.337780 0.118068
0.130820 0.339124 0.118649
0.154895 0.340469 0.119229
0.178970 0.341814 0.119810
0.203046 0.343159 0.120391
0.227121 0.344503 0.120971
0.251196 0.345848 0.121552
0.275272 0.347193 0.122133
0.299347 0.348537 0.122713
0.323422 0.349882 0.123294
0.347498 0.351227 0.123875
0.371573 0.352571 0.124455
0.395648 0.353916 0.125036
0.419723 0.355261 0.125617
0.443799 0.356605 0.126197
0.467874 0.357950 0.126778
0.491949 0.359295 0.127359
0.516025 0.360640 0.127939
0.540100 0.361984 0.128520
0.564175 0.363329 0.129101
0.588251 0.364674 0.129681
0.612326 0.366018 0.130262
0.636401 0.367363 0.130843
0.660233 0.368708 0.132033
0.684002 0.370052 0.133377
0.707772 0.371397 0.134722
0.731542 0.372742 0.136067
0.755312 0.374086 0.137412
0.779081 0.375431 0.138756
0.802851 0.376776 0.140101
0.826621 0.378121 0.141446
0.850390 0.379465 0.142790
0.088221 0.363384 0.119441
0.112296 0.364728 0.120021
0.136371 0.366073 0.120602
0.160447 0.367418 0.121183
0.184522 0.368762 0.121763
0.208597 0.370107 0.122344
0.232673 0.371452 0.122925
0.256748 0.372797 0.123505
0.280823 0.374141 0.124086
0.304899 0.375486 0.124667
0.328974 0.376831 0.125247
0.353049 0.378175 0.125828
0.377125 0.379520 0.126409
0.401200 0.380865 0.126989
0.425275 0.382209 0.127570
0.449350 0.383554 0.128151
0.473426 0.384899 0.128731
0.497501 0.386243 0.129312
0.521576 0.387588 0.129893
0.545652 0.388933 0.130473
0.569678 0.390278 0.131178
0.593447 0.391622 0.132522
0.617217 0.392967 0.133867
0.640987 0.394312 0.135212
0.664756 0.395656 0.136556
0.688526 0.397001 0.137901
0.712296 0.398346 0.139246
0.736065 0.399690 0.140590
0.759835 0.401035 0.141935
0.783605 0.402380 0.143280
0.807375 0.403725 0.144625
0.831144 0.405069 0.145969
0.854914 0.406414 0.147314
0.093773 0.390332 0.121394
0.117848 0.391677 0.121975
0.141923 0.393022 0.122555
0.165999 0.394366 0.123136
0.190074 0.395711 0.123717
0.214149 0.397056 0.124297
0.238224 0.398400 0.124878
0.262300 0.399745 0.125459
0.286375 0.401090 0.126039
0.310450 0.402435 0.126620
0.334526 0.403779 0.127201
0.358601 0.405124 0.127781
0.382676 0.406469 0.128362
0.406752 0.407813 0.128943
0.430827 0.409158 0.129523
0.454902 0.410503 0.130104
0.478978 0.411847 0.130685
0.502892 0.413192 0.131667
0.526662 0.414537 0.133012
0.550432 0.415882 0.134357
0.574201 0.417226 0.135701
0.597971 0.418571 0.137046
0.621741 0.419916 0.138391
0.645510 0.421260 0.139735
0.669280 0.422605 0.141080
0.693050 0.423950 0.142425
0.716819 0.425294 0.143769
0.740589 0.426639 0.145114
0.764359 0.427984 0.146459
0.788128 0.429328 0.147803
0.811898 0.430673 0.149148
0.835668 0.432018 0.150493
0.859438 0.433363 0.151838
0.099324 0.417281 0.123347
0.123400 0.418626 0.123928
0.147475 0.419970 0.124509
0.171550 0.421315 0.125089
0.195626 0.422660 0.125670
0.219701 0.424004 0.126251
0.243776 0.425349 0.126831
0.267852 0.426694 0.127412
0.291927 0.428039 0.127993
0.316002 0.429383 0.128573
0.340077 0.430728 0.129154
0.364153 0.432073 0.129735
0.388228 0.433417 0.130315
0.412303 0.434762 0.130896
0.436107 0.436107 0.132157
0.459876 0.437451 0.133501
0.483646 0.438796 0.134846
0.507416 0.440141 0.136191
0.531185 0.441485 0.137535
0.554955 0.442830 0.138880
0.578725 0.444175 0.140225
0.602495 0.445520 0.141570
0.626264 0.446864 0.142914
0.650034 0.448209 0.144259
0.673804 0.449554 0.145604
0.697573 0.450898 0.146948
0.721343 0.452243 0.148293
0.745113 0.453588 0.149638
0.768882 0.454932 0.150982
0.792652 0.456277 0.152327
0.816422 0.457622 0.153672
0.840192 0.458967 0.155017
0.863961 0.460311 0.156361
0.104876 0.444230 0.125301
0.128951 0.445574 0.125882
0.153027 0.446919 0.126462
0.177102 0.448264 0.127043
0.201177 0.449608 0.127624
0.225253 0.450953 0.128204
0.249328 0.452298 0.128785
0.273403 0.453642 0.129365
0.297479 0.454987 0.129946
0.321554 0.456332 0.130527
0.345552 0.457677 0.131302
0.369321 0.459021 0.132646
0.393091 0.460366 0.133991
0.416861 0.461711 0.135336
0.440630 0.463055 0.136680
0.464400 0.464400 0.138025
0.488170 0.465745 0.139370
0.511939 0.467089 0.140714
0.535709 0.468434 0.142059
0.559479 0.469779 0.143404
0.583249 0.471124 0.144749
0.607018 0.472468 0.146093
0.630788 0.473813 0.147438
0.654558 0.475158 0.148783
0.678327 0.476502 0.150127
0.702097 0.477847 0.151472
0.725867 0.479192 0.152817
0.749636 0.480536 0.154161
0.773406 0.481881 0.155506
0.797176 0.483226 0.156851
0.820945 0.484570 0.158195
0.844715 0.485915 0.159540
0.868485 0.487260 0.160885
0.110428 0.471178 0.127254
0.134503 0.472523 0.127835
0.158578 0.473868 0.128416
0.182654 0.475212 0.128996
0.206729 0.476557 0.129577
0.230804 0.477902 0.130158
0.254880 0.479246 0.130738
0.278766 0.480591 0.131791
0.302536 0.481936 0.133136
0.326305 0.483280 0.134480
0.350075 0.484625 0.135825
0.373845 0.485970 0.137170
0.397615 0.487315 0.138515
0.421384 0.488659 0.139859
0.445154 0.490004 0.141204
0.468924 0.491349 0.142549
0.492693 0.492693 0.143893
0.516463 0.494038 0.145238
0.540233 0.495383 0.146583
0.564002 0.496727 0.147927
0.587772 0.498072 0.149272
0.611542 0.499417 0.150617
0.635312 0.500762 0.151962
0.659081 0.502106 0.153306
0.682851 0.503451 0.154651
0.706621 0.504796 0.155996
0.730390 0.506140 0.157340
0.754160 0.507485 0.158685
0.777930 0.508830 0.160030
0.801699 0.510174 0.161374
0.825469 0.511519 0.162719
0.849239 0.512864 0.164064
0.873008 0.514208 0.165408
0.115980 0.498127 0.129208
0.140055 0.499472 0.129788
0.164130 0.500816 0.130369
0.188206 0.502161 0.130950
0.211981 0.503506 0.132281
0.235750 0.504850 0.133625
0.259520 0.506195 0.134970
0.283290 0.507540 0.136315
0.307059 0.508884 0.137659
0.330829 0.510229 0.139004
0.354599 0.511574 0.140349
0.378369 0.512919 0.141694
0.402138 0.514263 0.143038
0.425908 0.515608 0.144383
0.449678 0.516953 0.145728
0.473447 0.518297 0.147072
0.497217 0.519642 0.148417
0.520987 0.520987 0.149762
0.544756 0.522331 0.151106
0.568526 0.523676 0.152451
0.592296 0.525021 0.153796
0.616065 0.526365 0.155140
0.639835 0.527710 0.156485
0.663605 0.529055 0.157830
0.687375 0.530400 0.159175
0.711144 0.531744 0.160519
0.734914 0.533089 0.161864
0.758684 0.534434 0.163209
0.782453 0.535778 0.164553
0.806223 0.537123 0.165898
0.829993 0.538468 0.167243
0.853762 0.539812 0.168587
0.877532 0.541157 0.169932
0.121426 0.525076 0.131426
0.145195 0.526420 0.132770
0.168965 0.527765 0.134115
0.192735 0.529110 0.135460
0.216504 0.530454 0.136804
0.240274 0.531799 0.138149
0.264044 0.533144 0.139494
0.287813 0.534488 0.140838
0.311583 0.535833 0.142183
0.335353 0.537178 0.143528
0.359122 0.538522 0.144872
0.382892 0.539867 0.146217
0.406662 0.541212 0.147562
0.430432 0.542557 0.148907
0.454201 0.543901 0.150251
0.477971 0.545246 0.151596
0.501741 0.546591 0.152941
0.525510 0.547935 0.154285
0.549280 0.549280 0.155630
0.573050 0.550625 0.156975
0.596819 0.551969 0.158319
0.620589 0.553314 0.159664
0.644359 0.554659 0.161009
0.668129 0.556004 0.162354
0.691898 0.557348 0.163698
0.715668 0.558693 0.165043
0.739438 0.560038 0.166388
0.763207 0.561382 0.167732
0.786977 0.562727 0.169077
0.810747 0.564072 0.170422
0.834665 0.565416 0.171692
0.859046 0.566761 0.172731
0.883427 0.568106 0.173770
0.125949 0.552024 0.135949
0.149719 0.553369 0.137294
0.173489 0.554714 0.138639
0.197258 0.556058 0.139983
0.221028 0.557403 0.141328
0.244798 0.558748 0.142673
0.268567 0.560092 0.144017
0.292337 0.561437 0.145362
0.316107 0.562782 0.146707
0.339876 0.564126 0.148051
0.363646 0.565471 0.149396
0.387416 0.566816 0.150741
0.411185 0.568161 0.152086
0.434955 0.569505 0.153430
0.458725 0.570850 0.154775
0.482495 0.572195 0.156120
0.506264 0.573539 0.157464
0.530034 0.574884 0.158809
0.553804 0.576229 0.160154
0.577573 0.577573 0.161498
0.601343 0.578918 0.162843
0.625113 0.580263 0.164188
0.648882 0.581607 0.165532
0.672652 0.582952 0.166877
0.696422 0.584297 0.168222
0.720192 0.585642 0.169567
0.743961 0.586986 0.170911
0.768102 0.588331 0.172070
0.792483 0.589676 0.173110
0.816864 0.591020 0.174149
0.841245 0.592365 0.175188
0.865625 0.593710 0.176227
0.890006 0.595054 0.177266
0.130473 0.578973 0.140473
0.154242 0.580317 0.141817
0.178012 0.581662 0.143162
0.201782 0.583007 0.144507
0.225552 0.584352 0.145852
0.249321 0.585696 0.147196
0.273091 0.587041 0.148541
0.296861 0.588386 0.149886
0.320630 0.589730 0.151230
0.344400 0.591075 0.152575
0.368170 0.592420 0.153920
0.391939 0.593764 0.155264
0.415709 0.595109 0.156609
0.439479 0.596454 0.157954
0.463249 0.597799 0.159299
0.487018 0.599143 0.160643
0.510788 0.600488 0.161988
0.534558 0.601833 0.163333
0.558327 0.603177 0.164677
0.582097 0.604522 0.166022
0.605867 0.605867 0.167367
0.629636 0.607211 0.168711
0.653406 0.608556 0.170056
0.677176 0.609901 0.171401
0.701539 0.611245 0.172449
0.725920 0.612590 0.173488
0.750301 0.613935 0.174527
0.774682 0.615280 0.175566
0.799063 0.616624 0.176605
0.823443 0.617969 0.177644
0.847824 0.619314 0.178683
0.872205 0.620658 0.179722
0.896586 0.622003 0.180761
0.134996 0.605921 0.144996
0.158766 0.607266 0.146341
0.182536 0.608611 0.147686
0.206306 0.609956 0.149031
0.230075 0.611300 0.150375
0.253845 0.612645 0.151720
0.277615 0.613990 0.153065
0.301384 0.615334 0.154409
0.325154 0.616679 0.155754
0.348924 0.618024 0.157099
0.372693 0.619368 0.158443
0.396463 0.620713 0.159788
0.420233 0.622058 0.161133
0.444002 0.623402 0.162477
0.467772 0.624747 0.163822
0.491542 0.626092 0.165167
0.515312 0.627437 0.166512
0.539081 0.628781 0.167856
0.562851 0.630126 0.169201
0.586621 0.631471 0.170546
0.610595 0.632815 0.171788
0.634976 0.634160 0.172827
0.659357 0.635505 0.173866
0.683738 0.636849 0.174905
0.708119 0.638194 0.175944
0.732500 0.639539 0.176983
0.756881 0.640884 0.178022
0.781261 0.642228 0.179062
0.805642 0.643573 0.180101
0.830023 0.644918 0.181140
0.854404 0.646262 0.182179
0.878785 0.647607 0.183218
0.903166 0.648952 0.184257
0.139520 0.632870 0.149520
0.163290 0.634215 0.150865
0.187059 0.635559 0.152209
0.210829 0.636904 0.153554
0.234599 0.638249 0.154899
0.258369 0.639594 0.156244
0.282138 0.640938 0.157588
0.305908 0.642283 0.158933
0.329678 0.643628 0.160278
0.353447 0.644972 0.161622
0.377217 0.646317 0.162967
0.400987 0.647662 0.164312
0.424756 0.649006 0.165656
0.448526 0.650351 0.167001
0.472296 0.651696 0.168346
0.496066 0.653041 0.169691
0.519835 0.654385 0.171035
0.544032 0.655730 0.172166
0.568413 0.657075 0.173205
0.592794 0.658419 0.174244
0.617175 0.659764 0.175284
0.641556 0.661109 0.176323
0.665937 0.662453 0.177362
0.690318 0.663798 0.178401
0.714699 0.665143 0.179440
0.739079 0.666487 0.180479
0.763460 0.667832 0.181518
0.787841 0.669177 0.182557
0.812222 0.670522 0.183596
0.836603 0.671866 0.184635
0.860984 0.673211 0.185674
0.885365 0.674556 0.186713
0.909746 0.675900 0.187753
0.144044 0.659819 0.154044
0.167813 0.661163 0.155388
0.191583 0.662508 0.156733
0.215353 0.663853 0.158078
0.239123 0.665198 0.159423
0.262892 0.666542 0.160767
0.286662 0.667887 0.162112
0.310432 0.669232 0.163457
0.334201 0.670576 0.164801
0.357971 0.671921 0.166146
0.381741 0.673266 0.167491
0.405510 0.674610 0.168835
0.429280 0.675955 0.170180
0.453088 0.677300 0.171505
0.477469 0.678644 0.172545
0.501850 0.679989 0.173584
0.526231 0.681334 0.174623
0.550612 0.682679 0.175662
0.574993 0.684023 0.176701
0.599374 0.685368 0.177740
0.623755 0.686713 0.178779
0.648136 0.688057 0.179818
0.672517 0.689402 0.180857
0.696897 0.690747 0.181896
0.721278 0.692091 0.182935
0.745659 0.693436 0.183974
0.770040 0.694781 0.185014
0.794421 0.696125 0.186053
0.818802 0.697470 0.187092
0.843183 0.698815 0.188131
0.867564 0.700160 0.189170
0.891945 0.701504 0.190209
0.916326 0.702849 0.191248
0.148567 0.686767 0.158567
0.172337 0.688112 0.159912
0.196107 0.689457 0.161257
0.219876 0.690801 0.162601
0.243646 0.692146 0.163946
0.267416 0.693491 0.165291
0.291186 0.694836 0.166636
0.314955 0.696180 0.167980
0.338725 0.697525 0.169325
0.362495 0.698870 0.170670
0.386525 0.700214 0.171884
0.410906 0.701559 0.172923
0.435287 0.702904 0.173962
0.459668 0.704248 0.175001
0.484049 0.705593 0.176040
0.508430 0.706938 0.177079
0.532811 0.708282 0.178118
0.557192 0.709627 0.179157
0.581573 0.710972 0.180196
0.605954 0.712317 0.181236
0.630335 0.713661 0.182275
0.654715 0.715006 0.183314
0.679096 0.716351 0.184353
0.703477 0.717695 0.185392
0.727858 0.719040 0.186431
0.752239 0.720385 0.187470
0.776620 0.721729 0.188509
0.801001 0.723074 0.189548
0.825382 0.724419 0.190587
0.849763 0.725764 0.191626
0.874144 0.727108 0.192665
0.898525 0.728453 0.193705
0.922906 0.729798 0.194744
0.153091 0.713716 0.163091
0.176861 0.715061 0.164436
0.200630 0.716405 0.165780
0.224400 0.717750 0.167125
0.248170 0.719095 0.168470
0.271939 0.720439 0.169814
0.295709 0.721784 0.171159
0.319962 0.723129 0.172262
0.344343 0.724474 0.173301
0.368724 0.725818 0.174340
0.393105 0.727163 0.175379
0.417486 0.728508 0.176418
0.441867 0.729852 0.177457
0.466248 0.731197 0.178497
0.490629 0.732542 0.179536
0.515010 0.733886 0.180575
0.539391 0.735231 0.181614
0.563772 0.736576 0.182653
0.588153 0.737921 0.183692
0.612533 0.739265 0.184731
0.636914 0.740610 0.185770
0.661295 0.741955 0.186809
0.685676 0.743299 0.187848
0.710057 0.744644 0.188887
0.734438 0.745989 0.189926
0.758819 0.747333 0.190966
0.783200 0.748678 0.192005
0.807581 0.750023 0.193044
0.831962 0.751367 0.194083
0.856343 0.752712 0.195122
0.880724 0.754057 0.196161
0.905105 0.755402 0.197200
0.929485 0.756746 0.198239
0.157615 0.740665 0.167615
0.181384 0.742009 0.168959
0.205154 0.743354 0.170304
0.229019 0.744699 0.171601
0.253400 0.746043 0.172640
0.277780 0.747388 0.173679
0.302161 0.748733 0.174719
0.326542 0.750078 0.175758
0.350923 0.751422 0.176797
0.375304 0.752767 0.177836
0.399685 0.754112 0.178875
0.424066 0.755456 0.179914
0.448447 0.756801 0.180953
0.472828 0.758146 0.181992
0.497209 0.759490 0.183031
0.521590 0.760835 0.184070
0.545971 0.762180 0.185109
0.570351 0.763524 0.186148
0.594732 0.764869 0.187188
0.619113 0.766214 0.188227
0.643494 0.767559 0.189266
0.667875 0.768903 0.190305
0.692256 0.770248 0.191344
0.716637 0.771593 0.192383
0.741018 0.772937 0.193422
0.765399 0.774282 0.194461
0.789780 0.775627 0.195500
