data/luts/noir.cube
TITLE "Noir"
LUT_3D_SIZE 33
DOMAIN_MIN 0.0 0.0 0.0
DOMAIN_MAX 1.0 1.0 1.0
0.000000 0.000000 0.000000
0.000000 0.000000 0.000000
0.000000 0.000000 0.000000
0.000000 0.000000 0.000000
0.000000 0.000000 0.000000
0.000000 0.000000 0.000000
0.000000 0.000000 0.000000
0.003160 0.000000 0.000000
0.023872 0.000000 0.000000
0.050400 0.000000 0.000000
0.082199 0.000000 0.000000
0.118728 0.000000 0.000000
0.159442 0.000000 0.000000
0.203799 0.000000 0.000000
0.251256 0.000000 0.000000
0.301270 0.000000 0.000000
0.353297 0.000000 0.000000
0.406795 0.000000 0.000000
0.461220 0.000000 0.000000
0.516029 0.000000 0.000000
0.570680 0.000000 0.000000
0.624628 0.000000 0.000000
0.677332 0.000000 0.000000
0.728248 0.000000 0.000000
0.776833 0.000000 0.000000
0.822544 0.000000 0.000000
0.864837 0.000000 0.000000
0.903171 0.000000 0.000000
0.937000 0.000000 0.000000
0.965784 0.000000 0.000000
0.988977 0.000000 0.000000
1.000000 0.000000 0.000000
1.000000 0.000000 0.000000
0.000000 0.000000 0.000000
0.000000 0.000000 0.000000
0.000000 0.000000 0.000000
0.000000 0.000000 0.000000
0.000000 0.000000 0.000000
0.000000 0.000000 0.000000
0.000000 0.000000 0.000000
0.003160 0.000000 0.000000
0.023872 0.000000 0.000000
0.050400 0.000000 0.000000
0.082199 0.000000 0.000000
0.118728 0.000000 0.000000
0.159442 0.000000 0.000000
0.203799 0.000000 0.000000
0.251256 0.000000 0.000000
0.301270 0.000000 0.000000
0.353297 0.000000 0.000000
0.406795 0.000000 0.000000
0.461220 0.000000 0.000000
0.516029 0.000000 0.000000
0.570680 0.000000 0.000000
0.624628 0.000000 0.000000
0.677332 0.000000 0.000000
0.728248 0.000000 0.000000
0.776833 0.000000 0.000000
0.822544 0.000000 0.000000
0.864837 0.000000 0.000000
0.903171 0.000000 0.000000
0.937000 0.000000 0.000000
0.965784 0.000000 0.000000
0.988977 0.000000 0.000000
1.000000 0.000000 0.000000
1.000000 0.000000 0.000000
0.000000 0.000000 0.000000
0.000000 0.000000 0.000000
0.000000 0.000000 0.000000
0.000000 0.000000 0.000000
0.000000 0.000000 0.000000
0.000000 0.000000 0.000000
0.000000 0.000000 0.000000
0.003160 0.000000 0.000000
0.023872 0.000000 0.000000
0.050400 0.000000 0.000000
0.082199 0.000000 0.000000
0.118728 0.000000 0.000000
0.159442 0.000000 0.000000
0.203799 0.000000 0.000000
0.251256 0.000000 0.000000
0.301270 0.000000 0.000000
0.353297 0.000000 0.000000
0.406795 0.000000 0.000000
0.461220 0.000000 0.000000
0.516029 0.000000 0.000000
0.570680 0.000000 0.000000
0.624628 0.000000 0.000000
0.677332 0.000000 0.000000
0.728248 0.000000 0.000000
0.776833 0.000000 0.000000
0.822544 0.000000 0.000000
0.864837 0.000000 0.000000
0.903171 0.000000 0.000000
0.937000 0.000000 0.000000
0.965784 0.000000 0.000000
0.988977 0.000000 0.000000
1.000000 0.000000 0.000000
1.000000 0.000000 0.000000
0.000000 0.000000 0.000000
0.000000 0.000000 0.000000
0.000000 0.000000 0.000000
0.000000 0.000000 0.000000
0.000000 0.000000 0.000000
0.000000 0.000000 0.000000
0.000000 0.000000 0.000000
0.003160 0.000000 0.000000
0.023872 0.000000 0.000000
0.050400 0.000000 0.000000
0.082199 0.000000 0.000000
0.118728 0.000000 0.000000
0.159442 0.000000 0.000000
0.203799 0.000000 0.000000
0.251256 0.000000 0.000000
0.301270 0.000000 0.000000
0.353297 0.000000 0.000000
0.406795 0.000000 0.000000
0.461220 0.000000 0.000000
0.516029 0.000000 0.000000
0.570680 0.000000 0.000000
0.624628 0.000000 0.000000
0.677332 0.000000 0.000000
0.728248 0.000000 0.000000
0.776833 0.000000 0.000000
0.822544 0.000000 0.000000
0.864837 0.000000 0.000000
0.903171 0.000000 0.000000
0.937000 0.000000 0.000000
0.965784 0.000000 0.000000
0.988977 0.000000 0.000000
1.000000 0.000000 0.000000
1.000000 0.000000 0.000000
0.000000 0.000000 0.000000
0.000000 0.000000 0.000000
0.000000 0.000000 0.000000
0.000000 0.000000 0.000000
0.000000 0.000000 0.000000
0.000000 0.000000 0.000000
0.000000 0.000000 0.000000
0.003160 0.000000 0.000000
0.023872 0.000000 0.000000
0.050400 0.000000 0.000000
0.082199 0.000000 0.000000
0.118728 0.000000 0.000000
0.159442 0.000000 0.000000
0.203799 0.000000 0.000000
0.251256 0.000000 0.000000
0.301270 0.000000 0.000000
0.353297 0.000000 0.000000
0.406795 0.000000 0.000000
0.461220 0.000000 0.000000
0.516029 0.000000 0.000000
0.570680 0.000000 0.000000
0.624628 0.000000 0.000000
0.677332 0.000000 0.000000
0.728248 0.000000 0.000000
0.776833 0.000000 0.000000
0.822544 0.000000 0.000000
0.864837 0.000000 0.000000
0.903171 0.000000 0.000000
0.937000 0.000000 0.000000
0.965784 0.000000 0.000000
0.988977 0.000000 0.000000
1.000000 0.000000 0.000000
1.000000 0.000000 0.000000
0.000000 0.000000 0.000000
0.000000 0.000000 0.000000
0.000000 0.000000 0.000000
0.000000 0.000000 0.000000
0.000000 0.000000 0.000000
0.000000 0.000000 0.000000
0.000000 0.000000 0.000000
0.003160 0.000000 0.000000
0.023872 0.000000 0.000000
0.050400 0.000000 0.000000
0.082199 0.000000 0.000000
0.118728 0.000000 0.000000
0.159442 0.000000 0.000000
0.203799 0.000000 0.000000
0.251256 0.000000 0.000000
0.301270 0.000000 0.000000
0.353297 0.000000 0.000000
0.406795 0.000000 0.000000
0.461220 0.000000 0.000000
0.516029 0.000000 0.000000
0.570680 0.000000 0.000000
0.624628 0.000000 0.000000
0.677332 0.000000 0.000000
0.728248 0.000000 0.000000
0.776833 0.000000 0.000000
0.822544 0.000000 0.000000
0.864837 0.000000 0.000000
0.903171 0.000000 0.000000
0.937000 0.000000 0.000000
0.965784 0.000000 0.000000
0.988977 0.000000 0.000000
1.000000 0.000000 0.000000
1.000000 0.000000 0.000000
0.000000 0.000000 0.000000
0.000000 0.000000 0.000000
0.000000 0.000000 0.000000
0.000000 0.000000 0.000000
0.000000 0.000000 0.000000
0.000000 0.000000 0.000000
0.000000 0.000000 0.000000
0.003160 0.000000 0.000000
0.023872 0.000000 0.000000
0.050400 0.000000 0.000000
0.082199 0.000000 0.000000
0.118728 0.000000 0.000000
0.159442 0.000000 0.000000
0.203799 0.000000 0.000000
0.251256 0.000000 0.000000
0.301270 0.000000 0.000000
0.353297 0.000000 0.000000
0.406795 0.000000 0.000000
0.461220 0.000000 0.000000
0.516029 0.000000 0.000000
0.570680 0.000000 0.000000
0.624628 0.000000 0.000000
0.677332 0.000000 0.000000
0.728248 0.000000 0.000000
0.776833 0.000000 0.000000
0.822544 0.000000 0.000000
0.864837 0.000000 0.000000
0.903171 0.000000 0.000000
0.937000 0.000000 0.000000
0.965784 0.000000 0.000000
0.988977 0.000000 0.000000
1.000000 0.000000 0.000000
1.000000 0.000000 0.000000
0.000000 0.005718 0.000000
0.000000 0.005718 0.000000
0.000000 0.005718 0.000000
0.000000 0.005718 0.000000
0.000000 0.005718 0.000000
0.000000 0.005718 0.000000
0.000000 0.005718 0.000000
0.003160 0.005718 0.000000
0.023872 0.005718 0.000000
0.050400 0.005718 0.000000
0.082199 0.005718 0.000000
0.118728 0.005718 0.000000
0.159442 0.005718 0.000000
0.203799 0.005718 0.000000
0.251256 0.005718 0.000000
0.301270 0.005718 0.000000
0.353297 0.005718 0.000000
0.406795 0.005718 0.000000
0.461220 0.005718 0.000000
0.516029 0.005718 0.000000
0.570680 0.005718 0.000000
0.624628 0.005718 0.000000
0.677332 0.005718 0.000000
0.728248 0.005718 0.000000
0.776833 0.005718 0.000000
0.822544 0.005718 0.000000
0.864837 0.005718 0.000000
0.903171 0.005718 0.000000
0.937000 0.005718 0.000000
0.965784 0.005718 0.000000
0.988977 0.005718 0.000000
1.000000 0.005718 0.000000
1.000000 0.005718 0.000000
0.000000 0.026634 0.000000
0.000000 0.026634 0.000000
0.000000 0.026634 0.000000
0.000000 0.026634 0.000000
0.000000 0.026634 0.000000
0.000000 0.026634 0.000000
0.000000 0.026634 0.000000
0.003160 0.026634 0.000000
0.023872 0.026634 0.000000
0.050400 0.026634 0.000000
0.082199 0.026634 0.000000
0.118728 0.026634 0.000000
0.159442 0.026634 0.000000
0.203799 0.026634 0.000000
0.251256 0.026634 0.000000
0.301270 0.026634 0.000000
0.353297 0.026634 0.000000
0.406795 0.026634 0.000000
0.461220 0.026634 0.000000
0.516029 0.026634 0.000000
0.570680 0.026634 0.000000
0.624628 0.026634 0.000000
0.677332 0.026634 0.000000
0.728248 0.026634 0.000000
0.776833 0.026634 0.000000
0.822544 0.026634 0.000000
0.864837 0.026634 0.000000
0.903171 0.026634 0.000000
0.937000 0.026634 0.000000
0.965784 0.026634 0.000000
0.988977 0.026634 0.000000
1.000000 0.026634 0.000000
1.000000 0.026634 0.000000
0.000000 0.053001 0.000000
0.000000 0.053001 0.000000
0.000000 0.053001 0.000000
0.000000 0.053001 0.000000
0.000000 0.053001 0.000000
0.000000 0.053001 0.000000
0.000000 0.053001 0.000000
0.003160 0.053001 0.000000
0.023872 0.053001 0.000000
0.050400 0.053001 0.000000
0.082199 0.053001 0.000000
0.118728 0.053001 0.000000
0.159442 0.053001 0.000000
0.203799 0.053001 0.000000
0.251256 0.053001 0.000000
0.301270 0.053001 0.000000
0.353297 0.053001 0.000000
0.406795 0.053001 0.000000
0.461220 0.053001 0.000000
0.516029 0.053001 0.000000
0.570680 0.053001 0.000000
0.624628 0.053001 0.000000
0.677332 0.053001 0.000000
0.728248 0.053001 0.000000
0.776833 0.053001 0.000000
0.822544 0.053001 0.000000
0.864837 0.053001 0.000000
0.903171 0.053001 0.000000
0.937000 0.053001 0.000000
0.965784 0.053001 0.000000
0.988977 0.053001 0.000000
1.000000 0.053001 0.000000
1.000000 0.053001 0.000000
0.000000 0.084316 0.000000
0.000000 0.084316 0.000000
0.000000 0.084316 0.000000
0.000000 0.084316 0.000000
0.000000 0.084316 0.000000
0.000000 0.084316 0.000000
0.000000 0.084316 0.000000
0.003160 0.084316 0.000000
0.023872 0.084316 0.000000
0.050400 0.084316 0.000000
0.082199 0.084316 0.000000
0.118728 0.084316 0.000000
0.159442 0.084316 0.000000
0.203799 0.084316 0.000000
0.251256 0.084316 0.000000
0.301270 0.084316 0.000000
0.353297 0.084316 0.000000
0.406795 0.084316 0.000000
0.461220 0.084316 0.000000
0.516029 0.084316 0.000000
0.570680 0.084316 0.000000
0.624628 0.084316 0.000000
0.677332 0.084316 0.000000
0.728248 0.084316 0.000000
0.776833 0.084316 0.000000
0.822544 0.084316 0.000000
0.864837 0.084316 0.000000
0.903171 0.084316 0.000000
0.937000 0.084316 0.000000
0.965784 0.084316 0.000000
0.988977 0.084316 0.000000
1.000000 0.084316 0.000000
1.000000 0.084316 0.000000
0.000000 0.120080 0.000000
0.000000 0.120080 0.000000
0.000000 0.120080 0.000000
0.000000 0.120080 0.000000
0.000000 0.120080 0.000000
0.000000 0.120080 0.000000
0.000000 0.120080 0.000000
0.003160 0.120080 0.000000
0.023872 0.120080 0.000000
0.050400 0.120080 0.000000
0.082199 0.120080 0.000000
0.118728 0.120080 0.000000
0.159442 0.120080 0.000000
0.203799 0.120080 0.000000
0.251256 0.120080 0.000000
0.301270 0.120080 0.000000
0.353297 0.120080 0.000000
0.406795 0.120080 0.000000
0.461220 0.120080 0.000000
0.516029 0.120080 0.000000
0.570680 0.120080 0.000000
0.624628 0.120080 0.000000
0.677332 0.120080 0.000000
0.728248 0.120080 0.000000
0.776833 0.120080 0.000000
0.822544 0.120080 0.000000
0.864837 0.120080 0.000000
0.903171 0.120080 0.000000
0.937000 0.120080 0.000000
0.965784 0.120080 0.000000
0.988977 0.120080 0.000000
1.000000 0.120080 0.000000
1.000000 0.120080 0.000000
0.000000 0.159792 0.000000
0.000000 0.159792 0.000000
0.000000 0.159792 0.000000
0.000000 0.159792 0.000000
0.000000 0.159792 0.000000
0.000000 0.159792 0.000000
0.000000 0.159792 0.000000
0.003160 0.159792 0.000000
0.023872 0.159792 0.000000
0.050400 0.159792 0.000000
0.082199 0.159792 0.000000
0.118728 0.159792 0.000000
0.159442 0.159792 0.000000
0.203799 0.159792 0.000000
0.251256 0.159792 0.000000
0.301270 0.159792 0.000000
0.353297 0.159792 0.000000
0.406795 0.159792 0.000000
0.461220 0.159792 0.000000
0.516029 0.159792 0.000000
0.570680 0.159792 0.000000
0.624628 0.159792 0.000000
0.677332 0.159792 0.000000
0.728248 0.159792 0.000000
0.776833 0.159792 0.000000
0.822544 0.159792 0.000000
0.864837 0.159792 0.000000
0.903171 0.159792 0.000000
0.937000 0.159792 0.000000
0.965784 0.159792 0.000000
0.988977 0.159792 0.000000
1.000000 0.159792 0.000000
1.000000 0.159792 0.000000
0.000000 0.202951 0.000000
0.000000 0.202951 0.000000
0.000000 0.202951 0.000000
0.000000 0.202951 0.000000
0.000000 0.202951 0.000000
0.000000 0.202951 0.000000
0.000000 0.202951 0.000000
0.003160 0.202951 0.000000
0.023872 0.202951 0.000000
0.050400 0.202951 0.000000
0.082199 0.202951 0.000000
0.118728 0.202951 0.000000
0.159442 0.202951 0.000000
0.203799 0.202951 0.000000
0.251256 0.202951 0.000000
0.301270 0.202951 0.000000
0.353297 0.202951 0.000000
0.406795 0.202951 0.000000
0.461220 0.202951 0.000000
0.516029 0.202951 0.000000
0.570680 0.202951 0.000000
0.624628 0.202951 0.000000
0.677332 0.202951 0.000000
0.728248 0.202951 0.000000
0.776833 0.202951 0.000000
0.822544 0.202951 0.000000
0.864837 0.202951 0.000000
0.903171 0.202951 0.000000
0.937000 0.202951 0.000000
0.965784 0.202951 0.000000
0.988977 0.202951 0.000000
1.000000 0.202951 0.000000
1.000000 0.202951 0.000000
0.000000 0.249055 0.000000
0.000000 0.249055 0.000000
0.000000 0.249055 0.000000
0.000000 0.249055 0.000000
0.000000 0.249055 0.000000
0.000000 0.249055 0.000000
0.000000 0.249055 0.000000
0.003160 0.249055 0.000000
0.023872 0.249055 0.000000
0.050400 0.249055 0.000000
0.082199 0.249055 0.000000
0.118728 0.249055 0.000000
0.159442 0.249055 0.000000
0.203799 0.249055 0.000000
0.251256 0.249055 0.000000
0.301270 0.249055 0.000000
0.353297 0.249055 0.000000
0.406795 0.249055 0.000000
0.461220 0.249055 0.000000
0.516029 0.249055 0.000000
0.570680 0.249055 0.000000
0.624628 0.249055 0.000000
0.677332 0.249055 0.000000
0.728248 0.249055 0.000000
0.776833 0.249055 0.000000
0.822544 0.249055 0.000000
0.864837 0.249055 0.000000
0.903171 0.249055 0.000000
0.937000 0.249055 0.000000
0.965784 0.249055 0.000000
0.988977 0.249055 0.000000
1.000000 0.249055 0.000000
1.000000 0.249055 0.000000
0.000000 0.297605 0.000000
0.000000 0.297605 0.000000
0.000000 0.297605 0.000000
0.000000 0.297605 0.000000
0.000000 0.297605 0.000000
0.000000 0.297605 0.000000
0.000000 0.297605 0.000000
0.003160 0.297605 0.000000
0.023872 0.297605 0.000000
0.050400 0.297605 0.000000
0.082199 0.297605 0.000000
0.118728 0.297605 0.000000
0.159442 0.297605 0.000000
0.203799 0.297605 0.000000
0.251256 0.297605 0.000000
0.301270 0.297605 0.000000
0.353297 0.297605 0.000000
0.406795 0.297605 0.000000
0.461220 0.297605 0.000000
0.516029 0.297605 0.000000
0.570680 0.297605 0.000000
0.624628 0.297605 0.000000
0.677332 0.297605 0.000000
0.728248 0.297605 0.000000
0.776833 0.297605 0.000000
0.822544 0.297605 0.000000
0.864837 0.297605 0.000000
0.903171 0.297605 0.000000
0.937000 0.297605 0.000000
0.965784 0.297605 0.000000
0.988977 0.297605 0.000000
1.000000 0.297605 0.000000
1.000000 0.297605 0.000000
0.000000 0.348100 0.000000
0.000000 0.348100 0.000000
0.000000 0.348100 0.000000
0.000000 0.348100 0.000000
0.000000 0.348100 0.000000
0.000000 0.348100 0.000000
0.000000 0.348100 0.000000
0.003160 0.348100 0.000000
0.023872 0.348100 0.000000
0.050400 0.348100 0.000000
0.082199 0.348100 0.000000
0.118728 0.348100 0.000000
0.159442 0.348100 0.000000
0.203799 0.348100 0.000000
0.251256 0.348100 0.000000
0.301270 0.348100 0.000000
0.353297 0.348100 0.000000
0.406795 0.348100 0.000000
0.461220 0.348100 0.000000
0.516029 0.348100 0.000000
0.570680 0.348100 0.000000
0.624628 0.348100 0.000000
0.677332 0.348100 0.000000
0.728248 0.348100 0.000000
0.776833 0.348100 0.000000
0.822544 0.348100 0.000000
0.864837 0.348100 0.000000
0.903171 0.348100 0.000000
0.937000 0.348100 0.000000
0.965784 0.348100 0.000000
0.988977 0.348100 0.000000
1.000000 0.348100 0.000000
1.000000 0.348100 0.000000
0.000000 0.400039 0.000000
0.000000 0.400039 0.000000
0.000000 0.400039 0.000000
0.000000 0.400039 0.000000
0.000000 0.400039 0.000000
0.000000 0.400039 0.000000
0.000000 0.400039 0.000000
0.003160 0.400039 0.000000
0.023872 0.400039 0.000000
0.050400 0.400039 0.000000
0.082199 0.400039 0.000000
0.118728 0.400039 0.000000
0.159442 0.400039 0.000000
0.203799 0.400039 0.000000
0.251256 0.400039 0.000000
0.301270 0.400039 0.000000
0.353297 0.400039 0.000000
0.406795 0.400039 0.000000
0.461220 0.400039 0.000000
0.516029 0.400039 0.000000
0.570680 0.400039 0.000000
0.624628 0.400039 0.000000
0.677332 0.400039 0.000000
0.728248 0.400039 0.000000
0.776833 0.400039 0.000000
0.822544 0.400039 0.000000
0.864837 0.400039 0.000000
0.903171 0.400039 0.000000
0.937000 0.400039 0.000000
0.965784 0.400039 0.000000
0.988977 0.400039 0.000000
1.000000 0.400039 0.000000
1.000000 0.400039 0.000000
0.000000 0.452920 0.000000
0.000000 0.452920 0.000000
0.000000 0.452920 0.000000
0.000000 0.452920 0.000000
0.000000 0.452920 0.000000
0.000000 0.452920 0.000000
0.000000 0.452920 0.000000
0.003160 0.452920 0.000000
0.023872 0.452920 0.000000
0.050400 0.452920 0.000000
0.082199 0.452920 0.000000
0.118728 0.452920 0.000000
0.159442 0.452920 0.000000
0.203799 0.452920 0.000000
0.251256 0.452920 0.000000
0.301270 0.452920 0.000000
0.353297 0.452920 0.000000
0.406795 0.452920 0.000000
0.461220 0.452920 0.000000
0.516029 0.452920 0.000000
0.570680 0.452920 0.000000
0.624628 0.452920 0.000000
0.677332 0.452920 0.000000
0.728248 0.452920 0.000000
0.776833 0.452920 0.000000
0.822544 0.452920 0.000000
0.864837 0.452920 0.000000
0.903171 0.452920 0.000000
0.937000 0.452920 0.000000
0.965784 0.452920 0.000000
0.988977 0.452920 0.000000
1.000000 0.452920 0.000000
1.000000 0.452920 0.000000
0.000000 0.506244 0.000000
0.000000 0.506244 0.000000
0.000000 0.506244 0.000000
0.000000 0.506244 0.000000
0.000000 0.506244 0.000000
0.000000 0.506244 0.000000
0.000000 0.506244 0.000000
0.003160 0.506244 0.000000
0.023872 0.506244 0.000000
0.050400 0.506244 0.000000
0.082199 0.506244 0.000000
0.118728 0.506244 0.000000
0.159442 0.506244 0.000000
0.203799 0.506244 0.000000
0.251256 0.506244 0.000000
0.301270 0.506244 0.000000
0.353297 0.506244 0.000000
0.406795 0.506244 0.000000
0.461220 0.506244 0.000000
0.516029 0.506244 0.000000
0.570680 0.506244 0.000000
0.624628 0.506244 0.000000
0.677332 0.506244 0.000000
0.728248 0.506244 0.000000
0.776833 0.506244 0.000000
0.822544 0.506244 0.000000
0.864837 0.506244 0.000000
0.903171 0.506244 0.000000
0.937000 0.506244 0.000000
0.965784 0.506244 0.000000
0.988977 0.506244 0.000000
1.000000 0.506244 0.000000
1.000000 0.506244 0.000000
0.000000 0.559509 0.000000
0.000000 0.559509 0.000000
0.000000 0.559509 0.000000
0.000000 0.559509 0.000000
0.000000 0.559509 0.000000
0.000000 0.559509 0.000000
0.000000 0.559509 0.000000
0.003160 0.559509 0.000000
0.023872 0.559509 0.000000
0.050400 0.559509 0.000000
0.082199 0.559509 0.000000
0.118728 0.559509 0.000000
0.159442 0.559509 0.000000
0.203799 0.559509 0.000000
0.251256 0.559509 0.000000
0.301270 0.559509 0.000000
0.353297 0.559509 0.000000
0.406795 0.559509 0.000000
0.461220 0.559509 0.000000
0.516029 0.559509 0.000000
0.570680 0.559509 0.000000
0.624628 0.559509 0.000000
0.677332 0.559509 0.000000
0.728248 0.559509 0.000000
0.776833 0.559509 0.000000
0.822544 0.559509 0.000000
0.864837 0.559509 0.000000
0.903171 0.559509 0.000000
0.937000 0.559509 0.000000
0.965784 0.559509 0.000000
0.988977 0.559509 0.000000
1.000000 0.559509 0.000000
1.000000 0.559509 0.000000
0.000000 0.612214 0.000000
0.000000 0.612214 0.000000
0.000000 0.612214 0.000000
0.000000 0.612214 0.000000
0.000000 0.612214 0.000000
0.000000 0.612214 0.000000
0.000000 0.612214 0.000000
0.003160 0.612214 0.000000
0.023872 0.612214 0.000000
0.050400 0.612214 0.000000
0.082199 0.612214 0.000000
0.118728 0.612214 0.000000
0.159442 0.612214 0.000000
0.203799 0.612214 0.000000
0.251256 0.612214 0.000000
0.301270 0.612214 0.000000
0.353297 0.612214 0.000000
0.406795 0.612214 0.000000
0.461220 0.612214 0.000000
0.516029 0.612214 0.000000
0.570680 0.612214 0.000000
0.624628 0.612214 0.000000
0.677332 0.612214 0.000000
0.728248 0.612214 0.000000
0.776833 0.612214 0.000000
0.822544 0.612214 0.000000
0.864837 0.612214 0.000000
0.903171 0.612214 0.000000
0.937000 0.612214 0.000000
0.965784 0.612214 0.000000
0.988977 0.612214 0.000000
1.000000 0.612214 0.000000
1.000000 0.612214 0.000000
0.000000 0.663860 0.000000
0.000000 0.663860 0.000000
0.000000 0.663860 0.000000
0.000000 0.663860 0.000000
0.000000 0.663860 0.000000
0.000000 0.663860 0.000000
0.000000 0.663860 0.000000
0.003160 0.663860 0.000000
0.023872 0.663860 0.000000
0.050400 0.663860 0.000000
0.082199 0.663860 0.000000
0.118728 0.663860 0.000000
0.159442 0.663860 0.000000
0.203799 0.663860 0.000000
0.251256 0.663860 0.000000
0.301270 0.663860 0.000000
0.353297 0.663860 0.000000
0.406795 0.663860 0.000000
0.461220 0.663860 0.000000
0.516029 0.663860 0.000000
0.570680 0.663860 0.000000
0.624628 0.663860 0.000000
0.677332 0.663860 0.000000
0.728248 0.663860 0.000000
0.776833 0.663860 0.000000
0.822544 0.663860 0.000000
0.864837 0.663860 0.000000
0.903171 0.663860 0.000000
0.937000 0.663860 0.000000
0.965784 0.663860 0.000000
0.988977 0.663860 0.000000
1.000000 0.663860 0.000000
1.000000 0.663860 0.000000
0.000000 0.713945 0.000000
0.000000 0.713945 0.000000
0.000000 0.713945 0.000000
0.000000 0.713945 0.000000
0.000000 0.713945 0.000000
0.000000 0.713945 0.000000
0.000000 0.713945 0.000000
0.003160 0.713945 0.000000
0.023872 0.713945 0.000000
0.050400 0.713945 0.000000
0.082199 0.713945 0.000000
0.118728 0.713945 0.000000
0.159442 0.713945 0.000000
0.203799 0.713945 0.000000
0.251256 0.713945 0.000000
0.301270 0.713945 0.000000
0.353297 0.713945 0.000000
0.406795 0.713945 0.000000
0.461220 0.713945 0.000000
0.516029 0.713945 0.000000
0.570680 0.713945 0.000000
0.624628 0.713945 0.000000
0.677332 0.713945 0.000000
0.728248 0.713945 0.000000
0.776833 0.713945 0.000000
0.822544 0.713945 0.000000
0.864837 0.713945 0.000000
0.903171 0.713945 0.000000
0.937000 0.713945 0.000000
0.965784 0.713945 0.000000
0.988977 0.713945 0.000000
1.000000 0.713945 0.000000
1.000000 0.713945 0.000000
0.000000 0.761968 0.000000
0.000000 0.761968 0.000000
0.000000 0.761968 0.000000
0.000000 0.761968 0.000000
0.000000 0.761968 0.000000
0.000000 0.761968 0.000000
0.000000 0.761968 0.000000
0.003160 0.761968 0.000000
0.023872 0.761968 0.000000
0.050400 0.761968 0.000000
0.082199 0.761968 0.000000
0.118728 0.761968 0.000000
0.159442 0.761968 0.000000
0.203799 0.761968 0.000000
0.251256 0.761968 0.000000
0.301270 0.761968 0.000000
0.353297 0.761968 0.000000
0.406795 0.761968 0.000000
0.461220 0.761968 0.000000
0.516029 0.761968 0.000000
0.570680 0.761968 0.000000
0.624628 0.761968 0.000000
0.677332 0.761968 0.000000
0.728248 0.761968 0.000000
0.776833 0.761968 0.000000
0.822544 0.761968 0.000000
0.864837 0.761968 0.000000
0.903171 0.761968 0.000000
0.937000 0.761968 0.000000
0.965784 0.761968 0.000000
0.988977 0.761968 0.000000
1.000000 0.761968 0.000000
1.000000 0.761968 0.000000
0.000000 0.807428 0.000000
0.000000 0.807428 0.000000
0.000000 0.807428 0.000000
0.000000 0.807428 0.000000
0.000000 0.807428 0.000000
0.000000 0.807428 0.000000
0.000000 0.807428 0.000000
0.003160 0.807428 0.000000
0.023872 0.807428 0.000000
0.050400 0.807428 0.000000
0.082199 0.807428 0.000000
0.118728 0.807428 0.000000
0.159442 0.807428 0.000000
0.203799 0.807428 0.000000
0.251256 0.807428 0.000000
0.301270 0.807428 0.000000
0.353297 0.807428 0.000000
0.406795 0.807428 0.000000
0.461220 0.807428 0.000000
0.516029 0.807428 0.000000
0.570680 0.807428 0.000000
0.624628 0.807428 0.000000
0.677332 0.807428 0.000000
0.728248 0.807428 0.000000
0.776833 0.807428 0.000000
0.822544 0.807428 0.000000
0.864837 0.807428 0.000000
0.903171 0.807428 0.000000
0.937000 0.807428 0.000000
0.965784 0.807428 0.000000
0.988977 0.807428 0.000000
1.000000 0.807428 0.000000
1.000000 0.807428 0.000000
0.000000 0.849825 0.000000
0.000000 0.849825 0.000000
0.000000 0.849825 0.000000
0.000000 0.849825 0.000000
0.000000 0.849825 0.000000
0.000000 0.849825 0.000000
0.000000 0.849825 0.000000
0.003160 0.849825 0.000000
0.023872 0.849825 0.000000
0.050400 0.849825 0.000000
0.082199 0.849825 0.000000
0.118728 0.849825 0.000000
0.159442 0.849825 0.000000
0.203799 0.849825 0.000000
0.251256 0.849825 0.000000
0.301270 0.849825 0.000000
0.353297 0.849825 0.000000
0.406795 0.849825 0.000000
0.461220 0.849825 0.000000
0.516029 0.849825 0.000000
0.570680 0.849825 0.000000
0.624628 0.849825 0.000000
0.677332 0.849825 0.000000
0.728248 0.849825 0.000000
0.776833 0.849825 0.000000
0.822544 0.849825 0.000000
0.864837 0.849825 0.000000
0.903171 0.849825 0.000000
