data/luts/noir.cube
TITLE "Noir"
LUT_3D_SIZE 9
DOMAIN_MIN 0.0 0.0 0.0
DOMAIN_MAX 1.0 1.0 1.0
0.000000 0.000000 0.000000
0.000000 0.000000 0.000000
0.023872 0.000000 0.000000
0.159442 0.000000 0.000000
0.353297 0.000000 0.000000
0.570680 0.000000 0.000000
0.776833 0.000000 0.000000
0.937000 0.000000 0.000000
1.000000 0.000000 0.000000
0.000000 0.000000 0.000000
0.000000 0.000000 0.000000
0.023872 0.000000 0.000000
0.159442 0.000000 0.000000
0.353297 0.000000 0.000000
0.570680 0.000000 0.000000
0.776833 0.000000 0.000000
0.937000 0.000000 0.000000
1.000000 0.000000 0.000000
0.000000 0.026634 0.000000
0.000000 0.026634 0.000000
0.023872 0.026634 0.000000
0.159442 0.026634 0.000000
0.353297 0.026634 0.000000
0.570680 0.026634 0.000000
0.776833 0.026634 0.000000
0.937000 0.026634 0.000000
1.000000 0.026634 0.000000
0.000000 0.159792 0.000000
0.000000 0.159792 0.000000
0.023872 0.159792 0.000000
0.159442 0.159792 0.000000
0.353297 0.159792 0.000000
0.570680 0.159792 0.000000
0.776833 0.159792 0.000000
0.937000 0.159792 0.000000
1.000000 0.159792 0.000000
0.000000 0.348100 0.000000
0.000000 0.348100 0.000000
0.023872 0.348100 0.000000
0.159442 0.348100 0.000000
0.353297 0.348100 0.000000
0.570680 0.348100 0.000000
0.776833 0.348100 0.000000
0.937000 0.348100 0.000000
1.000000 0.348100 0.000000
0.000000 0.559509 0.000000
0.000000 0.559509 0.000000
0.023872 0.559509 0.000000
0.159442 0.559509 0.000000
0.353297 0.559509 0.000000
0.570680 0.559509 0.000000
0.776833 0.559509 0.000000
0.937000 0.559509 0.000000
1.000000 0.559509 0.000000
0.000000 0.761968 0.000000
0.000000 0.761968 0.000000
0.023872 0.761968 0.000000
0.159442 0.761968 0.000000
0.353297 0.761968 0.000000
0.570680 0.761968 0.000000
0.776833 0.761968 0.000000
0.937000 0.761968 0.000000
1.000000 0.761968 0.000000
0.000000 0.923427 0.000000
0.000000 0.923427 0.000000
0.023872 0.923427 0.000000
0.159442 0.923427 0.000000
0.353297 0.923427 0.000000
0.570680 0.923427 0.000000
0.776833 0.923427 0.000000
0.937000 0.923427 0.000000
1.000000 0.923427 0.000000
0.000000 1.000000 0.000000
0.000000 1.000000 0.000000
0.023872 1.000000 0.000000
0.159442 1.000000 0.000000
0.353297 1.000000 0.000000
0.570680 1.000000 0.000000
0.776833 1.000000 0.000000
0.937000 1.000000 0.000000
1.000000 1.000000 0.000000
0.000000 0.000000 0.000000
0.000000 0.000000 0.000000
0.023872 0.000000 0.000000
0.159442 0.000000 0.000000
0.353297 0.000000 0.000000
0.570680 0.000000 0.000000
0.776833 0.000000 0.000000
0.937000 0.000000 0.000000
1.000000 0.000000 0.000000
0.000000 0.000000 0.000000
0.000000 0.000000 0.000000
0.023872 0.000000 0.000000
0.159442 0.000000 0.000000
0.353297 0.000000 0.000000
0.570680 0.000000 0.000000
0.776833 0.000000 0.000000
0.937000 0.000000 0.000000
1.000000 0.000000 0.000000
0.000000 0.026634 0.000000
0.000000 0.026634 0.000000
0.023872 0.026634 0.000000
0.159442 0.026634 0.000000
0.353297 0.026634 0.000000
0.570680 0.026634 0.000000
0.776833 0.026634 0.000000
0.937000 0.026634 0.000000
1.000000 0.026634 0.000000
0.000000 0.159792 0.000000
0.000000 0.159792 0.000000
0.023872 0.159792 0.000000
0.159442 0.159792 0.000000
0.353297 0.159792 0.000000
0.570680 0.159792 0.000000
0.776833 0.159792 0.000000
0.937000 0.159792 0.000000
1.000000 0.159792 0.000000
0.000000 0.348100 0.000000
0.000000 0.348100 0.000000
0.023872 0.348100 0.000000
0.159442 0.348100 0.000000
0.353297 0.348100 0.000000
0.570680 0.348100 0.000000
0.776833 0.348100 0.000000
0.937000 0.348100 0.000000
1.000000 0.348100 0.000000
0.000000 0.559509 0.000000
0.000000 0.559509 0.000000
0.023872 0.559509 0.000000
0.159442 0.559509 0.000000
0.353297 0.559509 0.000000
0.570680 0.559509 0.000000
0.776833 0.559509 0.000000
0.937000 0.559509 0.000000
1.000000 0.559509 0.000000
0.000000 0.761968 0.000000
0.000000 0.761968 0.000000
0.023872 0.761968 0.000000
0.159442 0.761968 0.000000
0.353297 0.761968 0.000000
0.570680 0.761968 0.000000
0.776833 0.761968 0.000000
0.937000 0.761968 0.000000
1.000000 0.761968 0.000000
0.000000 0.923427 0.000000
0.000000 0.923427 0.000000
0.023872 0.923427 0.000000
0.159442 0.923427 0.000000
0.353297 0.923427 0.000000
0.570680 0.923427 0.000000
0.776833 0.923427 0.000000
0.937000 0.923427 0.000000
1.000000 0.923427 0.000000
0.000000 1.000000 0.000000
0.000000 1.000000 0.000000
0.023872 1.000000 0.000000
0.159442 1.000000 0.000000
0.353297 1.000000 0.000000
0.570680 1.000000 0.000000
0.776833 1.000000 0.000000
0.937000 1.000000 0.000000
1.000000 1.000000 0.000000
0.000000 0.000000 0.045467
0.000000 0.000000 0.045467
0.023872 0.000000 0.045467
0.159442 0.000000 0.045467
0.353297 0.000000 0.045467
0.570680 0.000000 0.045467
0.776833 0.000000 0.045467
0.937000 0.000000 0.045467
1.000000 0.000000 0.045467
0.000000 0.000000 0.045467
0.000000 0.000000 0.045467
0.023872 0.000000 0.045467
0.159442 0.000000 0.045467
0.353297 0.000000 0.045467
0.570680 0.000000 0.045467
0.776833 0.000000 0.045467
0.937000 0.000000 0.045467
1.000000 0.000000 0.045467
0.000000 0.026634 0.045467
0.000000 0.026634 0.045467
0.023872 0.026634 0.045467
0.159442 0.026634 0.045467
0.353297 0.026634 0.045467
0.570680 0.026634 0.045467
0.776833 0.026634 0.045467
0.937000 0.026634 0.045467
1.000000 0.026634 0.045467
0.000000 0.159792 0.045467
0.000000 0.159792 0.045467
0.023872 0.159792 0.045467
0.159442 0.159792 0.045467
0.353297 0.159792 0.045467
0.570680 0.159792 0.045467
0.776833 0.159792 0.045467
0.937000 0.159792 0.045467
1.000000 0.159792 0.045467
0.000000 0.348100 0.045467
0.000000 0.348100 0.045467
0.023872 0.348100 0.045467
0.159442 0.348100 0.045467
0.353297 0.348100 0.045467
0.570680 0.348100 0.045467
0.776833 0.348100 0.045467
0.937000 0.348100 0.045467
1.000000 0.348100 0.045467
0.000000 0.559509 0.045467
0.000000 0.559509 0.045467
0.023872 0.559509 0.045467
0.159442 0.559509 0.045467
0.353297 0.559509 0.045467
0.570680 0.559509 0.045467
0.776833 0.559509 0.045467
0.937000 0.559509 0.045467
1.000000 0.559509 0.045467
0.000000 0.761968 0.045467
0.000000 0.761968 0.045467
0.023872 0.761968 0.045467
0.159442 0.761968 0.045467
0.353297 0.761968 0.045467
0.570680 0.761968 0.045467
0.776833 0.761968 0.045467
0.937000 0.761968 0.045467
1.000000 0.761968 0.045467
0.000000 0.923427 0.045467
0.000000 0.923427 0.045467
0.023872 0.923427 0.045467
0.159442 0.923427 0.045467
0.353297 0.923427 0.045467
0.570680 0.923427 0.045467
0.776833 0.923427 0.045467
0.937000 0.923427 0.045467
1.000000 0.923427 0.045467
0.000000 1.000000 0.045467
0.000000 1.000000 0.045467
0.023872 1.000000 0.045467
0.159442 1.000000 0.045467
0.353297 1.000000 0.045467
0.570680 1.000000 0.045467
0.776833 1.000000 0.045467
0.937000 1.000000 0.045467
1.000000 1.000000 0.045467
0.000000 0.000000 0.188734
0.000000 0.000000 0.188734
0.023872 0.000000 0.188734
0.159442 0.000000 0.188734
0.353297 0.000000 0.188734
0.570680 0.000000 0.188734
0.776833 0.000000 0.188734
0.937000 0.000000 0.188734
1.000000 0.000000 0.188734
0.000000 0.000000 0.188734
0.000000 0.000000 0.188734
0.023872 0.000000 0.188734
0.159442 0.000000 0.188734
0.353297 0.000000 0.188734
0.570680 0.000000 0.188734
0.776833 0.000000 0.188734
0.937000 0.000000 0.188734
1.000000 0.000000 0.188734
0.000000 0.026634 0.188734
0.000000 0.026634 0.188734
0.023872 0.026634 0.188734
0.159442 0.026634 0.188734
0.353297 0.026634 0.188734
0.570680 0.026634 0.188734
0.776833 0.026634 0.188734
0.937000 0.026634 0.188734
1.000000 0.026634 0.188734
0.000000 0.159792 0.188734
0.000000 0.159792 0.188734
0.023872 0.159792 0.188734
0.159442 0.159792 0.188734
0.353297 0.159792 0.188734
0.570680 0.159792 0.188734
0.776833 0.159792 0.188734
0.937000 0.159792 0.188734
1.000000 0.159792 0.188734
0.000000 0.348100 0.188734
0.000000 0.348100 0.188734
0.023872 0.348100 0.188734
0.159442 0.348100 0.188734
0.353297 0.348100 0.188734
0.570680 0.348100 0.188734
0.776833 0.348100 0.188734
0.937000 0.348100 0.188734
1.000000 0.348100 0.188734
0.000000 0.559509 0.188734
0.000000 0.559509 0.188734
0.023872 0.559509 0.188734
0.159442 0.559509 0.188734
0.353297 0.559509 0.188734
0.570680 0.559509 0.188734
0.776833 0.559509 0.188734
0.937000 0.559509 0.188734
1.000000 0.559509 0.188734
0.000000 0.761968 0.188734
0.000000 0.761968 0.188734
0.023872 0.761968 0.188734
0.159442 0.761968 0.188734
0.353297 0.761968 0.188734
0.570680 0.761968 0.188734
0.776833 0.761968 0.188734
0.937000 0.761968 0.188734
1.000000 0.761968 0.188734
0.000000 0.923427 0.188734
0.000000 0.923427 0.188734
0.023872 0.923427 0.188734
0.159442 0.923427 0.188734
0.353297 0.923427 0.188734
0.570680 0.923427 0.188734
0.776833 0.923427 0.188734
0.937000 0.923427 0.188734
1.000000 0.923427 0.188734
0.000000 1.000000 0.188734
0.000000 1.000000 0.188734
0.023872 1.000000 0.188734
0.159442 1.000000 0.188734
0.353297 1.000000 0.188734
0.570680 1.000000 0.188734
0.776833 1.000000 0.188734
0.937000 1.000000 0.188734
1.000000 1.000000 0.188734
0.000000 0.000000 0.380362
0.000000 0.000000 0.380362
0.023872 0.000000 0.380362
0.159442 0.000000 0.380362
0.353297 0.000000 0.380362
0.570680 0.000000 0.380362
0.776833 0.000000 0.380362
0.937000 0.000000 0.380362
1.000000 0.000000 0.380362
0.000000 0.000000 0.380362
0.000000 0.000000 0.380362
0.023872 0.000000 0.380362
0.159442 0.000000 0.380362
0.353297 0.000000 0.380362
0.570680 0.000000 0.380362
0.776833 0.000000 0.380362
0.937000 0.000000 0.380362
1.000000 0.000000 0.380362
0.000000 0.026634 0.380362
0.000000 0.026634 0.380362
0.023872 0.026634 0.380362
0.159442 0.026634 0.380362
0.353297 0.026634 0.380362
0.570680 0.026634 0.380362
0.776833 0.026634 0.380362
0.937000 0.026634 0.380362
1.000000 0.026634 0.380362
0.000000 0.159792 0.380362
0.000000 0.159792 0.380362
0.023872 0.159792 0.380362
0.159442 0.159792 0.380362
0.353297 0.159792 0.380362
0.570680 0.159792 0.380362
0.776833 0.159792 0.380362
0.937000 0.159792 0.380362
1.000000 0.159792 0.380362
0.000000 0.348100 0.380362
0.000000 0.348100 0.380362
0.023872 0.348100 0.380362
0.159442 0.348100 0.380362
0.353297 0.348100 0.380362
0.570680 0.348100 0.380362
0.776833 0.348100 0.380362
0.937000 0.348100 0.380362
1.000000 0.348100 0.380362
0.000000 0.559509 0.380362
0.000000 0.559509 0.380362
0.023872 0.559509 0.380362
0.159442 0.559509 0.380362
0.353297 0.559509 0.380362
0.570680 0.559509 0.380362
0.776833 0.559509 0.380362
0.937000 0.559509 0.380362
1.000000 0.559509 0.380362
0.000000 0.761968 0.380362
0.000000 0.761968 0.380362
0.023872 0.761968 0.380362
0.159442 0.761968 0.380362
0.353297 0.761968 0.380362
0.570680 0.761968 0.380362
0.776833 0.761968 0.380362
0.937000 0.761968 0.380362
1.000000 0.761968 0.380362
0.000000 0.923427 0.380362
0.000000 0.923427 0.380362
0.023872 0.923427 0.380362
0.159442 0.923427 0.380362
0.353297 0.923427 0.380362
0.570680 0.923427 0.380362
0.776833 0.923427 0.380362
0.937000 0.923427 0.380362
1.000000 0.923427 0.380362
0.000000 1.000000 0.380362
0.000000 1.000000 0.380362
0.023872 1.000000 0.380362
0.159442 1.000000 0.380362
0.353297 1.000000 0.380362
0.570680 1.000000 0.380362
0.776833 1.000000 0.380362
0.937000 1.000000 0.380362
1.000000 1.000000 0.380362
0.000000 0.000000 0.589600
0.000000 0.000000 0.589600
0.023872 0.000000 0.589600
0.159442 0.000000 0.589600
0.353297 0.000000 0.589600
0.570680 0.000000 0.589600
0.776833 0.000000 0.589600
0.937000 0.000000 0.589600
1.000000 0.000000 0.589600
0.000000 0.000000 0.589600
0.000000 0.000000 0.589600
0.023872 0.000000 0.589600
0.159442 0.000000 0.589600
0.353297 0.000000 0.589600
0.570680 0.000000 0.589600
0.776833 0.000000 0.589600
0.937000 0.000000 0.589600
1.000000 0.000000 0.589600
0.000000 0.026634 0.589600
0.000000 0.026634 0.589600
0.023872 0.026634 0.589600
0.159442 0.026634 0.589600
0.353297 0.026634 0.589600
0.570680 0.026634 0.589600
0.776833 0.026634 0.589600
0.937000 0.026634 0.589600
1.000000 0.026634 0.589600
0.000000 0.159792 0.589600
0.000000 0.159792 0.589600
0.023872 0.159792 0.589600
0.159442 0.159792 0.589600
0.353297 0.159792 0.589600
0.570680 0.159792 0.589600
0.776833 0.159792 0.589600
0.937000 0.159792 0.589600
1.000000 0.159792 0.589600
0.000000 0.348100 0.589600
0.000000 0.348100 0.589600
0.023872 0.348100 0.589600
0.159442 0.348100 0.589600
0.353297 0.348100 0.589600
0.570680 0.348100 0.589600
0.776833 0.348100 0.589600
0.937000 0.348100 0.589600
1.000000 0.348100 0.589600
0.000000 0.559509 0.589600
0.000000 0.559509 0.589600
0.023872 0.559509 0.589600
0.159442 0.559509 0.589600
0.353297 0.559509 0.589600
0.570680 0.559509 0.589600
0.776833 0.559509 0.589600
0.937000 0.559509 0.589600
1.000000 0.559509 0.589600
0.000000 0.761968 0.589600
0.000000 0.761968 0.589600
0.023872 0.761968 0.589600
0.159442 0.761968 0.589600
0.353297 0.761968 0.589600
0.570680 0.761968 0.589600
0.776833 0.761968 0.589600
0.937000 0.761968 0.589600
1.000000 0.761968 0.589600
0.000000 0.923427 0.589600
0.000000 0.923427 0.589600
0.023872 0.923427 0.589600
0.159442 0.923427 0.589600
0.353297 0.923427 0.589600
0.570680 0.923427 0.589600
0.776833 0.923427 0.589600
0.937000 0.923427 0.589600
1.000000 0.923427 0.589600
0.000000 1.000000 0.589600
0.000000 1.000000 0.589600
0.023872 1.000000 0.589600
0.159442 1.000000 0.589600
0.353297 1.000000 0.589600
0.570680 1.000000 0.589600
0.776833 1.000000 0.589600
0.937000 1.000000 0.589600
1.000000 1.000000 0.589600
0.000000 0.000000 0.785696
0.000000 0.000000 0.785696
0.023872 0.000000 0.785696
0.159442 0.000000 0.785696
0.353297 0.000000 0.785696
0.570680 0.000000 0.785696
0.776833 0.000000 0.785696
0.937000 0.000000 0.785696
1.000000 0.000000 0.785696
0.000000 0.000000 0.785696
0.000000 0.000000 0.785696
0.023872 0.000000 0.785696
0.159442 0.000000 0.785696
0.353297 0.000000 0.785696
0.570680 0.000000 0.785696
0.776833 0.000000 0.785696
0.937000 0.000000 0.785696
1.000000 0.000000 0.785696
0.000000 0.026634 0.785696
0.000000 0.026634 0.785696
0.023872 0.026634 0.785696
0.159442 0.026634 0.785696
0.353297 0.026634 0.785696
0.570680 0.026634 0.785696
0.776833 0.026634 0.785696
0.937000 0.026634 0.785696
1.000000 0.026634 0.785696
0.000000 0.159792 0.785696
0.000000 0.159792 0.785696
0.023872 0.159792 0.785696
0.159442 0.159792 0.785696
0.353297 0.159792 0.785696
0.570680 0.159792 0.785696
0.776833 0.159792 0.785696
0.937000 0.159792 0.785696
1.000000 0.159792 0.785696
0.000000 0.348100 0.785696
0.000000 0.348100 0.785696
0.023872 0.348100 0.785696
0.159442 0.348100 0.785696
0.353297 0.348100 0.785696
0.570680 0.348100 0.785696
0.776833 0.348100 0.785696
0.937000 0.348100 0.785696
1.000000 0.348100 0.785696
0.000000 0.559509 0.785696
0.000000 0.559509 0.785696
0.023872 0.559509 0.785696
0.159442 0.559509 0.785696
0.353297 0.559509 0.785696
0.570680 0.559509 0.785696
0.776833 0.559509 0.785696
0.937000 0.559509 0.785696
1.000000 0.559509 0.785696
0.000000 0.761968 0.785696
0.000000 0.761968 0.785696
0.023872 0.761968 0.785696
0.159442 0.761968 0.785696
0.353297 0.761968 0.785696
0.570680 0.761968 0.785696
0.776833 0.761968 0.785696
0.937000 0.761968 0.785696
1.000000 0.761968 0.785696
0.000000 0.923427 0.785696
0.000000 0.923427 0.785696
0.023872 0.923427 0.785696
0.159442 0.923427 0.785696
0.353297 0.923427 0.785696
0.570680 0.923427 0.785696
0.776833 0.923427 0.785696
0.937000 0.923427 0.785696
1.000000 0.923427 0.785696
0.000000 1.000000 0.785696
0.000000 1.000000 0.785696
0.023872 1.000000 0.785696
0.159442 1.000000 0.785696
0.353297 1.000000 0.785696
0.570680 1.000000 0.785696
0.776833 1.000000 0.785696
0.937000 1.000000 0.785696
1.000000 1.000000 0.785696
0.000000 0.000000 0.937900
0.000000 0.000000 0.937900
0.023872 0.000000 0.937900
0.159442 0.000000 0.937900
0.353297 0.000000 0.937900
0.570680 0.000000 0.937900
0.776833 0.000000 0.937900
0.937000 0.000000 0.937900
1.000000 0.000000 0.937900
0.000000 0.000000 0.937900
0.000000 0.000000 0.937900
0.023872 0.000000 0.937900
0.159442 0.000000 0.937900
0.353297 0.000000 0.937900
0.570680 0.000000 0.937900
0.776833 0.000000 0.937900
0.937000 0.000000 0.937900
1.000000 0.000000 0.937900
0.000000 0.026634 0.937900
0.000000 0.026634 0.937900
0.023872 0.026634 0.937900
0.159442 0.026634 0.937900
0.353297 0.026634 0.937900
0.570680 0.026634 0.937900
0.776833 0.026634 0.937900
0.937000 0.026634 0.937900
1.000000 0.026634 0.937900
0.000000 0.159792 0.937900
0.000000 0.159792 0.937900
0.023872 0.159792 0.937900
0.159442 0.159792 0.937900
0.353297 0.159792 0.937900
0.570680 0.159792 0.937900
0.776833 0.159792 0.937900
0.937000 0.159792 0.937900
1.000000 0.159792 0.937900
0.000000 0.348100 0.937900
0.000000 0.348100 0.937900
0.023872 0.348100 0.937900
0.159442 0.348100 0.937900
0.353297 0.348100 0.937900
0.570680 0.348100 0.937900
0.776833 0.348100 0.937900
0.937000 0.348100 0.937900
1.000000 0.348100 0.937900
0.000000 0.559509 0.937900
0.000000 0.559509 0.937900
0.023872 0.559509 0.937900
0.159442 0.559509 0.937900
0.353297 0.559509 0.937900
0.570680 0.559509 0.937900
0.776833 0.559509 0.937900
0.937000 0.559509 0.937900
1.000000 0.559509 0.937900
0.000000 0.761968 0.937900
0.000000 0.761968 0.937900
0.023872 0.761968 0.937900
0.159442 0.761968 0.937900
0.353297 0.761968 0.937900
0.570680 0.761968 0.937900
0.776833 0.761968 0.937900
0.937000 0.761968 0.937900
1.000000 0.761968 0.937900
0.000000 0.923427 0.937900
0.000000 0.923427 0.937900
0.023872 0.923427 0.937900
0.159442 0.923427 0.937900
0.353297 0.923427 0.937900
0.570680 0.923427 0.937900
0.776833 0.923427 0.937900
0.937000 0.923427 0.937900
1.000000 0.923427 0.937900
0.000000 1.000000 0.937900
0.000000 1.000000 0.937900
0.023872 1.000000 0.937900
0.159442 1.000000 0.937900
0.353297 1.000000 0.937900
0.570680 1.000000 0.937900
0.776833 1.000000 0.937900
0.937000 1.000000 0.937900
1.000000 1.000000 0.937900
0.000000 0.000000 1.000000
0.000000 0.000000 1.000000
0.023872 0.000000 1.000000
0.159442 0.000000 1.000000
0.353297 0.000000 1.000000
0.570680 0.000000 1.000000
0.776833 0.000000 1.000000
0.937000 0.000000 1.000000
1.000000 0.000000 1.000000
0.000000 0.000000 1.000000
0.000000 0.000000 1.000000
0.023872 0.000000 1.000000
0.159442 0.000000 1.000000
0.353297 0.000000 1.000000
0.570680 0.000000 1.000000
0.776833 0.000000 1.000000
0.937000 0.000000 1.000000
1.000000 0.000000 1.000000
0.000000 0.026634 1.000000
0.000000 0.026634 1.000000
0.023872 0.026634 1.000000
0.159442 0.026634 1.000000
0.353297 0.026634 1.000000
0.570680 0.026634 1.000000
0.776833 0.026634 1.000000
0.937000 0.026634 1.000000
1.000000 0.026634 1.000000
0.000000 0.159792 1.000000
0.000000 0.159792 1.000000
0.023872 0.159792 1.000000
0.159442 0.159792 1.000000
0.353297 0.159792 1.000000
0.570680 0.159792 1.000000
0.776833 0.159792 1.000000
0.937000 0.159792 1.000000
1.000000 0.159792 1.000000
0.000000 0.348100 1.000000
0.000000 0.348100 1.000000
0.023872 0.348100 1.000000
0.159442 0.348100 1.000000
0.353297 0.348100 1.000000
0.570680 0.348100 1.000000
0.776833 0.348100 1.000000
0.937000 0.348100 1.000000
1.000000 0.348100 1.000000
0.000000 0.559509 1.000000
0.000000 0.559509 1.000000
0.023872 0.559509 1.000000
0.159442 0.559509 1.000000
0.353297 0.559509 1.000000
0.570680 0.559509 1.000000
0.776833 0.559509 1.000000
0.937000 0.559509 1.000000
1.000000 0.559509 1.000000
0.000000 0.761968 1.000000
0.000000 0.761968 1.000000
0.023872 0.761968 1.000000
0.159442 0.761968 1.000000
0.353297 0.761968 1.000000
0.570680 0.761968 1.000000
0.776833 0.761968 1.000000
0.937000 0.761968 1.000000
1.000000 0.761968 1.000000
0.000000 0.923427 1.000000
0.000000 0.923427 1.000000
0.023872 0.923427 1.000000
0.159442 0.923427 1.000000
0.353297 0.923427 1.000000
0.570680 0.923427 1.000000
0.776833 0.923427 1.000000
0.937000 0.923427 1.000000
1.000000 0.923427 1.000000
0.000000 1.000000 1.000000
0.000000 1.000000 1.000000
0.023872 1.000000 1.000000
0.159442 1.000000 1.000000
0.353297 1.000000 1.000000
0.570680 1.000000 1.000000
0.776833 1.000000 1.000000
0.937000 1.000000 1.000000
1.000000 1.000000 1.000000
