data/luts/noir.cube
TITLE "Noir"
LUT_3D_SIZE 5
DOMAIN_MIN 0.0 0.0 0.0
DOMAIN_MAX 1.0 1.0 1.0
0.000000 0.000000 0.000000
0.023872 0.000000 0.000000
0.353297 0.000000 0.000000
0.776833 0.000000 0.000000
1.000000 0.000000 0.000000
0.000000 0.026634 0.000000
0.023872 0.026634 0.000000
0.353297 0.026634 0.000000
0.776833 0.026634 0.000000
1.000000 0.026634 0.000000
0.000000 0.348100 0.000000
0.023872 0.348100 0.000000
0.353297 0.348100 0.000000
0.776833 0.348100 0.000000
1.000000 0.348100 0.000000
0.000000 0.761968 0.000000
0.023872 0.761968 0.000000
0.353297 0.761968 0.000000
0.776833 0.761968 0.000000
1.000000 0.761968 0.000000
0.000000 1.000000 0.000000
0.023872 1.000000 0.000000
0.353297 1.000000 0.000000
0.776833 1.000000 0.000000
1.000000 1.000000 0.000000
0.000000 0.000000 0.045467
0.023872 0.000000 0.045467
0.353297 0.000000 0.045467
0.776833 0.000000 0.045467
1.000000 0.000000 0.045467
0.000000 0.026634 0.045467
0.023872 0.026634 0.045467
0.353297 0.026634 0.045467
0.776833 0.026634 0.045467
1.000000 0.026634 0.045467
0.000000 0.348100 0.045467
0.023872 0.348100 0.045467
0.353297 0.348100 0.045467
0.776833 0.348100 0.045467
1.000000 0.348100 0.045467
0.000000 0.761968 0.045467
0.023872 0.761968 0.045467
0.353297 0.761968 0.045467
0.776833 0.761968 0.045467
1.000000 0.761968 0.045467
0.000000 1.000000 0.045467
0.023872 1.000000 0.045467
0.353297 1.000000 0.045467
0.776833 1.000000 0.045467
1.000000 1.000000 0.045467
0.000000 0.000000 0.380362
0.023872 0.000000 0.380362
0.353297 0.000000 0.380362
0.776833 0.000000 0.380362
1.000000 0.000000 0.380362
0.000000 0.026634 0.380362
0.023872 0.026634 0.380362
0.353297 0.026634 0.380362
0.776833 0.026634 0.380362
1.000000 0.026634 0.380362
0.000000 0.348100 0.380362
0.023872 0.348100 0.380362
0.353297 0.348100 0.380362
0.776833 0.348100 0.380362
1.000000 0.348100 0.380362
0.000000 0.761968 0.380362
0.023872 0.761968 0.380362
0.353297 0.761968 0.380362
0.776833 0.761968 0.380362
1.000000 0.761968 0.380362
0.000000 1.000000 0.380362
0.023872 1.000000 0.380362
0.353297 1.000000 0.380362
0.776833 1.000000 0.380362
1.000000 1.000000 0.380362
0.000000 0.000000 0.785696
0.023872 0.000000 0.785696
0.353297 0.000000 0.785696
0.776833 0.000000 0.785696
1.000000 0.000000 0.785696
0.000000 0.026634 0.785696
0.023872 0.026634 0.785696
0.353297 0.026634 0.785696
0.776833 0.026634 0.785696
1.000000 0.026634 0.785696
0.000000 0.348100 0.785696
0.023872 0.348100 0.785696
0.353297 0.348100 0.785696
0.776833 0.348100 0.785696
1.000000 0.348100 0.785696
0.000000 0.761968 0.785696
0.023872 0.761968 0.785696
0.353297 0.761968 0.785696
0.776833 0.761968 0.785696
1.000000 0.761968 0.785696
0.000000 1.000000 0.785696
0.023872 1.000000 0.785696
0.353297 1.000000 0.785696
0.776833 1.000000 0.785696
1.000000 1.000000 0.785696
0.000000 0.000000 1.000000
0.023872 0.000000 1.000000
0.353297 0.000000 1.000000
0.776833 0.000000 1.000000
1.000000 0.000000 1.000000
0.000000 0.026634 1.000000
0.023872 0.026634 1.000000
0.353297 0.026634 1.000000
0.776833 0.026634 1.000000
1.000000 0.026634 1.000000
0.000000 0.348100 1.000000
0.023872 0.348100 1.000000
0.353297 0.348100 1.000000
0.776833 0.348100 1.000000
1.000000 0.348100 1.000000
0.000000 0.761968 1.000000
0.023872 0.761968 1.000000
0.353297 0.761968 1.000000
0.776833 0.761968 1.000000
1.000000 0.761968 1.000000
0.000000 1.000000 1.000000
0.023872 1.000000 1.000000
0.353297 1.000000 1.000000
0.776833 1.000000 1.000000
1.000000 1.000000 1.000000
