data/luts/teal_orange.cube
TITLE "Teal Orange"
LUT_3D_SIZE 5
DOMAIN_MIN 0.0 0.0 0.0
DOMAIN_MAX 1.0 1.0 1.0
0.000000 0.000000 0.005811
0.050814 0.000000 0.003226
0.375188 0.000000 0.001086
0.776582 0.000000 0.000000
1.000000 0.000000 0.000000
0.000000 0.176216 0.000000
0.081392 0.169573 0.000000
0.431423 0.163021 0.000000
0.823495 0.156562 0.000000
1.000000 0.150198 0.000000
0.000000 0.522777 0.000000
0.117560 0.514278 0.000000
0.488449 0.505776 0.000000
0.866400 0.501637 0.000000
1.000000 0.506739 0.000000
0.000000 0.865003 0.000000
0.158660 0.868627 0.000000
0.545608 0.872213 0.000000
0.904640 0.875761 0.000000
1.000000 0.879271 0.000000
0.000000 1.000000 0.000000
0.204034 1.000000 0.000000
0.602242 1.000000 0.000000
0.937554 1.000000 0.000000
1.000000 1.000000 0.000000
0.000000 0.000000 0.235782
0.053628 0.000000 0.224097
0.380810 0.000000 0.212601
0.781481 0.000000 0.201303
1.000000 0.000000 0.190211
0.000000 0.173950 0.197240
0.084800 0.167338 0.186226
0.437154 0.160817 0.175431
0.828019 0.154390 0.164863
1.000000 0.148059 0.154532
0.000000 0.519891 0.161074
0.121496 0.511391 0.150831
0.494224 0.502888 0.140836
0.870483 0.503370 0.129517
1.000000 0.508472 0.117776
0.000000 0.866238 0.125193
0.163058 0.869849 0.113610
0.551360 0.873422 0.102468
0.908215 0.876958 0.091785
1.000000 0.880454 0.081579
0.000000 1.000000 0.088013
0.208827 1.000000 0.077985
0.607904 1.000000 0.068456
0.940555 1.000000 0.059445
1.000000 1.000000 0.050968
0.000000 0.000000 0.617777
0.056506 0.000000 0.604471
0.386446 0.000000 0.591096
0.786345 0.000000 0.577662
1.000000 0.000000 0.564177
0.000000 0.171694 0.572758
0.088265 0.165113 0.559257
0.442894 0.158624 0.545717
0.832502 0.152229 0.532147
1.000000 0.145931 0.518556
0.000000 0.517005 0.527201
0.125482 0.508504 0.513605
0.500000 0.500000 0.500000
0.874518 0.505102 0.482995
1.000000 0.510204 0.466007
0.000000 0.867468 0.476807
0.167498 0.871067 0.459830
0.557106 0.874627 0.442894
0.911735 0.878149 0.426016
1.000000 0.881633 0.409213
0.000000 1.000000 0.419889
0.213655 1.000000 0.403118
0.613554 1.000000 0.386446
0.943494 1.000000 0.369891
1.000000 1.000000 0.353469
0.000000 0.000000 0.934505
0.059445 0.000000 0.927055
0.392096 0.000000 0.919280
0.791173 0.000000 0.911187
1.000000 0.000000 0.902786
0.000000 0.169449 0.908164
0.091785 0.162899 0.899653
0.448640 0.156441 0.890846
0.836942 0.150079 0.881753
1.000000 0.143815 0.872381
0.000000 0.514118 0.878372
0.129517 0.505616 0.868901
0.505776 0.501733 0.858325
0.878504 0.506835 0.845766
1.000000 0.511937 0.832823
0.000000 0.868694 0.841097
0.171981 0.872280 0.828019
0.562846 0.875828 0.814581
0.915200 0.879337 0.800800
1.000000 0.882807 0.786694
0.000000 1.000000 0.795701
0.218519 1.000000 0.781481
0.619190 1.000000 0.766958
0.946372 1.000000 0.752151
1.000000 1.000000 0.737077
0.000000 0.000000 1.000000
0.062446 0.000000 1.000000
0.397758 0.000000 1.000000
0.795966 0.000000 1.000000
1.000000 0.000000 1.000000
0.000000 0.167214 1.000000
0.095360 0.160695 1.000000
0.454392 0.154270 1.000000
0.841340 0.147941 1.000000
1.000000 0.141710 1.000000
0.000000 0.511231 1.000000
0.133600 0.502728 1.000000
0.511551 0.503466 1.000000
0.882440 0.508568 1.000000
1.000000 0.513669 1.000000
0.000000 0.869916 1.000000
0.176505 0.873489 1.000000
0.568577 0.877024 1.000000
0.918608 0.880520 1.000000
1.000000 0.883977 0.998628
0.000000 1.000000 1.000000
0.223418 1.000000 0.997680
0.624812 1.000000 0.994600
0.949186 1.000000 0.990834
1.000000 1.000000 0.986400
