data/luts/teal_orange.cube
TITLE "Teal Orange"
LUT_3D_SIZE 9
DOMAIN_MIN 0.0 0.0 0.0
DOMAIN_MAX 1.0 1.0 1.0
0.000000 0.000000 0.005811
0.000000 0.000000 0.004463
0.050814 0.000000 0.003226
0.187440 0.000000 0.002100
0.375188 0.000000 0.001086
0.582191 0.000000 0.000187
0.776582 0.000000 0.000000
0.926493 0.000000 0.000000
1.000000 0.000000 0.000000
0.000000 0.055071 0.001718
0.000000 0.052970 0.000746
0.065363 0.050903 0.000000
0.210889 0.048870 0.000000
0.403165 0.046873 0.000000
0.610324 0.044910 0.000000
0.800498 0.042983 0.000000
0.941821 0.041091 0.000000
1.000000 0.039235 0.000000
0.000000 0.176216 0.000000
0.001810 0.172883 0.000000
0.081392 0.169573 0.000000
0.235218 0.166285 0.000000
0.431423 0.163021 0.000000
0.638137 0.159780 0.000000
0.823495 0.156562 0.000000
0.955628 0.153368 0.000000
1.000000 0.150198 0.000000
0.000000 0.339621 0.000000
0.007163 0.335573 0.000000
0.098818 0.331535 0.000000
0.260345 0.327508 0.000000
0.459878 0.323493 0.000000
0.665549 0.319488 0.000000
0.845490 0.315496 0.000000
0.967834 0.311515 0.000000
1.000000 0.307547 0.000000
0.000000 0.522777 0.000000
0.014432 0.518528 0.000000
0.117560 0.514278 0.000000
0.286188 0.510027 0.000000
0.488449 0.505776 0.000000
0.692476 0.501524 0.000000
0.866400 0.501637 0.000000
0.978356 0.504188 0.000000
1.000000 0.506739 0.000000
0.000000 0.703171 0.000000
0.023533 0.699237 0.000000
0.137535 0.695326 0.000000
0.312664 0.697695 0.000000
0.517053 0.700060 0.000000
0.718836 0.702420 0.000000
0.886144 0.704776 0.000000
0.987112 0.707126 0.000000
1.000000 0.709472 0.000000
0.000000 0.865003 0.000000
0.034386 0.866819 0.000000
0.158660 0.868627 0.000000
0.339690 0.870424 0.000000
0.545608 0.872213 0.000000
0.744547 0.873992 0.000000
0.904640 0.875761 0.000000
0.994018 0.877521 0.000000
1.000000 0.879271 0.000000
0.000000 0.977717 0.000000
0.046906 0.978581 0.000000
0.180854 0.979431 0.000000
0.367185 0.980267 0.000000
0.574032 0.981089 0.000000
0.769527 0.981896 0.000000
0.921803 0.982690 0.000000
0.998993 0.983468 0.000000
1.000000 0.984233 0.000000
0.000000 1.000000 0.000000
0.061013 1.000000 0.000000
0.204034 1.000000 0.000000
0.395066 1.000000 0.000000
0.602242 1.000000 0.000000
0.793693 1.000000 0.000000
0.937554 1.000000 0.000000
1.000000 1.000000 0.000000
1.000000 1.000000 0.000000
0.000000 0.000000 0.088213
0.000000 0.000000 0.084138
0.052213 0.000000 0.080143
0.189765 0.000000 0.076226
0.377997 0.000000 0.072390
0.585043 0.000000 0.068636
0.779035 0.000000 0.064965
0.928107 0.000000 0.061377
1.000000 0.000000 0.057874
0.000000 0.054354 0.074820
0.000000 0.052264 0.071014
0.066915 0.050209 0.067290
0.213306 0.048188 0.063649
0.406006 0.046202 0.060092
0.613148 0.044251 0.056620
0.802863 0.042336 0.053235
0.943285 0.040456 0.049937
1.000000 0.038613 0.046728
0.000000 0.175081 0.062344
0.002261 0.171756 0.058818
0.083089 0.168454 0.055378
0.237720 0.165174 0.052024
0.434288 0.161918 0.048759
0.640924 0.158684 0.045582
0.825762 0.155475 0.042496
0.956935 0.152289 0.039501
1.000000 0.149127 0.036598
0.000000 0.338245 0.050825
0.007811 0.334201 0.047592
0.100652 0.330166 0.044448
0.262923 0.326143 0.041395
0.462758 0.322131 0.038433
0.668290 0.318131 0.035565
0.847651 0.314143 0.032790
0.968974 0.310166 0.030110
1.000000 0.306202 0.027526
0.000000 0.521334 0.040306
0.015269 0.517085 0.037378
0.119522 0.512835 0.034543
0.288833 0.508584 0.031803
0.491336 0.504332 0.029158
0.695164 0.500080 0.026610
0.868448 0.502503 0.023572
0.979322 0.505054 0.020678
1.000000 0.507605 0.017941
0.000000 0.701836 0.030829
0.024551 0.697898 0.028219
0.139616 0.696131 0.025494
0.315368 0.698499 0.022501
0.519939 0.700862 0.019663
0.721462 0.703221 0.016984
0.888070 0.705575 0.014464
0.987894 0.707924 0.012106
1.000000 0.710268 0.009912
0.000000 0.865621 0.021450
0.035575 0.867434 0.018670
0.160853 0.869238 0.016048
0.342446 0.871033 0.013587
0.548485 0.872818 0.011288
0.747103 0.874594 0.009154
0.906434 0.876360 0.007188
0.994609 0.878116 0.005391
1.000000 0.879863 0.003765
0.000000 0.978012 0.012731
0.048260 0.978871 0.010492
0.183151 0.979717 0.008419
0.369984 0.980548 0.006514
0.576891 0.981365 0.004779
0.772005 0.982167 0.003216
0.923459 0.982956 0.001827
0.999385 0.983730 0.000615
1.000000 0.984489 0.000000
0.000000 1.000000 0.005862
0.062522 1.000000 0.004190
0.206426 1.000000 0.002690
0.397899 1.000000 0.001365
0.605075 1.000000 0.000218
0.796085 1.000000 0.000000
0.939062 1.000000 0.000000
1.000000 1.000000 0.000000
1.000000 1.000000 0.000000
0.000000 0.000000 0.235782
0.000000 0.000000 0.229916
0.053628 0.000000 0.224097
0.192099 0.000000 0.218325
0.380810 0.000000 0.212601
0.587893 0.000000 0.206927
0.781481 0.000000 0.201303
0.929706 0.000000 0.195731
1.000000 0.000000 0.190211
0.000000 0.053640 0.216235
0.000000 0.051562 0.210529
0.068482 0.049519 0.204873
0.215733 0.047510 0.199268
0.408850 0.045536 0.193715
0.615968 0.043597 0.188215
0.805218 0.041694 0.182770
0.944733 0.039826 0.177379
1.000000 0.037995 0.172046
0.000000 0.173950 0.197240
0.002732 0.170632 0.191707
0.084800 0.167338 0.186226
0.240230 0.164066 0.180801
0.437154 0.160817 0.175431
0.643707 0.157592 0.170118
0.828019 0.154390 0.164863
0.958225 0.151212 0.159667
1.000000 0.148059 0.154532
0.000000 0.336871 0.178839
0.008479 0.332829 0.173490
0.102499 0.328799 0.168198
0.265508 0.324780 0.162965
0.465640 0.320772 0.157791
0.671027 0.316775 0.152677
0.849802 0.312791 0.147625
0.970097 0.308818 0.142637
1.000000 0.304859 0.137712
0.000000 0.519891 0.161074
0.016124 0.515642 0.155922
0.121496 0.511391 0.150831
0.291485 0.507140 0.145802
0.494224 0.502888 0.140836
0.697846 0.500818 0.135544
0.870483 0.503370 0.129517
0.980269 0.505921 0.123593
1.000000 0.508472 0.117776
0.000000 0.700500 0.143987
0.025586 0.696558 0.139044
0.141710 0.696936 0.133338
0.318079 0.699302 0.127348
0.522825 0.701664 0.121463
0.724082 0.704021 0.115686
0.889982 0.706373 0.110018
0.988658 0.708720 0.104462
1.000000 0.711063 0.099020
0.000000 0.866238 0.125193
0.036782 0.868048 0.119347
0.163058 0.869849 0.113610
0.345206 0.871640 0.107982
0.551360 0.873422 0.102468
0.749652 0.875195 0.097068
0.908215 0.876958 0.091785
0.995181 0.878711 0.086621
1.000000 0.880454 0.081579
0.000000 0.978306 0.105962
0.049629 0.979160 0.100489
0.185457 0.980001 0.095131
0.372786 0.980827 0.089891
0.579747 0.981639 0.084771
0.774475 0.982437 0.079774
0.925100 0.983220 0.074900
0.999756 0.983989 0.070153
1.000000 0.984744 0.065534
0.000000 1.000000 0.088013
0.064046 1.000000 0.082938
0.208827 1.000000 0.077985
0.400735 1.000000 0.073157
0.607904 1.000000 0.068456
0.798467 1.000000 0.063885
0.940555 1.000000 0.059445
1.000000 1.000000 0.055139
1.000000 1.000000 0.050968
0.000000 0.000000 0.421357
0.000000 0.000000 0.414635
0.055059 0.000000 0.407927
0.194444 0.000000 0.401234
0.383626 0.000000 0.394557
0.590740 0.000000 0.387897
0.783917 0.000000 0.381256
0.931291 0.000000 0.374634
1.000000 0.000000 0.368033
0.000000 0.052931 0.398801
0.000000 0.050864 0.392130
0.070065 0.048832 0.385477
0.218168 0.046835 0.378843
0.411697 0.044873 0.372228
0.618785 0.042947 0.365635
0.807564 0.041056 0.359064
0.946166 0.039200 0.352515
1.000000 0.037381 0.345992
0.000000 0.172820 0.376432
0.003224 0.169511 0.369825
0.086525 0.166224 0.363240
0.242748 0.162960 0.356677
0.440023 0.159719 0.350138
0.646485 0.156502 0.343623
0.830266 0.153308 0.337134
0.959498 0.150139 0.330672
1.000000 0.146994 0.324238
0.000000 0.335497 0.354293
0.009166 0.331459 0.347763
0.104359 0.327433 0.341257
0.268100 0.323417 0.334778
0.468522 0.319413 0.328326
0.673758 0.315421 0.321903
0.851941 0.311440 0.315509
0.971203 0.307472 0.309146
1.000000 0.305391 0.302347
0.000000 0.518448 0.332426
0.016998 0.514198 0.325985
0.123483 0.509947 0.319572
0.294143 0.505696 0.313189
0.497112 0.501444 0.306837
0.700522 0.501685 0.299478
0.872507 0.504236 0.291632
0.981198 0.506787 0.283841
1.000000 0.509338 0.276107
0.000000 0.699163 0.310873
0.026639 0.695371 0.304494
0.143815 0.697740 0.296615
0.320794 0.700105 0.288789
0.525710 0.702465 0.281018
0.726695 0.704820 0.273305
0.891881 0.707171 0.265651
0.989402 0.709516 0.258059
1.000000 0.711857 0.250531
0.000000 0.866854 0.285954
0.038005 0.868661 0.278204
0.165273 0.870458 0.270512
0.347971 0.872246 0.262880
0.554234 0.874025 0.255311
0.752193 0.875794 0.247807
0.909982 0.877554 0.240369
0.995733 0.879304 0.233000
1.000000 0.881044 0.225703
0.000000 0.978597 0.260117
0.051015 0.979447 0.252571
0.187774 0.980283 0.245091
0.375592 0.981104 0.237678
0.582602 0.981911 0.230335
0.776936 0.982704 0.223064
0.926726 0.983483 0.215867
1.000000 0.984247 0.208747
1.000000 0.984997 0.201705
0.000000 1.000000 0.234997
0.065586 1.000000 0.227680
0.211237 1.000000 0.220436
0.403574 1.000000 0.213266
0.610731 1.000000 0.206174
0.800839 1.000000 0.199161
0.942032 1.000000 0.192229
1.000000 1.000000 0.185381
1.000000 1.000000 0.178618
0.000000 0.000000 0.617777
0.000000 0.000000 0.611133
0.056506 0.000000 0.604471
0.196797 0.000000 0.597791
0.386446 0.000000 0.591096
0.593584 0.000000 0.584386
0.786345 0.000000 0.577662
0.932860 0.000000 0.570925
1.000000 0.000000 0.564177
0.000000 0.052225 0.595356
0.000000 0.050170 0.588655
0.071662 0.048150 0.581939
0.220612 0.046165 0.575211
0.414546 0.044215 0.568470
0.621598 0.042300 0.561717
0.809900 0.040421 0.554955
0.947584 0.038578 0.548184
1.000000 0.036772 0.541405
0.000000 0.171694 0.572758
0.003736 0.168392 0.566013
0.088265 0.165113 0.559257
0.245273 0.161857 0.552491
0.442894 0.158624 0.545717
0.649259 0.155415 0.538935
0.832502 0.152229 0.532147
0.960755 0.149068 0.525354
1.000000 0.145931 0.518556
0.000000 0.334125 0.550026
0.009872 0.330091 0.543248
0.106232 0.326068 0.536464
0.270699 0.322056 0.529674
0.471406 0.318056 0.522879
0.676485 0.314068 0.516081
0.854069 0.310091 0.509280
0.972291 0.306127 0.502477
1.000000 0.306197 0.494592
0.000000 0.517005 0.527201
0.017891 0.512755 0.520405
0.125482 0.508504 0.513605
0.296807 0.504252 0.506803
0.500000 0.500000 0.500000
0.703193 0.502551 0.491496
0.874518 0.505102 0.482995
0.982109 0.507653 0.474498
1.000000 0.510204 0.466007
0.000000 0.697824 0.504326
0.027709 0.696176 0.496904
0.145931 0.698544 0.488401
0.323515 0.700907 0.479901
0.528594 0.703265 0.471406
0.729301 0.705619 0.462918
0.893768 0.707968 0.454440
0.990128 0.710312 0.445973
1.000000 0.712651 0.437520
0.000000 0.867468 0.476807
0.039245 0.869272 0.468315
0.167498 0.871067 0.459830
0.350741 0.872852 0.451356
0.557106 0.874627 0.442894
0.754727 0.876393 0.434446
0.911735 0.878149 0.426016
0.996264 0.879896 0.417604
1.000000 0.881633 0.409213
0.000000 0.978887 0.448273
0.052416 0.979732 0.439817
0.190100 0.980563 0.431375
0.378402 0.981380 0.422951
0.585454 0.982182 0.414546
0.779388 0.982970 0.406164
0.928338 0.983744 0.397805
1.000000 0.984503 0.389473
1.000000 0.985248 0.381168
0.000000 1.000000 0.419889
0.067140 1.000000 0.411492
0.213655 1.000000 0.403118
0.406416 1.000000 0.394768
0.613554 1.000000 0.386446
0.803203 1.000000 0.378153
0.943494 1.000000 0.369891
1.000000 1.000000 0.361662
1.000000 1.000000 0.353469
0.000000 0.000000 0.797880
0.000000 0.000000 0.792249
0.057968 0.000000 0.786567
0.199161 0.000000 0.780837
0.389269 0.000000 0.775058
0.596426 0.000000 0.769231
0.788763 0.000000 0.763359
0.934414 0.000000 0.757442
1.000000 0.000000 0.751482
0.000000 0.051523 0.778738
0.000000 0.049480 0.772942
0.073274 0.047472 0.767099
0.223064 0.045499 0.761210
0.417398 0.043561 0.755277
0.624408 0.041658 0.749301
0.812226 0.039792 0.743283
0.948985 0.037961 0.737223
1.000000 0.036166 0.731123
0.000000 0.170570 0.759055
0.004267 0.167276 0.753107
0.090018 0.164004 0.747115
0.247807 0.160756 0.741081
0.445766 0.157531 0.735007
0.652029 0.154330 0.728893
0.834727 0.151153 0.722740
0.961995 0.148000 0.716550
1.000000 0.144872 0.710324
0.000000 0.332753 0.738874
0.010598 0.328723 0.732785
0.108119 0.324704 0.726657
0.273305 0.320696 0.720491
0.474290 0.316700 0.714288
0.679206 0.312716 0.708049
0.856185 0.308744 0.701775
0.973361 0.304784 0.695467
1.000000 0.307003 0.687576
0.000000 0.515562 0.718237
0.018802 0.511311 0.712020
0.127493 0.507060 0.705769
0.299478 0.502808 0.699482
0.502888 0.500866 0.692625
0.705857 0.503418 0.684677
0.876517 0.505969 0.676681
0.983002 0.508520 0.668639
1.000000 0.511070 0.660554
0.000000 0.696483 0.697185
0.028797 0.696980 0.689737
0.148059 0.699347 0.681771
0.326242 0.701708 0.673758
0.531478 0.704065 0.665701
0.731900 0.706417 0.657600
0.895641 0.708764 0.649459
0.990834 0.711107 0.641279
1.000000 0.713444 0.633063
0.000000 0.868082 0.670830
0.040502 0.869883 0.662756
0.169734 0.871674 0.654641
0.353515 0.873456 0.646485
0.559977 0.875228 0.638292
0.757252 0.876991 0.630063
0.913475 0.878744 0.621801
0.996776 0.880487 0.613507
1.000000 0.882221 0.605185
0.000000 0.979176 0.643506
0.053834 0.980016 0.635300
0.192436 0.980842 0.627059
0.381215 0.981654 0.618785
0.588303 0.982452 0.610480
0.781832 0.983235 0.602148
0.929935 0.984004 0.593789
1.000000 0.984758 0.585406
1.000000 0.985498 0.577002
0.000000 1.000000 0.615765
0.068709 1.000000 0.607450
0.216083 1.000000 0.599108
0.409260 1.000000 0.590740
0.616374 1.000000 0.582349
0.805556 1.000000 0.573937
0.944941 1.000000 0.565506
1.000000 1.000000 0.557059
1.000000 1.000000 0.548596
0.000000 0.000000 0.934505
0.000000 0.000000 0.930822
0.059445 0.000000 0.927055
0.201533 0.000000 0.923208
0.392096 0.000000 0.919280
0.599265 0.000000 0.915272
0.791173 0.000000 0.911187
0.935954 0.000000 0.907025
1.000000 0.000000 0.902786
0.000000 0.050826 0.921787
0.000244 0.048795 0.917830
0.074900 0.046798 0.913794
0.225525 0.044837 0.909680
0.420253 0.042911 0.905490
0.627214 0.041020 0.901225
0.814543 0.039166 0.896885
0.950371 0.037347 0.892471
1.000000 0.035565 0.887986
0.000000 0.169449 0.908164
0.004819 0.166162 0.903946
0.091785 0.162899 0.899653
0.250348 0.159658 0.895286
0.448640 0.156441 0.890846
0.654794 0.153248 0.886335
0.836942 0.150079 0.881753
0.963218 0.146935 0.877101
1.000000 0.143815 0.872381
0.000000 0.331384 0.893678
0.011342 0.327357 0.889212
0.110018 0.323342 0.884675
0.275918 0.319338 0.880067
0.477175 0.315346 0.875390
0.681921 0.311366 0.870645
0.858290 0.307398 0.865833
0.974414 0.305435 0.860569
1.000000 0.307811 0.854374
0.000000 0.514118 0.878372
0.019731 0.509867 0.873671
0.129517 0.505616 0.868901
0.302154 0.501364 0.864065
0.505776 0.501733 0.858325
0.708515 0.504284 0.852095
0.878504 0.506835 0.845766
0.983876 0.509386 0.839341
1.000000 0.511937 0.832823
0.000000 0.695415 0.862235
0.029903 0.697784 0.856068
0.150198 0.700149 0.849802
0.328973 0.702509 0.843438
0.534360 0.704864 0.836979
0.734492 0.707215 0.830427
0.897501 0.709560 0.823784
0.991521 0.711901 0.817053
1.000000 0.714237 0.810235
0.000000 0.868694 0.841097
0.041775 0.870492 0.834604
0.171981 0.872280 0.828019
0.356293 0.874059 0.821344
0.562846 0.875828 0.814581
0.759770 0.877587 0.807732
0.915200 0.879337 0.800800
0.997268 0.881077 0.793786
1.000000 0.882807 0.786694
0.000000 0.979463 0.818892
0.055267 0.980298 0.812097
0.194782 0.981120 0.805218
0.384032 0.981927 0.798256
0.591150 0.982719 0.791213
0.784267 0.983498 0.784092
0.931518 0.984261 0.776895
1.000000 0.985011 0.769623
1.000000 0.985746 0.762280
0.000000 1.000000 0.795701
0.070294 1.000000 0.788630
0.218519 1.000000 0.781481
0.412107 1.000000 0.774256
0.619190 1.000000 0.766958
0.807901 1.000000 0.759589
0.946372 1.000000 0.752151
1.000000 1.000000 0.744646
1.000000 1.000000 0.737077
0.000000 0.000000 1.000000
0.000000 0.000000 0.999689
0.060938 0.000000 0.998773
0.203915 0.000000 0.997743
0.394925 0.000000 0.996601
0.602101 0.000000 0.995347
0.793574 0.000000 0.993983
0.937478 0.000000 0.992510
1.000000 0.000000 0.990929
0.000000 0.050132 0.997340
0.000615 0.048113 0.996157
0.076541 0.046128 0.994863
0.227995 0.044179 0.993459
0.423109 0.042265 0.991947
0.630016 0.040386 0.990326
0.816849 0.038544 0.988600
0.951740 0.036738 0.986767
1.000000 0.034968 0.984831
0.000000 0.168330 0.992921
0.005391 0.165051 0.991369
0.093566 0.161796 0.989710
0.252897 0.158563 0.987945
0.451515 0.155354 0.986074
0.657554 0.152169 0.984100
0.839147 0.149009 0.982022
0.964425 0.145872 0.979844
1.000000 0.142761 0.977564
0.000000 0.330015 0.987276
0.012106 0.325992 0.985367
0.111930 0.321981 0.983355
0.278538 0.317981 0.981241
0.480061 0.313993 0.979025
0.684632 0.310017 0.976709
0.860384 0.306053 0.974294
0.975449 0.306241 0.971360
1.000000 0.308618 0.968063
0.000000 0.512675 0.980446
0.020678 0.508424 0.978194
0.131552 0.504172 0.975841
0.304836 0.500048 0.973379
0.508664 0.502599 0.970177
0.711167 0.505150 0.966826
0.880478 0.507701 0.963326
0.984731 0.510252 0.959680
1.000000 0.512803 0.955890
0.000000 0.696220 0.972231
0.031026 0.698588 0.968974
0.152349 0.700951 0.965569
0.331710 0.703310 0.962015
0.537242 0.705663 0.958317
0.737077 0.708012 0.954475
0.899348 0.710356 0.950493
0.992189 0.712695 0.946372
1.000000 0.715029 0.942114
0.000000 0.869306 0.960686
0.043065 0.871100 0.956935
0.174238 0.872885 0.953042
0.359076 0.874660 0.949008
0.565712 0.876426 0.944837
0.762280 0.878182 0.940530
0.916911 0.879929 0.936090
0.997739 0.881666 0.931518
1.000000 0.883393 0.926816
0.000000 0.979748 0.947506
0.056715 0.980579 0.943285
0.197137 0.981395 0.938929
0.386852 0.982197 0.934440
0.593994 0.982985 0.929821
0.786694 0.983759 0.925073
0.933085 0.984518 0.920199
1.000000 0.985262 0.915200
1.000000 0.985992 0.910079
0.000000 1.000000 0.932773
0.071893 1.000000 0.928107
0.220965 1.000000 0.923313
0.414957 1.000000 0.918393
0.622003 1.000000 0.913350
0.810235 1.000000 0.908185
0.947787 1.000000 0.902902
1.000000 1.000000 0.897501
1.000000 1.000000 0.891986
0.000000 0.000000 1.000000
0.000000 0.000000 1.000000
0.062446 0.000000 1.000000
0.206307 0.000000 1.000000
0.397758 0.000000 1.000000
0.604934 0.000000 1.000000
0.795966 0.000000 1.000000
0.938987 0.000000 1.000000
1.000000 0.000000 1.000000
0.000000 0.049442 1.000000
0.001007 0.047435 1.000000
0.078197 0.045462 1.000000
0.230473 0.043525 1.000000
0.425968 0.041623 1.000000
0.632815 0.039757 1.000000
0.819146 0.037927 1.000000
0.953094 0.036133 1.000000
1.000000 0.034376 1.000000
0.000000 0.167214 1.000000
0.005982 0.163943 1.000000
0.095360 0.160695 1.000000
0.255453 0.157471 1.000000
0.454392 0.154270 1.000000
0.660310 0.151093 1.000000
0.841340 0.147941 1.000000
0.965614 0.144813 1.000000
1.000000 0.141710 1.000000
0.000000 0.328647 1.000000
0.012888 0.324629 1.000000
0.113856 0.320621 1.000000
0.281164 0.316625 1.000000
0.482947 0.312641 1.000000
0.687336 0.308669 1.000000
0.862465 0.304710 1.000000
0.976467 0.307048 1.000000
1.000000 0.309427 1.000000
0.000000 0.511231 1.000000
0.021644 0.506980 1.000000
0.133600 0.502728 1.000000
0.307524 0.500914 1.000000
0.511551 0.503466 1.000000
0.713812 0.506017 1.000000
0.882440 0.508568 1.000000
0.985568 0.511118 1.000000
1.000000 0.513669 1.000000
0.000000 0.697025 1.000000
0.032166 0.699391 1.000000
0.154510 0.701753 1.000000
0.334451 0.704109 1.000000
0.540122 0.706461 1.000000
0.739655 0.708808 1.000000
0.901182 0.711151 1.000000
0.992837 0.713488 1.000000
1.000000 0.715820 1.000000
0.000000 0.869916 1.000000
0.044372 0.871707 1.000000
0.176505 0.873489 1.000000
0.361863 0.875261 1.000000
0.568577 0.877024 1.000000
0.764782 0.878777 1.000000
0.918608 0.880520 1.000000
0.998190 0.882253 0.999776
1.000000 0.883977 0.998628
0.000000 0.980032 1.000000
0.058179 0.980858 1.000000
0.199502 0.981669 1.000000
0.389676 0.982466 1.000000
0.596835 0.983249 0.999379
0.789111 0.984018 0.998166
0.934637 0.984772 0.996776
1.000000 0.985512 0.995212
1.000000 0.986237 0.993476
0.000000 1.000000 1.000000
0.073507 1.000000 0.998958
0.223418 1.000000 0.997680
0.417809 1.000000 0.996227
0.624812 1.000000 0.994600
0.812560 1.000000 0.992801
0.949186 1.000000 0.990834
1.000000 1.000000 0.988699
1.000000 1.000000 0.986400
