data/luts/teal_orange.cube
TITLE "Teal Orange"
LUT_3D_SIZE 33
DOMAIN_MIN 0.0 0.0 0.0
DOMAIN_MAX 1.0 1.0 1.0
0.000000 0.000000 0.005811
0.000000 0.000000 0.005464
0.000000 0.000000 0.005123
0.000000 0.000000 0.004790
0.000000 0.000000 0.004463
0.001064 0.000000 0.004143
0.011631 0.000000 0.003831
0.028380 0.000000 0.003525
0.050814 0.000000 0.003226
0.078435 0.000000 0.002934
0.110745 0.000000 0.002649
0.147246 0.000000 0.002371
0.187440 0.000000 0.002100
0.230829 0.000000 0.001836
0.276915 0.000000 0.001579
0.325201 0.000000 0.001329
0.375188 0.000000 0.001086
0.426378 0.000000 0.000851
0.478274 0.000000 0.000622
0.530378 0.000000 0.000401
0.582191 0.000000 0.000187
0.633216 0.000000 0.000000
0.682954 0.000000 0.000000
0.730909 0.000000 0.000000
0.776582 0.000000 0.000000
0.819474 0.000000 0.000000
0.859089 0.000000 0.000000
0.894928 0.000000 0.000000
0.926493 0.000000 0.000000
0.953287 0.000000 0.000000
0.974810 0.000000 0.000000
0.990567 0.000000 0.000000
1.000000 0.000000 0.000000
0.000000 0.005489 0.004670
0.000000 0.005275 0.004346
0.000000 0.005064 0.004029
0.000000 0.004856 0.003718
0.000000 0.004650 0.003415
0.002130 0.004447 0.003119
0.013574 0.004246 0.002829
0.031133 0.004048 0.002547
0.054308 0.003853 0.002271
0.082602 0.003661 0.002003
0.115516 0.003471 0.001742
0.152553 0.003284 0.001487
0.193215 0.003100 0.001240
0.237004 0.002919 0.001000
0.283421 0.002740 0.000767
0.331970 0.002564 0.000541
0.382151 0.002391 0.000322
0.433468 0.002220 0.000111
0.485422 0.002053 0.000000
0.537515 0.001888 0.000000
0.589250 0.001725 0.000000
0.640127 0.001566 0.000000
0.689651 0.001409 0.000000
0.737322 0.001255 0.000000
0.782642 0.001104 0.000000
0.825115 0.000956 0.000000
0.864241 0.000810 0.000000
0.899523 0.000667 0.000000
0.930463 0.000527 0.000000
0.956563 0.000390 0.000000
0.977325 0.000255 0.000000
0.992251 0.000124 0.000000
1.000000 0.000000 0.000000
0.000000 0.017382 0.003607
0.000000 0.017055 0.003306
0.000000 0.016731 0.003012
0.000000 0.016409 0.002726
0.000000 0.016090 0.002446
0.003320 0.015773 0.002173
0.015633 0.015459 0.001907
0.033991 0.015147 0.001648
0.057898 0.014838 0.001396
0.086856 0.014531 0.001152
0.120365 0.014227 0.000914
0.157929 0.013925 0.000684
0.199049 0.013626 0.000461
0.243228 0.013329 0.000244
0.289967 0.013035 0.000036
0.338769 0.012744 0.000000
0.389136 0.012455 0.000000
0.440570 0.012168 0.000000
0.492572 0.011885 0.000000
0.544646 0.011603 0.000000
0.596292 0.011325 0.000000
0.647014 0.011048 0.000000
0.696312 0.010775 0.000000
0.743690 0.010504 0.000000
0.788650 0.010236 0.000000
0.830692 0.009970 0.000000
0.869321 0.009707 0.000000
0.904036 0.009446 0.000000
0.934342 0.009188 0.000000
0.959739 0.008933 0.000000
0.979729 0.008680 0.000000
0.993816 0.008430 0.000000
1.000000 0.008183 0.000000
0.000000 0.034026 0.002623
0.000000 0.033595 0.002345
0.000000 0.033165 0.002075
0.000000 0.032738 0.001812
0.000000 0.032314 0.001556
0.004633 0.031891 0.001307
0.017805 0.031471 0.001064
0.036954 0.031053 0.000830
0.061584 0.030638 0.000602
0.091195 0.030225 0.000381
0.125290 0.029814 0.000168
0.163371 0.029406 0.000000
0.204941 0.029000 0.000000
0.249500 0.028596 0.000000
0.296552 0.028195 0.000000
0.345599 0.027796 0.000000
0.396141 0.027399 0.000000
0.447682 0.027005 0.000000
0.499724 0.026613 0.000000
0.551768 0.026224 0.000000
0.603317 0.025837 0.000000
0.653873 0.025452 0.000000
0.702938 0.025070 0.000000
0.750013 0.024690 0.000000
0.794602 0.024312 0.000000
0.836206 0.023937 0.000000
0.874327 0.023565 0.000000
0.908467 0.023195 0.000000
0.938128 0.022827 0.000000
0.962813 0.022461 0.000000
0.982023 0.022098 0.000000
0.995260 0.021738 0.000000
1.000000 0.021380 0.000000
0.000000 0.055071 0.001718
0.000000 0.054543 0.001464
0.000000 0.054016 0.001218
0.000000 0.053492 0.000978
0.000000 0.052970 0.000746
0.006068 0.052450 0.000521
0.020090 0.051932 0.000303
0.040021 0.051416 0.000092
0.065363 0.050903 0.000000
0.095619 0.050392 0.000000
0.130290 0.049882 0.000000
0.168880 0.049375 0.000000
0.210889 0.048870 0.000000
0.255820 0.048368 0.000000
0.303175 0.047867 0.000000
0.352456 0.047369 0.000000
0.403165 0.046873 0.000000
0.454804 0.046379 0.000000
0.506876 0.045887 0.000000
0.558882 0.045397 0.000000
0.610324 0.044910 0.000000
0.660705 0.044425 0.000000
0.709526 0.043942 0.000000
0.756290 0.043461 0.000000
0.800498 0.042983 0.000000
0.841653 0.042506 0.000000
0.879258 0.042032 0.000000
0.912813 0.041560 0.000000
0.941821 0.041091 0.000000
0.965784 0.040623 0.000000
0.984204 0.040158 0.000000
0.996583 0.039695 0.000000
1.000000 0.039235 0.000000
0.000000 0.080164 0.000893
0.000000 0.079547 0.000663
0.000000 0.078931 0.000440
0.000000 0.078318 0.000225
0.000000 0.077707 0.000017
0.007624 0.077097 0.000000
0.022486 0.076490 0.000000
0.043189 0.075884 0.000000
0.069235 0.075281 0.000000
0.100126 0.074679 0.000000
0.135364 0.074079 0.000000
0.174452 0.073482 0.000000
0.216892 0.072886 0.000000
0.262185 0.072292 0.000000
0.309834 0.071701 0.000000
0.359340 0.071111 0.000000
0.410206 0.070523 0.000000
0.461934 0.069938 0.000000
0.514026 0.069354 0.000000
0.565984 0.068772 0.000000
0.617310 0.068193 0.000000
0.667507 0.067615 0.000000
0.716075 0.067039 0.000000
0.762518 0.066466 0.000000
0.806337 0.065894 0.000000
0.847034 0.065325 0.000000
0.884112 0.064757 0.000000
0.917073 0.064192 0.000000
0.945418 0.063629 0.000000
0.968650 0.063067 0.000000
0.986271 0.062508 0.000000
0.997783 0.061951 0.000000
1.000000 0.061396 0.000000
0.000000 0.108954 0.000148
0.000000 0.108256 0.000000
0.000000 0.107559 0.000000
0.000000 0.106865 0.000000
0.000000 0.106172 0.000000
0.009299 0.105481 0.000000
0.024992 0.104792 0.000000
0.046457 0.104105 0.000000
0.073197 0.103419 0.000000
0.104715 0.102736 0.000000
0.140511 0.102054 0.000000
0.180088 0.101373 0.000000
0.222949 0.100695 0.000000
0.268594 0.100018 0.000000
0.316528 0.099344 0.000000
0.366250 0.098671 0.000000
0.417264 0.097999 0.000000
0.469071 0.097330 0.000000
0.521174 0.096663 0.000000
0.573075 0.095997 0.000000
0.624276 0.095333 0.000000
0.674278 0.094671 0.000000
0.722584 0.094011 0.000000
0.768696 0.093353 0.000000
0.812117 0.092696 0.000000
0.852347 0.092041 0.000000
0.888890 0.091389 0.000000
0.921246 0.090738 0.000000
0.948920 0.090089 0.000000
0.971411 0.089442 0.000000
0.988223 0.088796 0.000000
0.998858 0.088153 0.000000
1.000000 0.087511 0.000000
0.000000 0.141088 0.000000
0.000000 0.140317 0.000000
0.000000 0.139548 0.000000
0.000000 0.138781 0.000000
0.000781 0.138015 0.000000
0.011092 0.137251 0.000000
0.027606 0.136488 0.000000
0.049825 0.135727 0.000000
0.077250 0.134967 0.000000
0.109384 0.134209 0.000000
0.145728 0.133453 0.000000
0.185786 0.132698 0.000000
0.229058 0.131945 0.000000
0.275047 0.131194 0.000000
0.323255 0.130444 0.000000
0.373184 0.129696 0.000000
0.424336 0.128949 0.000000
0.476214 0.128204 0.000000
0.528319 0.127461 0.000000
0.580153 0.126719 0.000000
0.631218 0.125979 0.000000
0.681017 0.125241 0.000000
0.729052 0.124504 0.000000
0.774824 0.123769 0.000000
0.817837 0.123036 0.000000
0.857590 0.122304 0.000000
0.893588 0.121574 0.000000
0.925332 0.120846 0.000000
0.952323 0.120119 0.000000
0.974065 0.119394 0.000000
0.990059 0.118671 0.000000
0.999807 0.117949 0.000000
1.000000 0.117229 0.000000
0.000000 0.176216 0.000000
0.000000 0.175380 0.000000
0.000000 0.174546 0.000000
0.000000 0.173714 0.000000
0.001810 0.172883 0.000000
0.013002 0.172053 0.000000
0.030328 0.171225 0.000000
0.053291 0.170398 0.000000
0.081392 0.169573 0.000000
0.114133 0.168749 0.000000
0.151016 0.167926 0.000000
0.191544 0.167105 0.000000
0.235218 0.166285 0.000000
0.281541 0.165467 0.000000
0.330015 0.164650 0.000000
0.380141 0.163835 0.000000
0.431423 0.163021 0.000000
0.483361 0.162208 0.000000
0.535458 0.161397 0.000000
0.587216 0.160588 0.000000
0.638137 0.159780 0.000000
0.687724 0.158973 0.000000
0.735477 0.158168 0.000000
0.780901 0.157364 0.000000
0.823495 0.156562 0.000000
0.862763 0.155761 0.000000
0.898206 0.154962 0.000000
0.929328 0.154164 0.000000
0.955628 0.153368 0.000000
0.976611 0.152573 0.000000
0.991778 0.151780 0.000000
1.000000 0.150988 0.000000
1.000000 0.150198 0.000000
0.000000 0.213984 0.000000
0.000000 0.213093 0.000000
0.000000 0.212202 0.000000
0.000000 0.211313 0.000000
0.002964 0.210425 0.000000
0.015027 0.209538 0.000000
0.033157 0.208652 0.000000
0.056853 0.207767 0.000000
0.085620 0.206884 0.000000
0.118959 0.206002 0.000000
0.156372 0.205121 0.000000
0.197361 0.204242 0.000000
0.241428 0.203364 0.000000
0.288076 0.202486 0.000000
0.336806 0.201611 0.000000
0.387120 0.200736 0.000000
0.438521 0.199863 0.000000
0.490511 0.198991 0.000000
0.542591 0.198120 0.000000
0.594263 0.197251 0.000000
0.645031 0.196383 0.000000
0.694395 0.195516 0.000000
0.741859 0.194650 0.000000
0.786923 0.193786 0.000000
0.829091 0.192923 0.000000
0.867864 0.192061 0.000000
0.902744 0.191201 0.000000
0.933233 0.190342 0.000000
0.958833 0.189484 0.000000
0.979047 0.188627 0.000000
0.993377 0.187772 0.000000
1.000000 0.186919 0.000000
1.000000 0.186066 0.000000
0.000000 0.254043 0.000000
0.000000 0.253103 0.000000
0.000000 0.252163 0.000000
0.000000 0.251225 0.000000
0.004242 0.250288 0.000000
0.017167 0.249352 0.000000
0.036090 0.248417 0.000000
0.060512 0.247483 0.000000
0.089935 0.246549 0.000000
0.123862 0.245617 0.000000
0.161796 0.244687 0.000000
0.203236 0.243757 0.000000
0.247687 0.242828 0.000000
0.294650 0.241900 0.000000
0.343627 0.240973 0.000000
0.394120 0.240048 0.000000
0.445631 0.239123 0.000000
0.497662 0.238200 0.000000
0.549716 0.237278 0.000000
0.601294 0.236356 0.000000
0.651898 0.235436 0.000000
0.701031 0.234517 0.000000
0.748195 0.233599 0.000000
0.792892 0.232682 0.000000
0.834623 0.231767 0.000000
0.872891 0.230852 0.000000
0.907198 0.229938 0.000000
0.937046 0.229026 0.000000
0.961937 0.228115 0.000000
0.981373 0.227205 0.000000
0.994856 0.226296 0.000000
1.000000 0.225388 0.000000
1.000000 0.224481 0.000000
0.000000 0.296039 0.000000
0.000000 0.295058 0.000000
0.000000 0.294078 0.000000
0.000000 0.293099 0.000000
0.005642 0.292121 0.000000
0.019419 0.291144 0.000000
0.039126 0.290167 0.000000
0.064264 0.289192 0.000000
0.094335 0.288217 0.000000
0.128841 0.287243 0.000000
0.167285 0.286270 0.000000
0.209168 0.285298 0.000000
0.253993 0.284327 0.000000
0.301262 0.283356 0.000000
0.350476 0.282387 0.000000
0.401138 0.281418 0.000000
0.452750 0.280451 0.000000
0.504814 0.279484 0.000000
0.556832 0.278518 0.000000
0.608306 0.277553 0.000000
0.658738 0.276589 0.000000
0.707630 0.275625 0.000000
0.754485 0.274663 0.000000
0.798804 0.273702 0.000000
0.840090 0.272741 0.000000
0.877844 0.271782 0.000000
0.911568 0.270823 0.000000
0.940766 0.269866 0.000000
0.964938 0.268909 0.000000
0.983587 0.267954 0.000000
0.996214 0.266999 0.000000
1.000000 0.266045 0.000000
1.000000 0.265092 0.000000
0.000000 0.339621 0.000000
0.000000 0.338608 0.000000
0.000000 0.337596 0.000000
0.000000 0.336584 0.000000
0.007163 0.335573 0.000000
0.021784 0.334563 0.000000
0.042265 0.333553 0.000000
0.068109 0.332544 0.000000
0.098818 0.331535 0.000000
0.133894 0.330527 0.000000
0.172839 0.329520 0.000000
0.215156 0.328514 0.000000
0.260345 0.327508 0.000000
0.307910 0.326503 0.000000
0.357353 0.325499 0.000000
0.408175 0.324496 0.000000
0.459878 0.323493 0.000000
0.511965 0.322490 0.000000
0.563938 0.321489 0.000000
0.615298 0.320488 0.000000
0.665549 0.319488 0.000000
0.714191 0.318489 0.000000
0.760727 0.317491 0.000000
0.804659 0.316493 0.000000
0.845490 0.315496 0.000000
0.882721 0.314499 0.000000
0.915853 0.313504 0.000000
0.944391 0.312509 0.000000
0.967834 0.311515 0.000000
0.985687 0.310522 0.000000
0.997449 0.309529 0.000000
1.000000 0.308538 0.000000
1.000000 0.307547 0.000000
0.000000 0.384438 0.000000
0.000000 0.383401 0.000000
0.000000 0.382364 0.000000
0.000000 0.381327 0.000000
0.008804 0.380291 0.000000
0.024258 0.379256 0.000000
0.045504 0.378221 0.000000
0.072046 0.377186 0.000000
0.103383 0.376152 0.000000
0.139020 0.375119 0.000000
0.178457 0.374086 0.000000
0.221197 0.373053 0.000000
0.266742 0.372021 0.000000
0.314594 0.370989 0.000000
0.364255 0.369958 0.000000
0.415228 0.368928 0.000000
0.467013 0.367898 0.000000
0.519114 0.366869 0.000000
0.571032 0.365840 0.000000
0.622270 0.364811 0.000000
0.672329 0.363783 0.000000
0.720712 0.362756 0.000000
0.766920 0.361729 0.000000
0.810456 0.360703 0.000000
0.850822 0.359678 0.000000
0.887520 0.358653 0.000000
0.920052 0.357628 0.000000
0.947920 0.356604 0.000000
0.970626 0.355581 0.000000
0.987672 0.354558 0.000000
0.998561 0.353536 0.000000
1.000000 0.352515 0.000000
1.000000 0.352268 0.000000
0.000000 0.430138 0.000000
0.000000 0.429084 0.000000
0.000000 0.428030 0.000000
0.000507 0.426977 0.000000
0.010563 0.425924 0.000000
0.026841 0.424872 0.000000
0.048844 0.423820 0.000000
0.076073 0.422768 0.000000
0.108030 0.421716 0.000000
0.144217 0.420665 0.000000
0.184137 0.419614 0.000000
0.227291 0.418563 0.000000
0.273182 0.417513 0.000000
0.321312 0.416463 0.000000
0.371183 0.415413 0.000000
0.422296 0.414364 0.000000
0.474154 0.413315 0.000000
0.526259 0.412266 0.000000
0.578114 0.411218 0.000000
0.629219 0.410170 0.000000
0.679078 0.409122 0.000000
0.727192 0.408075 0.000000
0.773063 0.407028 0.000000
0.816194 0.405982 0.000000
0.856086 0.404936 0.000000
0.892242 0.403890 0.000000
0.924163 0.402844 0.000000
0.951352 0.401799 0.000000
0.973311 0.400755 0.000000
0.989542 0.401111 0.000000
0.999547 0.401738 0.000000
1.000000 0.402365 0.000000
1.000000 0.402992 0.000000
0.000000 0.476368 0.000000
0.000000 0.475306 0.000000
0.000000 0.474244 0.000000
0.001500 0.473182 0.000000
0.012440 0.472121 0.000000
0.029533 0.471059 0.000000
0.052282 0.469998 0.000000
0.080189 0.468937 0.000000
0.112755 0.467875 0.000000
0.149484 0.466814 0.000000
0.189878 0.465754 0.000000
0.233437 0.464693 0.000000
0.279665 0.463632 0.000000
0.328063 0.462572 0.000000
0.378133 0.461511 0.000000
0.429378 0.460451 0.000000
0.481300 0.459391 0.000000
0.533400 0.458332 0.000000
0.585181 0.457272 0.000000
0.636145 0.456212 0.000000
0.685794 0.455153 0.000000
0.733629 0.454094 0.000000
0.779154 0.453035 0.000000
0.821870 0.451976 0.000000
0.861279 0.450918 0.000000
0.896883 0.450202 0.000000
0.928185 0.450837 0.000000
0.954686 0.451472 0.000000
0.975888 0.452107 0.000000
0.991294 0.452742 0.000000
1.000000 0.453378 0.000000
1.000000 0.454013 0.000000
1.000000 0.454648 0.000000
0.000000 0.522777 0.000000
0.000000 0.521715 0.000000
0.000000 0.520653 0.000000
0.002619 0.519591 0.000000
0.014432 0.518528 0.000000
0.032330 0.517466 0.000000
0.055816 0.516403 0.000000
0.084392 0.515341 0.000000
0.117560 0.514278 0.000000
0.154821 0.513216 0.000000
0.195678 0.512153 0.000000
0.239633 0.511090 0.000000
0.286188 0.510027 0.000000
0.334845 0.508965 0.000000
0.385106 0.507902 0.000000
0.436473 0.506839 0.000000
0.488449 0.505776 0.000000
0.540535 0.504713 0.000000
0.592233 0.503650 0.000000
0.643046 0.502587 0.000000
0.692476 0.501524 0.000000
0.740024 0.500461 0.000000
0.785192 0.500361 0.000000
0.827484 0.500999 0.000000
0.866400 0.501637 0.000000
0.901444 0.502275 0.000000
0.932116 0.502912 0.000000
0.957920 0.503550 0.000000
0.978356 0.504188 0.000000
0.992928 0.504826 0.000000
1.000000 0.505464 0.000000
1.000000 0.506101 0.000000
1.000000 0.506739 0.000000
0.000000 0.569014 0.000000
0.000000 0.567960 0.000000
0.000000 0.566905 0.000000
0.003861 0.565850 0.000000
0.016539 0.564795 0.000000
0.035233 0.563740 0.000000
0.059447 0.562685 0.000000
0.088682 0.561629 0.000000
0.122441 0.560573 0.000000
0.160225 0.559517 0.000000
0.201537 0.558460 0.000000
0.245878 0.557404 0.000000
0.292751 0.556347 0.000000
0.341657 0.555289 0.000000
0.392100 0.554232 0.000000
0.443580 0.553174 0.000000
0.495600 0.552117 0.000000
0.547662 0.551059 0.000000
0.599269 0.550000 0.000000
0.649921 0.550518 0.000000
0.699122 0.551152 0.000000
0.746373 0.551787 0.000000
0.791177 0.552422 0.000000
0.833035 0.553057 0.000000
0.871449 0.553691 0.000000
0.905922 0.554326 0.000000
0.935956 0.554960 0.000000
0.961053 0.555595 0.000000
0.980714 0.556229 0.000000
0.994442 0.556863 0.000000
1.000000 0.557497 0.000000
1.000000 0.558131 0.000000
1.000000 0.558765 0.000000
0.000000 0.614726 0.000000
0.000000 0.613688 0.000000
0.000000 0.612649 0.000000
0.005226 0.611610 0.000000
0.018759 0.610570 0.000000
0.038240 0.609530 0.000000
0.063172 0.608490 0.000000
0.093058 0.607449 0.000000
0.127398 0.606408 0.000000
0.165696 0.605366 0.000000
0.207452 0.604324 0.000000
0.252170 0.603281 0.000000
0.299352 0.602238 0.000000
0.348498 0.601195 0.000000
0.399113 0.600151 0.000000
0.450697 0.599599 0.000000
0.502752 0.600225 0.000000
0.554781 0.600851 0.000000
0.606286 0.601478 0.000000
0.656769 0.602104 0.000000
0.705732 0.602729 0.000000
0.752676 0.603355 0.000000
0.797105 0.603981 0.000000
0.838520 0.604606 0.000000
0.876423 0.605232 0.000000
0.910317 0.605857 0.000000
0.939703 0.606482 0.000000
0.964083 0.607107 0.000000
0.982960 0.607731 0.000000
0.995835 0.608356 0.000000
1.000000 0.608980 0.000000
1.000000 0.609604 0.000000
1.000000 0.610228 0.000000
0.000000 0.659562 0.000000
0.000000 0.658548 0.000000
0.000000 0.657533 0.000000
0.006712 0.656518 0.000000
0.021091 0.655501 0.000000
0.041349 0.654485 0.000000
0.066991 0.653467 0.000000
0.097517 0.652449 0.000000
0.132430 0.651431 0.000000
0.171231 0.650411 0.000000
0.213424 0.649392 0.000000
0.258509 0.648371 0.000000
0.305990 0.648426 0.000000
0.355367 0.649038 0.000000
0.406144 0.649650 0.000000
0.457822 0.650262 0.000000
0.509903 0.650874 0.000000
0.561890 0.651485 0.000000
0.613284 0.652096 0.000000
0.663588 0.652708 0.000000
0.712303 0.653318 0.000000
0.758932 0.653929 0.000000
0.802977 0.654539 0.000000
0.843940 0.655149 0.000000
0.881322 0.655759 0.000000
0.914627 0.656369 0.000000
0.943355 0.656978 0.000000
0.967010 0.657588 0.000000
0.985093 0.658197 0.000000
0.997106 0.658805 0.000000
1.000000 0.659414 0.000000
1.000000 0.660022 0.000000
1.000000 0.660630 0.000000
0.000000 0.703171 0.000000
0.000000 0.702188 0.000000
0.000000 0.701205 0.000000
0.008319 0.700222 0.000000
0.023533 0.699237 0.000000
0.044560 0.698251 0.000000
0.070901 0.697265 0.000000
0.102059 0.696278 0.000000
0.137535 0.695326 0.000000
0.176831 0.695919 0.000000
0.219450 0.696511 0.000000
0.264893 0.697103 0.000000
0.312664 0.697695 0.000000
0.362263 0.698287 0.000000
0.413192 0.698878 0.000000
0.464955 0.699469 0.000000
0.517053 0.700060 0.000000
0.568988 0.700651 0.000000
0.620262 0.701241 0.000000
0.670377 0.701831 0.000000
0.718836 0.702420 0.000000
0.765140 0.703010 0.000000
0.808791 0.703599 0.000000
0.849292 0.704187 0.000000
0.886144 0.704776 0.000000
0.918851 0.705364 0.000000
0.946912 0.705952 0.000000
0.969832 0.706539 0.000000
0.987112 0.707126 0.000000
0.998253 0.707713 0.000000
1.000000 0.708300 0.000000
1.000000 0.708886 0.000000
1.000000 0.709472 0.000000
0.000000 0.745199 0.000000
0.000000 0.744257 0.000000
0.000244 0.743314 0.000000
0.010044 0.742370 0.000000
0.026085 0.741425 0.000000
0.047871 0.741064 0.000000
0.074902 0.741632 0.000000
0.106682 0.742199 0.000000
0.142711 0.742765 0.000000
0.182493 0.743332 0.000000
0.225529 0.743898 0.000000
0.271321 0.744463 0.000000
0.319372 0.745029 0.000000
0.369183 0.745593 0.000000
0.420256 0.746158 0.000000
0.472095 0.746722 0.000000
0.524200 0.747286 0.000000
0.576073 0.747849 0.000000
0.627218 0.748412 0.000000
0.677135 0.748975 0.000000
0.725328 0.749537 0.000000
0.771297 0.750099 0.000000
0.814546 0.750661 0.000000
0.854576 0.751222 0.000000
0.890889 0.751783 0.000000
0.922987 0.752343 0.000000
0.950373 0.752903 0.000000
0.972548 0.753463 0.000000
0.989015 0.754022 0.000000
0.999275 0.754581 0.000000
1.000000 0.755140 0.000000
1.000000 0.755698 0.000000
1.000000 0.756256 0.000000
0.000000 0.785297 0.000000
0.000000 0.784403 0.000000
0.001201 0.784583 0.000000
0.011887 0.785119 0.000000
0.028746 0.785655 0.000000
0.051280 0.786190 0.000000
0.078993 0.786725 0.000000
0.111385 0.787260 0.000000
0.147959 0.787794 0.000000
0.188216 0.788328 0.000000
0.231660 0.788861 0.000000
0.277791 0.789394 0.000000
0.326113 0.789927 0.000000
0.376127 0.790459 0.000000
0.427335 0.790990 0.000000
0.479239 0.791521 0.000000
0.531342 0.792052 0.000000
0.583145 0.792582 0.000000
0.634151 0.793112 0.000000
0.683861 0.793642 0.000000
0.731778 0.794170 0.000000
0.777403 0.794699 0.000000
0.820240 0.795227 0.000000
0.859789 0.795755 0.000000
0.895553 0.796282 0.000000
0.927035 0.796808 0.000000
0.953735 0.797335 0.000000
0.975156 0.797860 0.000000
0.990801 0.798386 0.000000
1.000000 0.798911 0.000000
1.000000 0.799435 0.000000
1.000000 0.799959 0.000000
1.000000 0.800482 0.000000
0.000000 0.825935 0.000000
0.000000 0.826434 0.000000
0.002283 0.826933 0.000000
0.013846 0.827431 0.000000
0.031513 0.827929 0.000000
0.054787 0.828426 0.000000
0.083171 0.828922 0.000000
0.116167 0.829419 0.000000
0.153275 0.829914 0.000000
0.194000 0.830409 0.000000
0.237841 0.830904 0.000000
0.284303 0.831398 0.000000
0.332886 0.831892 0.000000
0.383093 0.832385 0.000000
0.434426 0.832877 0.000000
0.486387 0.833369 0.000000
0.538479 0.833861 0.000000
0.590202 0.834352 0.000000
0.641059 0.834842 0.000000
0.690553 0.835332 0.000000
0.738185 0.835821 0.000000
0.783457 0.836310 0.000000
0.825872 0.836799 0.000000
0.864931 0.837287 0.000000
0.900137 0.837774 0.000000
0.930992 0.838261 0.000000
0.956998 0.838747 0.000000
0.977656 0.839233 0.000000
0.992469 0.839718 0.000000
1.000000 0.840203 0.000000
1.000000 0.840687 0.000000
1.000000 0.841171 0.000000
1.000000 0.841654 0.000000
0.000000 0.865003 0.000000
0.000000 0.865458 0.000000
0.003490 0.865912 0.000000
0.015919 0.866366 0.000000
0.034386 0.866819 0.000000
0.058391 0.867272 0.000000
0.087437 0.867724 0.000000
0.121026 0.868176 0.000000
0.158660 0.868627 0.000000
0.199842 0.869077 0.000000
0.244072 0.869527 0.000000
0.290855 0.869976 0.000000
0.339690 0.870424 0.000000
0.390081 0.870872 0.000000
0.441530 0.871320 0.000000
0.493538 0.871767 0.000000
0.545608 0.872213 0.000000
0.597242 0.872658 0.000000
0.647942 0.873103 0.000000
0.697209 0.873548 0.000000
0.744547 0.873992 0.000000
0.789457 0.874435 0.000000
0.831441 0.874878 0.000000
0.870001 0.875320 0.000000
0.904640 0.875761 0.000000
0.934858 0.876202 0.000000
0.960160 0.876642 0.000000
0.980046 0.877082 0.000000
0.994018 0.877521 0.000000
1.000000 0.877959 0.000000
1.000000 0.878397 0.000000
1.000000 0.878835 0.000000
1.000000 0.879271 0.000000
0.000000 0.900214 0.000000
0.000000 0.900618 0.000000
0.004820 0.901022 0.000000
0.018107 0.901426 0.000000
0.037363 0.901829 0.000000
0.062089 0.902231 0.000000
0.091788 0.902632 0.000000
0.125961 0.903033 0.000000
0.164112 0.903433 0.000000
0.205741 0.903832 0.000000
0.250351 0.904231 0.000000
0.297445 0.904629 0.000000
0.346523 0.905027 0.000000
0.397089 0.905424 0.000000
0.448644 0.905820 0.000000
0.500690 0.906215 0.000000
0.552730 0.906610 0.000000
0.604265 0.907004 0.000000
0.654798 0.907398 0.000000
0.703830 0.907791 0.000000
0.750864 0.908183 0.000000
0.795402 0.908574 0.000000
0.836945 0.908965 0.000000
0.874997 0.909355 0.000000
0.909059 0.909745 0.000000
0.938632 0.910134 0.000000
0.963220 0.910522 0.000000
0.982324 0.910909 0.000000
0.995446 0.911296 0.000000
1.000000 0.911682 0.000000
1.000000 0.912068 0.000000
1.000000 0.912452 0.000000
1.000000 0.912836 0.000000
0.000000 0.931068 0.000000
0.000000 0.931417 0.000000
0.006271 0.931764 0.000000
0.020407 0.932111 0.000000
0.040442 0.932458 0.000000
0.065880 0.932803 0.000000
0.096223 0.933148 0.000000
0.130971 0.933492 0.000000
0.169629 0.933835 0.000000
0.211697 0.934177 0.000000
0.256677 0.934519 0.000000
0.304072 0.934860 0.000000
0.353384 0.935201 0.000000
0.404115 0.935540 0.000000
0.455767 0.935879 0.000000
0.507842 0.936217 0.000000
0.559842 0.936554 0.000000
0.611269 0.936891 0.000000
0.661625 0.937227 0.000000
0.710413 0.937562 0.000000
0.757134 0.937896 0.000000
0.801290 0.938230 0.000000
0.842384 0.938563 0.000000
0.879918 0.938895 0.000000
0.913393 0.939226 0.000000
0.942312 0.939557 0.000000
0.966177 0.939887 0.000000
