data/luts/vintage_film.cube
TITLE "Vintage Film"
LUT_3D_SIZE 9
DOMAIN_MIN 0.0 0.0 0.0
DOMAIN_MAX 1.0 1.0 1.0
0.106400 0.070000 0.060000
0.196955 0.075502 0.064467
0.287510 0.081005 0.068935
0.378065 0.086507 0.073402
0.468621 0.092009 0.077869
0.559176 0.097512 0.082336
0.649731 0.103014 0.086804
0.740286 0.108516 0.091271
0.830841 0.114019 0.095738
0.126560 0.166154 0.075028
0.217115 0.171656 0.079495
0.307670 0.177159 0.083963
0.398225 0.182661 0.088430
0.488780 0.188163 0.092897
0.579336 0.193666 0.097364
0.669891 0.199168 0.101832
0.760446 0.204670 0.106299
0.851001 0.210173 0.110766
0.146719 0.262308 0.090056
0.237275 0.267810 0.094524
0.327830 0.273313 0.098991
0.418385 0.278815 0.103458
0.508940 0.284317 0.107925
0.599495 0.289820 0.112393
0.690050 0.295322 0.116860
0.780606 0.300825 0.121327
0.871161 0.306327 0.125794
0.166879 0.358462 0.105084
0.257434 0.363964 0.109552
0.347989 0.369467 0.114019
0.438545 0.374969 0.118486
0.529100 0.380471 0.122953
0.619655 0.385974 0.127421
0.710210 0.391476 0.131888
0.800765 0.396979 0.136355
0.891320 0.402481 0.140822
0.187039 0.454616 0.120113
0.277594 0.460118 0.124580
0.368149 0.465621 0.129047
0.458704 0.471123 0.133514
0.549259 0.476625 0.137982
0.639815 0.482128 0.142449
0.730370 0.487630 0.146916
0.820925 0.493133 0.151383
0.910000 0.498635 0.155851
0.207198 0.550770 0.135141
0.297754 0.556272 0.139608
0.388309 0.561775 0.144075
0.478864 0.567277 0.148542
0.569419 0.572780 0.153010
0.659974 0.578282 0.157477
0.750529 0.583784 0.161944
0.841085 0.589287 0.166412
0.910000 0.594789 0.170879
0.227358 0.646924 0.150169
0.317913 0.652426 0.154636
0.408469 0.657929 0.159103
0.499024 0.663431 0.163571
0.589579 0.668934 0.168038
0.680134 0.674436 0.172505
0.770689 0.679938 0.176972
0.861244 0.685441 0.181440
0.910000 0.690943 0.185907
0.247518 0.743078 0.165197
0.338073 0.748580 0.169664
0.428628 0.754083 0.174131
0.519183 0.759585 0.178599
0.609739 0.765088 0.183066
0.700294 0.770590 0.187533
0.790849 0.776092 0.192001
0.881404 0.781595 0.196468
0.910000 0.787097 0.200935
0.267678 0.839232 0.180225
0.358233 0.844735 0.184692
0.448788 0.850237 0.189160
0.539343 0.855739 0.193627
0.629898 0.861242 0.198094
0.720453 0.866744 0.202561
0.811009 0.872246 0.207029
0.901564 0.877749 0.211496
0.910000 0.883251 0.215963
0.108435 0.071869 0.124555
0.198990 0.077371 0.129022
0.289545 0.082873 0.133489
0.380101 0.088376 0.137956
0.470656 0.093878 0.142424
0.561211 0.099380 0.146891
0.651766 0.104883 0.151358
0.742321 0.110385 0.155825
0.832876 0.115887 0.160293
0.128595 0.168023 0.139583
0.219150 0.173525 0.144050
0.309705 0.179027 0.148517
0.400260 0.184530 0.152985
0.490815 0.190032 0.157452
0.581371 0.195534 0.161919
0.671926 0.201037 0.166386
0.762481 0.206539 0.170854
0.853036 0.212041 0.175321
0.148755 0.264177 0.154611
0.239310 0.269679 0.159078
0.329865 0.275181 0.163545
0.420420 0.280684 0.168013
0.510975 0.286186 0.172480
0.601530 0.291688 0.176947
0.692086 0.297191 0.181414
0.782641 0.302693 0.185882
0.873196 0.308195 0.190349
0.168914 0.360331 0.169639
0.259469 0.365833 0.174106
0.350025 0.371335 0.178574
0.440580 0.376838 0.183041
0.531135 0.382340 0.187508
0.621690 0.387842 0.191975
0.712245 0.393345 0.196443
0.802800 0.398847 0.200910
0.893356 0.404350 0.205377
0.189074 0.456485 0.184667
0.279629 0.461987 0.189134
0.370184 0.467489 0.193602
0.460739 0.472992 0.198069
0.551295 0.478494 0.202536
0.641850 0.483996 0.207003
0.732405 0.489499 0.211471
0.822960 0.495001 0.215938
0.910000 0.500504 0.220405
0.209234 0.552639 0.199695
0.299789 0.558141 0.204163
0.390344 0.563643 0.208630
0.480899 0.569146 0.213097
0.571454 0.574648 0.217564
0.662009 0.580150 0.222032
0.752565 0.585653 0.226499
0.843120 0.591155 0.230966
0.910000 0.596658 0.235433
0.229393 0.648793 0.214723
0.319949 0.654295 0.219191
0.410504 0.659797 0.223658
0.501059 0.665300 0.228125
0.591614 0.670802 0.232592
0.682169 0.676305 0.237060
0.772724 0.681807 0.241527
0.863279 0.687309 0.245994
0.910000 0.692812 0.250462
0.249553 0.744947 0.229752
0.340108 0.750449 0.234219
0.430663 0.755951 0.238686
0.521219 0.761454 0.243153
0.611774 0.766956 0.247621
0.702329 0.772459 0.252088
0.792884 0.777961 0.256555
0.883439 0.783463 0.261022
0.910000 0.788966 0.265490
0.269713 0.841101 0.244780
0.360268 0.846603 0.249247
0.450823 0.852105 0.253714
0.541378 0.857608 0.258181
0.631933 0.863110 0.262649
0.722489 0.868613 0.267116
0.813044 0.874115 0.271583
0.903599 0.879617 0.276051
0.910000 0.885120 0.280518
0.110470 0.073737 0.189109
0.201025 0.079240 0.193576
0.291581 0.084742 0.198044
0.382136 0.090244 0.202511
0.472691 0.095747 0.206978
0.563246 0.101249 0.211445
0.653801 0.106751 0.215913
0.744356 0.112254 0.220380
0.834912 0.117756 0.224847
0.130630 0.169891 0.204137
0.221185 0.175394 0.208605
0.311740 0.180896 0.213072
0.402295 0.186398 0.217539
0.492851 0.191901 0.222006
0.583406 0.197403 0.226474
0.673961 0.202905 0.230941
0.764516 0.208408 0.235408
0.855071 0.213910 0.239875
0.150790 0.266045 0.219165
0.241345 0.271548 0.223633
0.331900 0.277050 0.228100
0.422455 0.282552 0.232567
0.513010 0.288055 0.237035
0.603565 0.293557 0.241502
0.694121 0.299059 0.245969
0.784676 0.304562 0.250436
0.875231 0.310064 0.254904
0.170949 0.362199 0.234194
0.261505 0.367702 0.238661
0.352060 0.373204 0.243128
0.442615 0.378706 0.247595
0.533170 0.384209 0.252063
0.623725 0.389711 0.256530
0.714280 0.395213 0.260997
0.804836 0.400716 0.265464
0.895391 0.406218 0.269932
0.191109 0.458353 0.249222
0.281664 0.463856 0.253689
0.372219 0.469358 0.258156
0.462775 0.474860 0.262624
0.553330 0.480363 0.267091
0.643885 0.485865 0.271558
0.734440 0.491367 0.276025
0.824995 0.496870 0.280493
0.910000 0.502372 0.284960
0.211269 0.554507 0.264250
0.301824 0.560010 0.268717
0.392379 0.565512 0.273184
0.482934 0.571014 0.277652
0.573489 0.576517 0.282119
0.664045 0.582019 0.286586
0.754600 0.587521 0.291053
0.845155 0.593024 0.295521
0.910000 0.598526 0.299988
0.231428 0.650661 0.279278
0.321984 0.656164 0.283745
0.412539 0.661666 0.288213
0.503094 0.667168 0.292680
0.593649 0.672671 0.297147
0.684204 0.678173 0.301614
0.774759 0.683675 0.306082
0.865315 0.689178 0.310549
0.910000 0.694680 0.315016
0.251588 0.746815 0.294306
0.342143 0.752318 0.298773
0.432698 0.757820 0.303241
0.523254 0.763322 0.307708
0.613809 0.768825 0.312175
0.704364 0.774327 0.316642
0.794919 0.779830 0.321110
0.885474 0.785332 0.325577
0.910000 0.790834 0.330044
0.271748 0.842969 0.309334
0.362303 0.848472 0.313802
0.452858 0.853974 0.318269
0.543413 0.859476 0.322736
0.633969 0.864979 0.327203
0.724524 0.870481 0.331671
0.815079 0.875984 0.336138
0.905634 0.881486 0.340605
0.910000 0.886988 0.345072
0.112505 0.075606 0.253664
0.203061 0.081108 0.258131
0.293616 0.086611 0.262598
0.384171 0.092113 0.267066
0.474726 0.097615 0.271533
0.565281 0.103118 0.276000
0.655836 0.108620 0.280467
0.746392 0.114122 0.284935
0.836947 0.119625 0.289402
0.132665 0.171760 0.268692
0.223220 0.177262 0.273159
0.313775 0.182765 0.277626
0.404331 0.188267 0.282094
0.494886 0.193769 0.286561
0.585441 0.199272 0.291028
0.675996 0.204774 0.295495
0.766551 0.210276 0.299963
0.857106 0.215779 0.304430
0.152825 0.267914 0.283720
0.243380 0.273416 0.288187
0.333935 0.278919 0.292655
0.424490 0.284421 0.297122
0.515045 0.289923 0.301589
0.605601 0.295426 0.306056
0.696156 0.300928 0.310524
0.786711 0.306430 0.314991
0.877266 0.311933 0.319458
0.172985 0.364068 0.298748
0.263540 0.369570 0.303215
0.354095 0.375073 0.307683
0.444650 0.380575 0.312150
0.535205 0.386077 0.316617
0.625760 0.391580 0.321085
0.716315 0.397082 0.325552
0.806871 0.402584 0.330019
0.897426 0.408087 0.334486
0.193144 0.460222 0.313776
0.283699 0.465724 0.318244
0.374255 0.471227 0.322711
0.464810 0.476729 0.327178
0.555365 0.482231 0.331645
0.645920 0.487734 0.336113
0.736475 0.493236 0.340580
0.827030 0.498738 0.345047
0.910000 0.504241 0.349514
0.213304 0.556376 0.328805
0.303859 0.561878 0.333272
0.394414 0.567381 0.337739
0.484969 0.572883 0.342206
0.575525 0.578385 0.346674
0.666080 0.583888 0.351141
0.756635 0.589390 0.355608
0.847190 0.594892 0.360075
0.910000 0.600395 0.364543
0.233464 0.652530 0.343833
0.324019 0.658032 0.348300
0.414574 0.663535 0.352767
0.505129 0.669037 0.357234
0.595684 0.674539 0.361702
0.686239 0.680042 0.366169
0.776795 0.685544 0.370636
0.867350 0.691046 0.375103
0.910000 0.696549 0.379571
0.253623 0.748684 0.358861
0.344178 0.754186 0.363328
0.434734 0.759689 0.367795
0.525289 0.765191 0.372263
0.615844 0.770693 0.376730
0.706399 0.776196 0.381197
0.796954 0.781698 0.385664
0.887509 0.787200 0.390132
0.910000 0.792703 0.394599
0.273783 0.844838 0.373889
0.364338 0.850340 0.378356
0.454893 0.855843 0.382823
0.545449 0.861345 0.387291
0.636004 0.866847 0.391758
0.726559 0.872350 0.396225
0.817114 0.877852 0.400692
0.907669 0.883355 0.405160
0.910000 0.888857 0.409627
0.114541 0.077475 0.318218
0.205096 0.082977 0.322686
0.295651 0.088479 0.327153
0.386206 0.093982 0.331620
0.476761 0.099484 0.336087
0.567316 0.104986 0.340555
0.657872 0.110489 0.345022
0.748427 0.115991 0.349489
0.838982 0.121493 0.353956
0.134700 0.173629 0.333247
0.225255 0.179131 0.337714
0.315811 0.184633 0.342181
0.406366 0.190136 0.346648
0.496921 0.195638 0.351116
0.587476 0.201140 0.355583
0.678031 0.206643 0.360050
0.768586 0.212145 0.364517
0.859142 0.217647 0.368985
0.154860 0.269783 0.348275
0.245415 0.275285 0.352742
0.335970 0.280787 0.357209
0.426525 0.286290 0.361676
0.517081 0.291792 0.366144
0.607636 0.297294 0.370611
0.698191 0.302797 0.375078
0.788746 0.308299 0.379545
0.879301 0.313801 0.384013
0.175020 0.365937 0.363303
0.265575 0.371439 0.367770
0.356130 0.376941 0.372237
0.446685 0.382444 0.376705
0.537240 0.387946 0.381172
0.627795 0.393448 0.385639
0.718351 0.398951 0.390106
0.808906 0.404453 0.394574
0.899461 0.409955 0.399041
0.195179 0.462091 0.378331
0.285735 0.467593 0.382798
0.376290 0.473095 0.387265
0.466845 0.478598 0.391733
0.557400 0.484100 0.396200
0.647955 0.489602 0.400667
0.738510 0.495105 0.405135
0.829065 0.500607 0.409602
0.910000 0.506109 0.414069
0.215339 0.558245 0.393359
0.305894 0.563747 0.397826
0.396449 0.569249 0.402294
0.487005 0.574752 0.406761
0.577560 0.580254 0.411228
0.668115 0.585756 0.415695
0.758670 0.591259 0.420163
0.849225 0.596761 0.424630
0.910000 0.602263 0.429097
0.235499 0.654399 0.408387
0.326054 0.659901 0.412855
0.416609 0.665403 0.417322
0.507164 0.670906 0.421789
0.597719 0.676408 0.426256
0.688275 0.681910 0.430724
0.778830 0.687413 0.435191
0.869385 0.692915 0.439658
0.910000 0.698417 0.444125
0.255658 0.750553 0.423415
0.346214 0.756055 0.427883
0.436769 0.761557 0.432350
0.527324 0.767060 0.436817
0.617879 0.772562 0.441284
0.708434 0.778064 0.445752
0.798989 0.783567 0.450219
0.889545 0.789069 0.454686
0.910000 0.794571 0.459153
0.275818 0.846707 0.438444
0.366373 0.852209 0.442911
0.456928 0.857711 0.447378
0.547484 0.863214 0.451845
0.638039 0.868716 0.456313
0.728594 0.874218 0.460780
0.819149 0.879721 0.465247
0.909704 0.885223 0.469714
0.910000 0.890725 0.474182
0.116576 0.079343 0.382773
0.207131 0.084845 0.387240
0.297686 0.090348 0.391708
0.388241 0.095850 0.396175
0.478796 0.101353 0.400642
0.569352 0.106855 0.405109
0.659907 0.112357 0.409577
0.750462 0.117860 0.414044
0.841017 0.123362 0.418511
0.136735 0.175497 0.397801
0.227291 0.181000 0.402268
0.317846 0.186502 0.406736
0.408401 0.192004 0.411203
0.498956 0.197507 0.415670
0.589511 0.203009 0.420137
0.680066 0.208511 0.424605
0.770622 0.214014 0.429072
0.861177 0.219516 0.433539
0.156895 0.271651 0.412829
0.247450 0.277154 0.417297
0.338005 0.282656 0.421764
0.428561 0.288158 0.426231
0.519116 0.293661 0.430698
0.609671 0.299163 0.435166
0.700226 0.304665 0.439633
0.790781 0.310168 0.444100
0.881336 0.315670 0.448567
0.177055 0.367805 0.427857
0.267610 0.373308 0.432325
0.358165 0.378810 0.436792
0.448720 0.384312 0.441259
0.539275 0.389815 0.445726
0.629831 0.395317 0.450194
0.720386 0.400819 0.454661
0.810941 0.406322 0.459128
0.901496 0.411824 0.463595
0.197214 0.463959 0.442886
0.287770 0.469462 0.447353
0.378325 0.474964 0.451820
0.468880 0.480466 0.456287
0.559435 0.485969 0.460755
0.649990 0.491471 0.465222
0.740545 0.496973 0.469689
0.831101 0.502476 0.474156
0.910000 0.507978 0.478624
0.217374 0.560113 0.457914
0.307929 0.565616 0.462381
0.398485 0.571118 0.466848
0.489040 0.576620 0.471315
0.579595 0.582123 0.475783
0.670150 0.587625 0.480250
0.760705 0.593127 0.484717
0.851260 0.598630 0.489185
0.910000 0.604132 0.493652
0.237534 0.656267 0.472942
0.328089 0.661770 0.477409
0.418644 0.667272 0.481876
0.509199 0.672774 0.486344
0.599755 0.678277 0.490811
0.690310 0.683779 0.495278
0.780865 0.689281 0.499745
0.871420 0.694784 0.504213
0.910000 0.700286 0.508680
0.257694 0.752421 0.487970
0.348249 0.757924 0.492437
0.438804 0.763426 0.496905
0.529359 0.768928 0.501372
0.619914 0.774431 0.505839
0.710469 0.779933 0.510306
0.801025 0.785435 0.514774
0.891580 0.790938 0.519241
0.910000 0.796440 0.523708
0.277853 0.848575 0.502998
0.368408 0.854078 0.507465
0.458964 0.859580 0.511933
0.549519 0.865082 0.516400
0.640074 0.870585 0.520867
0.730629 0.876087 0.525334
0.821184 0.881589 0.529802
0.910000 0.887092 0.534269
0.910000 0.892594 0.538736
0.118611 0.081212 0.447328
0.209166 0.086714 0.451795
0.299721 0.092216 0.456262
0.390276 0.097719 0.460729
0.480831 0.103221 0.465197
0.571387 0.108724 0.469664
0.661942 0.114226 0.474131
0.752497 0.119728 0.478598
0.843052 0.125231 0.483066
0.138771 0.177366 0.462356
0.229326 0.182868 0.466823
0.319881 0.188370 0.471290
0.410436 0.193873 0.475758
0.500991 0.199375 0.480225
0.591546 0.204878 0.484692
0.682101 0.210380 0.489159
0.772657 0.215882 0.493627
0.863212 0.221385 0.498094
0.158930 0.273520 0.477384
0.249485 0.279022 0.481851
0.340041 0.284525 0.486318
0.430596 0.290027 0.490786
0.521151 0.295529 0.495253
0.611706 0.301032 0.499720
0.702261 0.306534 0.504187
0.792816 0.312036 0.508655
0.883372 0.317539 0.513122
0.179090 0.369674 0.492412
0.269645 0.375176 0.496879
0.360200 0.380679 0.501347
0.450755 0.386181 0.505814
0.541311 0.391683 0.510281
0.631866 0.397186 0.514748
0.722421 0.402688 0.519216
0.812976 0.408190 0.523683
0.903531 0.413693 0.528150
0.199250 0.465828 0.507440
0.289805 0.471330 0.511907
0.380360 0.476833 0.516375
0.470915 0.482335 0.520842
0.561470 0.487837 0.525309
0.652025 0.493340 0.529776
0.742581 0.498842 0.534244
0.833136 0.504344 0.538711
0.910000 0.509847 0.543178
0.219409 0.561982 0.522468
0.309964 0.567484 0.526936
0.400520 0.572987 0.531403
0.491075 0.578489 0.535870
0.581630 0.583991 0.540337
0.672185 0.589494 0.544805
0.762740 0.594996 0.549272
0.853295 0.600498 0.553739
0.910000 0.606001 0.558206
0.239569 0.658136 0.537496
0.330124 0.663638 0.541964
0.420679 0.669141 0.546431
0.511235 0.674643 0.550898
0.601790 0.680145 0.555365
0.692345 0.685648 0.559833
0.782900 0.691150 0.564300
0.873455 0.696652 0.568767
0.910000 0.702155 0.573235
0.259729 0.754290 0.552525
0.350284 0.759792 0.556992
0.440839 0.765295 0.561459
0.531394 0.770797 0.565926
0.621949 0.776299 0.570394
0.712505 0.781802 0.574861
0.803060 0.787304 0.579328
0.893615 0.792806 0.583795
0.910000 0.798309 0.588263
0.279888 0.850444 0.567553
0.370444 0.855946 0.572020
0.460999 0.861449 0.576487
0.551554 0.866951 0.580955
0.642109 0.872453 0.585422
0.732664 0.877956 0.589889
0.823219 0.883458 0.594356
0.910000 0.888960 0.598824
0.910000 0.894463 0.603291
0.120646 0.083080 0.511882
0.211201 0.088583 0.516349
0.301756 0.094085 0.520817
0.392311 0.099587 0.525284
0.482867 0.105090 0.529751
0.573422 0.110592 0.534219
0.663977 0.116095 0.538686
0.754532 0.121597 0.543153
0.845087 0.127099 0.547620
0.140806 0.179234 0.526910
0.231361 0.184737 0.531378
0.321916 0.190239 0.535845
0.412471 0.195741 0.540312
0.503026 0.201244 0.544779
0.593581 0.206746 0.549247
0.684137 0.212249 0.553714
0.774692 0.217751 0.558181
0.865247 0.223253 0.562648
0.160965 0.275388 0.541938
0.251521 0.280891 0.546406
0.342076 0.286393 0.550873
0.432631 0.291895 0.555340
0.523186 0.297398 0.559808
0.613741 0.302900 0.564275
0.704296 0.308403 0.568742
0.794852 0.313905 0.573209
0.885407 0.319407 0.577677
0.181125 0.371542 0.556967
0.271680 0.377045 0.561434
0.362235 0.382547 0.565901
0.452791 0.388050 0.570368
0.543346 0.393552 0.574836
0.633901 0.399054 0.579303
0.724456 0.404557 0.583770
0.815011 0.410059 0.588237
0.905566 0.415561 0.592705
0.201285 0.467696 0.571995
0.291840 0.473199 0.576462
0.382395 0.478701 0.580929
0.472950 0.484204 0.585397
0.563505 0.489706 0.589864
0.654061 0.495208 0.594331
0.744616 0.500711 0.598798
0.835171 0.506213 0.603266
0.910000 0.511715 0.607733
0.221444 0.563850 0.587023
0.312000 0.569353 0.591490
0.402555 0.574855 0.595957
0.493110 0.580358 0.600425
0.583665 0.585860 0.604892
0.674220 0.591362 0.609359
0.764775 0.596865 0.613826
0.855331 0.602367 0.618294
0.910000 0.607869 0.622761
0.241604 0.660005 0.602051
0.332159 0.665507 0.606518
0.422714 0.671009 0.610986
0.513270 0.676512 0.615453
0.603825 0.682014 0.619920
0.694380 0.687516 0.624387
0.784935 0.693019 0.628855
0.875490 0.698521 0.633322
0.910000 0.704023 0.637789
0.261764 0.756159 0.617079
0.352319 0.761661 0.621546
0.442874 0.767163 0.626014
0.533429 0.772666 0.630481
0.623985 0.778168 0.634948
0.714540 0.783670 0.639415
0.805095 0.789173 0.643883
0.895650 0.794675 0.648350
0.910000 0.800177 0.652817
0.281924 0.852313 0.632107
0.372479 0.857815 0.636575
0.463034 0.863317 0.641042
0.553589 0.868820 0.645509
0.644144 0.874322 0.649976
0.734699 0.879824 0.654444
0.825255 0.885327 0.658911
0.910000 0.890829 0.663378
0.910000 0.896331 0.667845
0.122681 0.084949 0.576437
0.213236 0.090451 0.580904
0.303791 0.095954 0.585371
0.394347 0.101456 0.589839
0.484902 0.106958 0.594306
0.575457 0.112461 0.598773
0.666012 0.117963 0.603240
0.756567 0.123465 0.607708
0.847122 0.128968 0.612175
0.142841 0.181103 0.591465
0.233396 0.186605 0.595932
0.323951 0.192108 0.600399
0.414506 0.197610 0.604867
0.505061 0.203112 0.609334
0.595617 0.208615 0.613801
0.686172 0.214117 0.618269
0.776727 0.219620 0.622736
0.867282 0.225122 0.627203
0.163000 0.277257 0.606493
0.253556 0.282759 0.610960
0.344111 0.288262 0.615428
0.434666 0.293764 0.619895
0.525221 0.299266 0.624362
0.615776 0.304769 0.628829
0.706331 0.310271 0.633297
0.796887 0.315774 0.637764
0.887442 0.321276 0.642231
0.183160 0.373411 0.621521
0.273715 0.378913 0.625988
0.364271 0.384416 0.630456
0.454826 0.389918 0.634923
0.545381 0.395420 0.639390
0.635936 0.400923 0.643858
0.726491 0.406425 0.648325
0.817046 0.411928 0.652792
0.907601 0.417430 0.657259
0.203320 0.469565 0.636549
0.293875 0.475067 0.641017
0.384430 0.480570 0.645484
0.474985 0.486072 0.649951
0.565541 0.491575 0.654418
0.656096 0.497077 0.658886
0.746651 0.502579 0.663353
0.837206 0.508082 0.667820
0.910000 0.513584 0.672287
0.223480 0.565719 0.651578
0.314035 0.571221 0.656045
0.404590 0.576724 0.660512
0.495145 0.582226 0.664979
0.585700 0.587729 0.669447
0.676255 0.593231 0.673914
0.766811 0.598733 0.678381
0.857366 0.604236 0.682848
0.910000 0.609738 0.687316
0.243639 0.661873 0.666606
0.334194 0.667375 0.671073
0.424750 0.672878 0.675540
0.515305 0.678380 0.680007
0.605860 0.683883 0.684475
0.696415 0.689385 0.688942
0.786970 0.694887 0.693409
0.877525 0.700390 0.697876
0.910000 0.705892 0.702344
0.263799 0.758027 0.681634
0.354354 0.763530 0.686101
0.444909 0.769032 0.690568
0.535464 0.774534 0.695036
0.626020 0.780037 0.699503
0.716575 0.785539 0.703970
0.807130 0.791041 0.708437
0.897685 0.796544 0.712905
0.910000 0.802046 0.717372
0.283959 0.854181 0.696662
0.374514 0.859684 0.701129
0.465069 0.865186 0.705596
0.555624 0.870688 0.710064
0.646179 0.876191 0.714531
0.736735 0.881693 0.718998
0.827290 0.887195 0.723465
0.910000 0.892698 0.727933
0.910000 0.898200 0.732400
