data/luts/vintage_film.cube
TITLE "Vintage Film"
LUT_3D_SIZE 5
DOMAIN_MIN 0.0 0.0 0.0
DOMAIN_MAX 1.0 1.0 1.0
0.106400 0.070000 0.060000
0.287510 0.081005 0.068935
0.468621 0.092009 0.077869
0.649731 0.103014 0.086804
0.830841 0.114019 0.095738
0.146719 0.262308 0.090056
0.327830 0.273313 0.098991
0.508940 0.284317 0.107925
0.690050 0.295322 0.116860
0.871161 0.306327 0.125794
0.187039 0.454616 0.120113
0.368149 0.465621 0.129047
0.549259 0.476625 0.137982
0.730370 0.487630 0.146916
0.910000 0.498635 0.155851
0.227358 0.646924 0.150169
0.408469 0.657929 0.159103
0.589579 0.668934 0.168038
0.770689 0.679938 0.176972
0.910000 0.690943 0.185907
0.267678 0.839232 0.180225
0.448788 0.850237 0.189160
0.629898 0.861242 0.198094
0.811009 0.872246 0.207029
0.910000 0.883251 0.215963
0.110470 0.073737 0.189109
0.291581 0.084742 0.198044
0.472691 0.095747 0.206978
0.653801 0.106751 0.215913
0.834912 0.117756 0.224847
0.150790 0.266045 0.219165
0.331900 0.277050 0.228100
0.513010 0.288055 0.237035
0.694121 0.299059 0.245969
0.875231 0.310064 0.254904
0.191109 0.458353 0.249222
0.372219 0.469358 0.258156
0.553330 0.480363 0.267091
0.734440 0.491367 0.276025
0.910000 0.502372 0.284960
0.231428 0.650661 0.279278
0.412539 0.661666 0.288213
0.593649 0.672671 0.297147
0.774759 0.683675 0.306082
0.910000 0.694680 0.315016
0.271748 0.842969 0.309334
0.452858 0.853974 0.318269
0.633969 0.864979 0.327203
0.815079 0.875984 0.336138
0.910000 0.886988 0.345072
0.114541 0.077475 0.318218
0.295651 0.088479 0.327153
0.476761 0.099484 0.336087
0.657872 0.110489 0.345022
0.838982 0.121493 0.353956
0.154860 0.269783 0.348275
0.335970 0.280787 0.357209
0.517081 0.291792 0.366144
0.698191 0.302797 0.375078
0.879301 0.313801 0.384013
0.195179 0.462091 0.378331
0.376290 0.473095 0.387265
0.557400 0.484100 0.396200
0.738510 0.495105 0.405135
0.910000 0.506109 0.414069
0.235499 0.654399 0.408387
0.416609 0.665403 0.417322
0.597719 0.676408 0.426256
0.778830 0.687413 0.435191
0.910000 0.698417 0.444125
0.275818 0.846707 0.438444
0.456928 0.857711 0.447378
0.638039 0.868716 0.456313
0.819149 0.879721 0.465247
0.910000 0.890725 0.474182
0.118611 0.081212 0.447328
0.299721 0.092216 0.456262
0.480831 0.103221 0.465197
0.661942 0.114226 0.474131
0.843052 0.125231 0.483066
0.158930 0.273520 0.477384
0.340041 0.284525 0.486318
0.521151 0.295529 0.495253
0.702261 0.306534 0.504187
0.883372 0.317539 0.513122
0.199250 0.465828 0.507440
0.380360 0.476833 0.516375
0.561470 0.487837 0.525309
0.742581 0.498842 0.534244
0.910000 0.509847 0.543178
0.239569 0.658136 0.537496
0.420679 0.669141 0.546431
0.601790 0.680145 0.555365
0.782900 0.691150 0.564300
0.910000 0.702155 0.573235
0.279888 0.850444 0.567553
0.460999 0.861449 0.576487
0.642109 0.872453 0.585422
0.823219 0.883458 0.594356
0.910000 0.894463 0.603291
0.122681 0.084949 0.576437
0.303791 0.095954 0.585371
0.484902 0.106958 0.594306
0.666012 0.117963 0.603240
0.847122 0.128968 0.612175
0.163000 0.277257 0.606493
0.344111 0.288262 0.615428
0.525221 0.299266 0.624362
0.706331 0.310271 0.633297
0.887442 0.321276 0.642231
0.203320 0.469565 0.636549
0.384430 0.480570 0.645484
0.565541 0.491575 0.654418
0.746651 0.502579 0.663353
0.910000 0.513584 0.672287
0.243639 0.661873 0.666606
0.424750 0.672878 0.675540
0.605860 0.683883 0.684475
0.786970 0.694887 0.693409
0.910000 0.705892 0.702344
0.283959 0.854181 0.696662
0.465069 0.865186 0.705596
0.646179 0.876191 0.714531
0.827290 0.887195 0.723465
0.910000 0.898200 0.732400
