data/luts/vintage_film.cube
TITLE "Vintage Film"
LUT_3D_SIZE 33
DOMAIN_MIN 0.0 0.0 0.0
DOMAIN_MAX 1.0 1.0 1.0
0.106400 0.070000 0.060000
0.129039 0.071376 0.061117
0.151678 0.072751 0.062234
0.174316 0.074127 0.063350
0.196955 0.075502 0.064467
0.219594 0.076878 0.065584
0.242233 0.078254 0.066701
0.264872 0.079629 0.067818
0.287510 0.081005 0.068935
0.310149 0.082380 0.070051
0.332788 0.083756 0.071168
0.355427 0.085131 0.072285
0.378065 0.086507 0.073402
0.400704 0.087883 0.074519
0.423343 0.089258 0.075635
0.445982 0.090634 0.076752
0.468621 0.092009 0.077869
0.491259 0.093385 0.078986
0.513898 0.094761 0.080103
0.536537 0.096136 0.081219
0.559176 0.097512 0.082336
0.581815 0.098887 0.083453
0.604453 0.100263 0.084570
0.627092 0.101639 0.085687
0.649731 0.103014 0.086804
0.672370 0.104390 0.087920
0.695009 0.105765 0.089037
0.717647 0.107141 0.090154
0.740286 0.108516 0.091271
0.762925 0.109892 0.092388
0.785564 0.111268 0.093504
0.808203 0.112643 0.094621
0.830841 0.114019 0.095738
0.111440 0.094039 0.063757
0.134079 0.095414 0.064874
0.156718 0.096790 0.065991
0.179356 0.098165 0.067107
0.201995 0.099541 0.068224
0.224634 0.100916 0.069341
0.247273 0.102292 0.070458
0.269911 0.103668 0.071575
0.292550 0.105043 0.072692
0.315189 0.106419 0.073808
0.337828 0.107794 0.074925
0.360467 0.109170 0.076042
0.383105 0.110546 0.077159
0.405744 0.111921 0.078276
0.428383 0.113297 0.079392
0.451022 0.114672 0.080509
0.473661 0.116048 0.081626
0.496299 0.117424 0.082743
0.518938 0.118799 0.083860
0.541577 0.120175 0.084977
0.564216 0.121550 0.086093
0.586855 0.122926 0.087210
0.609493 0.124301 0.088327
0.632132 0.125677 0.089444
0.654771 0.127053 0.090561
0.677410 0.128428 0.091677
0.700048 0.129804 0.092794
0.722687 0.131179 0.093911
0.745326 0.132555 0.095028
0.767965 0.133931 0.096145
0.790604 0.135306 0.097261
0.813242 0.136682 0.098378
0.835881 0.138057 0.099495
0.116480 0.118077 0.067514
0.139119 0.119453 0.068631
0.161757 0.120828 0.069748
0.184396 0.122204 0.070865
0.207035 0.123579 0.071981
0.229674 0.124955 0.073098
0.252313 0.126331 0.074215
0.274951 0.127706 0.075332
0.297590 0.129082 0.076449
0.320229 0.130457 0.077565
0.342868 0.131833 0.078682
0.365507 0.133208 0.079799
0.388145 0.134584 0.080916
0.410784 0.135960 0.082033
0.433423 0.137335 0.083149
0.456062 0.138711 0.084266
0.478701 0.140086 0.085383
0.501339 0.141462 0.086500
0.523978 0.142838 0.087617
0.546617 0.144213 0.088734
0.569256 0.145589 0.089850
0.591894 0.146964 0.090967
0.614533 0.148340 0.092084
0.637172 0.149716 0.093201
0.659811 0.151091 0.094318
0.682450 0.152467 0.095434
0.705088 0.153842 0.096551
0.727727 0.155218 0.097668
0.750366 0.156593 0.098785
0.773005 0.157969 0.099902
0.795644 0.159345 0.101019
0.818282 0.160720 0.102135
0.840921 0.162096 0.103252
0.121520 0.142116 0.071271
0.144159 0.143491 0.072388
0.166797 0.144867 0.073505
0.189436 0.146242 0.074622
0.212075 0.147618 0.075738
0.234714 0.148993 0.076855
0.257353 0.150369 0.077972
0.279991 0.151745 0.079089
0.302630 0.153120 0.080206
0.325269 0.154496 0.081322
0.347908 0.155871 0.082439
0.370546 0.157247 0.083556
0.393185 0.158623 0.084673
0.415824 0.159998 0.085790
0.438463 0.161374 0.086907
0.461102 0.162749 0.088023
0.483740 0.164125 0.089140
0.506379 0.165501 0.090257
0.529018 0.166876 0.091374
0.551657 0.168252 0.092491
0.574296 0.169627 0.093607
0.596934 0.171003 0.094724
0.619573 0.172378 0.095841
0.642212 0.173754 0.096958
0.664851 0.175130 0.098075
0.687490 0.176505 0.099191
0.710128 0.177881 0.100308
0.732767 0.179256 0.101425
0.755406 0.180632 0.102542
0.778045 0.182008 0.103659
0.800683 0.183383 0.104776
0.823322 0.184759 0.105892
0.845961 0.186134 0.107009
0.126560 0.166154 0.075028
0.149198 0.167530 0.076145
0.171837 0.168905 0.077262
0.194476 0.170281 0.078379
0.217115 0.171656 0.079495
0.239754 0.173032 0.080612
0.262392 0.174408 0.081729
0.285031 0.175783 0.082846
0.307670 0.177159 0.083963
0.330309 0.178534 0.085079
0.352948 0.179910 0.086196
0.375586 0.181285 0.087313
0.398225 0.182661 0.088430
0.420864 0.184037 0.089547
0.443503 0.185412 0.090664
0.466142 0.186788 0.091780
0.488780 0.188163 0.092897
0.511419 0.189539 0.094014
0.534058 0.190915 0.095131
0.556697 0.192290 0.096248
0.579336 0.193666 0.097364
0.601974 0.195041 0.098481
0.624613 0.196417 0.099598
0.647252 0.197793 0.100715
0.669891 0.199168 0.101832
0.692529 0.200544 0.102948
0.715168 0.201919 0.104065
0.737807 0.203295 0.105182
0.760446 0.204670 0.106299
0.783085 0.206046 0.107416
0.805723 0.207422 0.108533
0.828362 0.208797 0.109649
0.851001 0.210173 0.110766
0.131600 0.190193 0.078785
0.154238 0.191568 0.079902
0.176877 0.192944 0.081019
0.199516 0.194319 0.082136
0.222155 0.195695 0.083252
0.244794 0.197070 0.084369
0.267432 0.198446 0.085486
0.290071 0.199822 0.086603
0.312710 0.201197 0.087720
0.335349 0.202573 0.088837
0.357988 0.203948 0.089953
0.380626 0.205324 0.091070
0.403265 0.206700 0.092187
0.425904 0.208075 0.093304
0.448543 0.209451 0.094421
0.471181 0.210826 0.095537
0.493820 0.212202 0.096654
0.516459 0.213578 0.097771
0.539098 0.214953 0.098888
0.561737 0.216329 0.100005
0.584375 0.217704 0.101121
0.607014 0.219080 0.102238
0.629653 0.220455 0.103355
0.652292 0.221831 0.104472
0.674931 0.223207 0.105589
0.697569 0.224582 0.106706
0.720208 0.225958 0.107822
0.742847 0.227333 0.108939
0.765486 0.228709 0.110056
0.788125 0.230085 0.111173
0.810763 0.231460 0.112290
0.833402 0.232836 0.113406
0.856041 0.234211 0.114523
0.136640 0.214231 0.082542
0.159278 0.215607 0.083659
0.181917 0.216982 0.084776
0.204556 0.218358 0.085893
0.227195 0.219733 0.087009
0.249834 0.221109 0.088126
0.272472 0.222485 0.089243
0.295111 0.223860 0.090360
0.317750 0.225236 0.091477
0.340389 0.226611 0.092594
0.363027 0.227987 0.093710
0.385666 0.229363 0.094827
0.408305 0.230738 0.095944
0.430944 0.232114 0.097061
0.453583 0.233489 0.098178
0.476221 0.234865 0.099294
0.498860 0.236240 0.100411
0.521499 0.237616 0.101528
0.544138 0.238992 0.102645
0.566777 0.240367 0.103762
0.589415 0.241743 0.104878
0.612054 0.243118 0.105995
0.634693 0.244494 0.107112
0.657332 0.245870 0.108229
0.679971 0.247245 0.109346
0.702609 0.248621 0.110463
0.725248 0.249996 0.111579
0.747887 0.251372 0.112696
0.770526 0.252748 0.113813
0.793164 0.254123 0.114930
0.815803 0.255499 0.116047
0.838442 0.256874 0.117163
0.861081 0.258250 0.118280
0.141679 0.238270 0.086299
0.164318 0.239645 0.087416
0.186957 0.241021 0.088533
0.209596 0.242396 0.089650
0.232235 0.243772 0.090767
0.254873 0.245147 0.091883
0.277512 0.246523 0.093000
0.300151 0.247899 0.094117
0.322790 0.249274 0.095234
0.345429 0.250650 0.096351
0.368067 0.252025 0.097467
0.390706 0.253401 0.098584
0.413345 0.254777 0.099701
0.435984 0.256152 0.100818
0.458623 0.257528 0.101935
0.481261 0.258903 0.103051
0.503900 0.260279 0.104168
0.526539 0.261655 0.105285
0.549178 0.263030 0.106402
0.571816 0.264406 0.107519
0.594455 0.265781 0.108636
0.617094 0.267157 0.109752
0.639733 0.268532 0.110869
0.662372 0.269908 0.111986
0.685010 0.271284 0.113103
0.707649 0.272659 0.114220
0.730288 0.274035 0.115336
0.752927 0.275410 0.116453
0.775566 0.276786 0.117570
0.798204 0.278162 0.118687
0.820843 0.279537 0.119804
0.843482 0.280913 0.120920
0.866121 0.282288 0.122037
0.146719 0.262308 0.090056
0.169358 0.263684 0.091173
0.191997 0.265059 0.092290
0.214636 0.266435 0.093407
0.237275 0.267810 0.094524
0.259913 0.269186 0.095640
0.282552 0.270562 0.096757
0.305191 0.271937 0.097874
0.327830 0.273313 0.098991
0.350469 0.274688 0.100108
0.373107 0.276064 0.101224
0.395746 0.277440 0.102341
0.418385 0.278815 0.103458
0.441024 0.280191 0.104575
0.463662 0.281566 0.105692
0.486301 0.282942 0.106808
0.508940 0.284317 0.107925
0.531579 0.285693 0.109042
0.554218 0.287069 0.110159
0.576856 0.288444 0.111276
0.599495 0.289820 0.112393
0.622134 0.291195 0.113509
0.644773 0.292571 0.114626
0.667412 0.293947 0.115743
0.690050 0.295322 0.116860
0.712689 0.296698 0.117977
0.735328 0.298073 0.119093
0.757967 0.299449 0.120210
0.780606 0.300825 0.121327
0.803244 0.302200 0.122444
0.825883 0.303576 0.123561
0.848522 0.304951 0.124678
0.871161 0.306327 0.125794
0.151759 0.286347 0.093813
0.174398 0.287722 0.094930
0.197037 0.289098 0.096047
0.219676 0.290473 0.097164
0.242314 0.291849 0.098281
0.264953 0.293224 0.099397
0.287592 0.294600 0.100514
0.310231 0.295976 0.101631
0.332870 0.297351 0.102748
0.355508 0.298727 0.103865
0.378147 0.300102 0.104981
0.400786 0.301478 0.106098
0.423425 0.302854 0.107215
0.446064 0.304229 0.108332
0.468702 0.305605 0.109449
0.491341 0.306980 0.110566
0.513980 0.308356 0.111682
0.536619 0.309732 0.112799
0.559258 0.311107 0.113916
0.581896 0.312483 0.115033
0.604535 0.313858 0.116150
0.627174 0.315234 0.117266
0.649813 0.316609 0.118383
0.672452 0.317985 0.119500
0.695090 0.319361 0.120617
0.717729 0.320736 0.121734
0.740368 0.322112 0.122850
0.763007 0.323487 0.123967
0.785645 0.324863 0.125084
0.808284 0.326239 0.126201
0.830923 0.327614 0.127318
0.853562 0.328990 0.128435
0.876201 0.330365 0.129551
0.156799 0.310385 0.097570
0.179438 0.311761 0.098687
0.202077 0.313136 0.099804
0.224716 0.314512 0.100921
0.247354 0.315887 0.102038
0.269993 0.317263 0.103154
0.292632 0.318639 0.104271
0.315271 0.320014 0.105388
0.337910 0.321390 0.106505
0.360548 0.322765 0.107622
0.383187 0.324141 0.108738
0.405826 0.325517 0.109855
0.428465 0.326892 0.110972
0.451104 0.328268 0.112089
0.473742 0.329643 0.113206
0.496381 0.331019 0.114323
0.519020 0.332394 0.115439
0.541659 0.333770 0.116556
0.564297 0.335146 0.117673
0.586936 0.336521 0.118790
0.609575 0.337897 0.119907
0.632214 0.339272 0.121023
0.654853 0.340648 0.122140
0.677491 0.342024 0.123257
0.700130 0.343399 0.124374
0.722769 0.344775 0.125491
0.745408 0.346150 0.126608
0.768047 0.347526 0.127724
0.790685 0.348902 0.128841
0.813324 0.350277 0.129958
0.835963 0.351653 0.131075
0.858602 0.353028 0.132192
0.881241 0.354404 0.133308
0.161839 0.334424 0.101327
0.184478 0.335799 0.102444
0.207117 0.337175 0.103561
0.229756 0.338550 0.104678
0.252394 0.339926 0.105795
0.275033 0.341301 0.106911
0.297672 0.342677 0.108028
0.320311 0.344053 0.109145
0.342950 0.345428 0.110262
0.365588 0.346804 0.111379
0.388227 0.348179 0.112496
0.410866 0.349555 0.113612
0.433505 0.350931 0.114729
0.456143 0.352306 0.115846
0.478782 0.353682 0.116963
0.501421 0.355057 0.118080
0.524060 0.356433 0.119196
0.546699 0.357809 0.120313
0.569337 0.359184 0.121430
0.591976 0.360560 0.122547
0.614615 0.361935 0.123664
0.637254 0.363311 0.124780
0.659893 0.364687 0.125897
0.682531 0.366062 0.127014
0.705170 0.367438 0.128131
0.727809 0.368813 0.129248
0.750448 0.370189 0.130365
0.773087 0.371564 0.131481
0.795725 0.372940 0.132598
0.818364 0.374316 0.133715
0.841003 0.375691 0.134832
0.863642 0.377067 0.135949
0.886280 0.378442 0.137065
0.166879 0.358462 0.105084
0.189518 0.359838 0.106201
0.212157 0.361213 0.107318
0.234795 0.362589 0.108435
0.257434 0.363964 0.109552
0.280073 0.365340 0.110668
0.302712 0.366716 0.111785
0.325351 0.368091 0.112902
0.347989 0.369467 0.114019
0.370628 0.370842 0.115136
0.393267 0.372218 0.116253
0.415906 0.373594 0.117369
0.438545 0.374969 0.118486
0.461183 0.376345 0.119603
0.483822 0.377720 0.120720
0.506461 0.379096 0.121837
0.529100 0.380471 0.122953
0.551739 0.381847 0.124070
0.574377 0.383223 0.125187
0.597016 0.384598 0.126304
0.619655 0.385974 0.127421
0.642294 0.387349 0.128538
0.664932 0.388725 0.129654
0.687571 0.390101 0.130771
0.710210 0.391476 0.131888
0.732849 0.392852 0.133005
0.755488 0.394227 0.134122
0.778126 0.395603 0.135238
0.800765 0.396979 0.136355
0.823404 0.398354 0.137472
0.846043 0.399730 0.138589
0.868682 0.401105 0.139706
0.891320 0.402481 0.140822
0.171919 0.382501 0.108841
0.194558 0.383876 0.109958
0.217197 0.385252 0.111075
0.239835 0.386627 0.112192
0.262474 0.388003 0.113309
0.285113 0.389379 0.114426
0.307752 0.390754 0.115542
0.330391 0.392130 0.116659
0.353029 0.393505 0.117776
0.375668 0.394881 0.118893
0.398307 0.396256 0.120010
0.420946 0.397632 0.121126
0.443585 0.399008 0.122243
0.466223 0.400383 0.123360
0.488862 0.401759 0.124477
0.511501 0.403134 0.125594
0.534140 0.404510 0.126710
0.556778 0.405886 0.127827
0.579417 0.407261 0.128944
0.602056 0.408637 0.130061
0.624695 0.410012 0.131178
0.647334 0.411388 0.132295
0.669972 0.412764 0.133411
0.692611 0.414139 0.134528
0.715250 0.415515 0.135645
0.737889 0.416890 0.136762
0.760528 0.418266 0.137879
0.783166 0.419641 0.138995
0.805805 0.421017 0.140112
0.828444 0.422393 0.141229
0.851083 0.423768 0.142346
0.873722 0.425144 0.143463
0.896360 0.426519 0.144580
0.176959 0.406539 0.112598
0.199598 0.407915 0.113715
0.222237 0.409290 0.114832
0.244875 0.410666 0.115949
0.267514 0.412041 0.117066
0.290153 0.413417 0.118183
0.312792 0.414793 0.119299
0.335430 0.416168 0.120416
0.358069 0.417544 0.121533
0.380708 0.418919 0.122650
0.403347 0.420295 0.123767
0.425986 0.421671 0.124883
0.448624 0.423046 0.126000
0.471263 0.424422 0.127117
0.493902 0.425797 0.128234
0.516541 0.427173 0.129351
0.539180 0.428548 0.130468
0.561818 0.429924 0.131584
0.584457 0.431300 0.132701
0.607096 0.432675 0.133818
0.629735 0.434051 0.134935
0.652374 0.435426 0.136052
0.675012 0.436802 0.137168
0.697651 0.438178 0.138285
0.720290 0.439553 0.139402
0.742929 0.440929 0.140519
0.765568 0.442304 0.141636
0.788206 0.443680 0.142752
0.810845 0.445056 0.143869
0.833484 0.446431 0.144986
0.856123 0.447807 0.146103
0.878761 0.449182 0.147220
0.901400 0.450558 0.148337
0.181999 0.430578 0.116356
0.204638 0.431953 0.117472
0.227276 0.433329 0.118589
0.249915 0.434704 0.119706
0.272554 0.436080 0.120823
0.295193 0.437456 0.121940
0.317832 0.438831 0.123056
0.340470 0.440207 0.124173
0.363109 0.441582 0.125290
0.385748 0.442958 0.126407
0.408387 0.444333 0.127524
0.431026 0.445709 0.128640
0.453664 0.447085 0.129757
0.476303 0.448460 0.130874
0.498942 0.449836 0.131991
0.521581 0.451211 0.133108
0.544220 0.452587 0.134225
0.566858 0.453963 0.135341
0.589497 0.455338 0.136458
0.612136 0.456714 0.137575
0.634775 0.458089 0.138692
0.657413 0.459465 0.139809
0.680052 0.460841 0.140925
0.702691 0.462216 0.142042
0.725330 0.463592 0.143159
0.747969 0.464967 0.144276
0.770607 0.466343 0.145393
0.793246 0.467718 0.146510
0.815885 0.469094 0.147626
0.838524 0.470470 0.148743
0.861163 0.471845 0.149860
0.883801 0.473221 0.150977
0.906440 0.474596 0.152094
0.187039 0.454616 0.120113
0.209678 0.455992 0.121229
0.232316 0.457367 0.122346
0.254955 0.458743 0.123463
0.277594 0.460118 0.124580
0.300233 0.461494 0.125697
0.322872 0.462870 0.126813
0.345510 0.464245 0.127930
0.368149 0.465621 0.129047
0.390788 0.466996 0.130164
0.413427 0.468372 0.131281
0.436065 0.469748 0.132398
0.458704 0.471123 0.133514
0.481343 0.472499 0.134631
0.503982 0.473874 0.135748
0.526621 0.475250 0.136865
0.549259 0.476625 0.137982
0.571898 0.478001 0.139098
0.594537 0.479377 0.140215
0.617176 0.480752 0.141332
0.639815 0.482128 0.142449
0.662453 0.483503 0.143566
0.685092 0.484879 0.144682
0.707731 0.486255 0.145799
0.730370 0.487630 0.146916
0.753009 0.489006 0.148033
0.775647 0.490381 0.149150
0.798286 0.491757 0.150267
0.820925 0.493133 0.151383
0.843564 0.494508 0.152500
0.866203 0.495884 0.153617
0.888841 0.497259 0.154734
0.910000 0.498635 0.155851
0.192079 0.478655 0.123870
0.214718 0.480030 0.124986
0.237356 0.481406 0.126103
0.259995 0.482781 0.127220
0.282634 0.484157 0.128337
0.305273 0.485533 0.129454
0.327911 0.486908 0.130570
0.350550 0.488284 0.131687
0.373189 0.489659 0.132804
0.395828 0.491035 0.133921
0.418467 0.492410 0.135038
0.441105 0.493786 0.136155
0.463744 0.495162 0.137271
0.486383 0.496537 0.138388
0.509022 0.497913 0.139505
0.531661 0.499288 0.140622
0.554299 0.500664 0.141739
0.576938 0.502040 0.142855
0.599577 0.503415 0.143972
0.622216 0.504791 0.145089
0.644855 0.506166 0.146206
0.667493 0.507542 0.147323
0.690132 0.508918 0.148440
0.712771 0.510293 0.149556
0.735410 0.511669 0.150673
0.758048 0.513044 0.151790
0.780687 0.514420 0.152907
0.803326 0.515795 0.154024
0.825965 0.517171 0.155140
0.848604 0.518547 0.156257
0.871242 0.519922 0.157374
0.893881 0.521298 0.158491
0.910000 0.522673 0.159608
0.197119 0.502693 0.127627
0.219757 0.504069 0.128743
0.242396 0.505444 0.129860
0.265035 0.506820 0.130977
0.287674 0.508195 0.132094
0.310313 0.509571 0.133211
0.332951 0.510947 0.134328
0.355590 0.512322 0.135444
0.378229 0.513698 0.136561
0.400868 0.515073 0.137678
0.423507 0.516449 0.138795
0.446145 0.517825 0.139912
0.468784 0.519200 0.141028
0.491423 0.520576 0.142145
0.514062 0.521951 0.143262
0.536701 0.523327 0.144379
0.559339 0.524703 0.145496
0.581978 0.526078 0.146612
0.604617 0.527454 0.147729
0.627256 0.528829 0.148846
0.649894 0.530205 0.149963
0.672533 0.531580 0.151080
0.695172 0.532956 0.152197
0.717811 0.534332 0.153313
0.740450 0.535707 0.154430
0.763088 0.537083 0.155547
0.785727 0.538458 0.156664
0.808366 0.539834 0.157781
0.831005 0.541210 0.158897
0.853644 0.542585 0.160014
0.876282 0.543961 0.161131
0.898921 0.545336 0.162248
0.910000 0.546712 0.163365
0.202159 0.526732 0.131384
0.224797 0.528107 0.132500
0.247436 0.529483 0.133617
0.270075 0.530858 0.134734
0.292714 0.532234 0.135851
0.315353 0.533610 0.136968
0.337991 0.534985 0.138085
0.360630 0.536361 0.139201
0.383269 0.537736 0.140318
0.405908 0.539112 0.141435
0.428546 0.540487 0.142552
0.451185 0.541863 0.143669
0.473824 0.543239 0.144785
0.496463 0.544614 0.145902
0.519102 0.545990 0.147019
0.541740 0.547365 0.148136
0.564379 0.548741 0.149253
0.587018 0.550117 0.150370
0.609657 0.551492 0.151486
0.632296 0.552868 0.152603
0.654934 0.554243 0.153720
0.677573 0.555619 0.154837
0.700212 0.556995 0.155954
0.722851 0.558370 0.157070
0.745490 0.559746 0.158187
0.768128 0.561121 0.159304
0.790767 0.562497 0.160421
0.813406 0.563872 0.161538
0.836045 0.565248 0.162654
0.858684 0.566624 0.163771
0.881322 0.567999 0.164888
0.903961 0.569375 0.166005
0.910000 0.570750 0.167122
0.207198 0.550770 0.135141
0.229837 0.552146 0.136258
0.252476 0.553521 0.137374
0.275115 0.554897 0.138491
0.297754 0.556272 0.139608
0.320392 0.557648 0.140725
0.343031 0.559024 0.141842
0.365670 0.560399 0.142958
0.388309 0.561775 0.144075
0.410948 0.563150 0.145192
0.433586 0.564526 0.146309
0.456225 0.565902 0.147426
0.478864 0.567277 0.148542
0.501503 0.568653 0.149659
0.524142 0.570028 0.150776
0.546780 0.571404 0.151893
0.569419 0.572780 0.153010
0.592058 0.574155 0.154127
0.614697 0.575531 0.155243
0.637336 0.576906 0.156360
0.659974 0.578282 0.157477
0.682613 0.579657 0.158594
0.705252 0.581033 0.159711
0.727891 0.582409 0.160827
0.750529 0.583784 0.161944
0.773168 0.585160 0.163061
0.795807 0.586535 0.164178
0.818446 0.587911 0.165295
0.841085 0.589287 0.166412
0.863723 0.590662 0.167528
0.886362 0.592038 0.168645
0.909001 0.593413 0.169762
0.910000 0.594789 0.170879
0.212238 0.574809 0.138898
0.234877 0.576184 0.140015
0.257516 0.577560 0.141131
0.280155 0.578935 0.142248
0.302794 0.580311 0.143365
0.325432 0.581687 0.144482
0.348071 0.583062 0.145599
0.370710 0.584438 0.146715
0.393349 0.585813 0.147832
0.415988 0.587189 0.148949
0.438626 0.588564 0.150066
0.461265 0.589940 0.151183
0.483904 0.591316 0.152300
0.506543 0.592691 0.153416
0.529181 0.594067 0.154533
0.551820 0.595442 0.155650
0.574459 0.596818 0.156767
0.597098 0.598194 0.157884
0.619737 0.599569 0.159000
0.642375 0.600945 0.160117
0.665014 0.602320 0.161234
0.687653 0.603696 0.162351
0.710292 0.605072 0.163468
0.732931 0.606447 0.164584
0.755569 0.607823 0.165701
0.778208 0.609198 0.166818
0.800847 0.610574 0.167935
0.823486 0.611949 0.169052
0.846125 0.613325 0.170169
0.868763 0.614701 0.171285
0.891402 0.616076 0.172402
0.910000 0.617452 0.173519
0.910000 0.618827 0.174636
0.217278 0.598847 0.142655
0.239917 0.600223 0.143772
0.262556 0.601598 0.144888
0.285195 0.602974 0.146005
0.307834 0.604349 0.147122
0.330472 0.605725 0.148239
0.353111 0.607101 0.149356
0.375750 0.608476 0.150472
0.398389 0.609852 0.151589
0.421027 0.611227 0.152706
0.443666 0.612603 0.153823
0.466305 0.613979 0.154940
0.488944 0.615354 0.156057
0.511583 0.616730 0.157173
0.534221 0.618105 0.158290
0.556860 0.619481 0.159407
0.579499 0.620857 0.160524
0.602138 0.622232 0.161641
0.624777 0.623608 0.162757
0.647415 0.624983 0.163874
0.670054 0.626359 0.164991
0.692693 0.627734 0.166108
0.715332 0.629110 0.167225
0.737971 0.630486 0.168342
0.760609 0.631861 0.169458
0.783248 0.633237 0.170575
0.805887 0.634612 0.171692
0.828526 0.635988 0.172809
0.851164 0.637364 0.173926
0.873803 0.638739 0.175042
0.896442 0.640115 0.176159
0.910000 0.641490 0.177276
0.910000 0.642866 0.178393
0.222318 0.622886 0.146412
0.244957 0.624261 0.147529
0.267596 0.625637 0.148645
0.290235 0.627012 0.149762
0.312873 0.628388 0.150879
0.335512 0.629764 0.151996
0.358151 0.631139 0.153113
0.380790 0.632515 0.154230
0.403429 0.633890 0.155346
0.426067 0.635266 0.156463
0.448706 0.636641 0.157580
0.471345 0.638017 0.158697
0.493984 0.639393 0.159814
0.516623 0.640768 0.160930
0.539261 0.642144 0.162047
0.561900 0.643519 0.163164
0.584539 0.644895 0.164281
0.607178 0.646271 0.165398
0.629817 0.647646 0.166514
0.652455 0.649022 0.167631
0.675094 0.650397 0.168748
0.697733 0.651773 0.169865
0.720372 0.653149 0.170982
0.743010 0.654524 0.172099
0.765649 0.655900 0.173215
0.788288 0.657275 0.174332
0.810927 0.658651 0.175449
0.833566 0.660027 0.176566
0.856204 0.661402 0.177683
0.878843 0.662778 0.178799
0.901482 0.664153 0.179916
0.910000 0.665529 0.181033
0.910000 0.666904 0.182150
0.227358 0.646924 0.150169
0.249997 0.648300 0.151286
0.272636 0.649675 0.152402
0.295275 0.651051 0.153519
0.317913 0.652426 0.154636
0.340552 0.653802 0.155753
0.363191 0.655178 0.156870
0.385830 0.656553 0.157987
0.408469 0.657929 0.159103
0.431107 0.659304 0.160220
0.453746 0.660680 0.161337
0.476385 0.662056 0.162454
0.499024 0.663431 0.163571
0.521662 0.664807 0.164687
0.544301 0.666182 0.165804
0.566940 0.667558 0.166921
0.589579 0.668934 0.168038
0.612218 0.670309 0.169155
0.634856 0.671685 0.170271
0.657495 0.673060 0.171388
0.680134 0.674436 0.172505
0.702773 0.675811 0.173622
0.725412 0.677187 0.174739
0.748050 0.678563 0.175856
0.770689 0.679938 0.176972
0.793328 0.681314 0.178089
0.815967 0.682689 0.179206
0.838606 0.684065 0.180323
0.861244 0.685441 0.181440
0.883883 0.686816 0.182556
0.906522 0.688192 0.183673
0.910000 0.689567 0.184790
0.910000 0.690943 0.185907
0.232398 0.670963 0.153926
0.255037 0.672338 0.155043
0.277676 0.673714 0.156160
0.300314 0.675089 0.157276
0.322953 0.676465 0.158393
0.345592 0.677841 0.159510
0.368231 0.679216 0.160627
0.390870 0.680592 0.161744
0.413508 0.681967 0.162860
0.436147 0.683343 0.163977
0.458786 0.684719 0.165094
0.481425 0.686094 0.166211
0.504064 0.687470 0.167328
0.526702 0.688845 0.168444
0.549341 0.690221 0.169561
0.571980 0.691596 0.170678
0.594619 0.692972 0.171795
0.617258 0.694348 0.172912
0.639896 0.695723 0.174029
0.662535 0.697099 0.175145
0.685174 0.698474 0.176262
0.707813 0.699850 0.177379
0.730452 0.701226 0.178496
0.753090 0.702601 0.179613
0.775729 0.703977 0.180729
0.798368 0.705352 0.181846
0.821007 0.706728 0.182963
0.843645 0.708104 0.184080
0.866284 0.709479 0.185197
0.888923 0.710855 0.186313
0.910000 0.712230 0.187430
0.910000 0.713606 0.188547
0.910000 0.714981 0.189664
0.237438 0.695001 0.157683
0.260077 0.696377 0.158800
0.282716 0.697752 0.159917
0.305354 0.699128 0.161033
0.327993 0.700503 0.162150
0.350632 0.701879 0.163267
0.373271 0.703255 0.164384
0.395910 0.704630 0.165501
0.418548 0.706006 0.166617
0.441187 0.707381 0.167734
0.463826 0.708757 0.168851
0.486465 0.710133 0.169968
0.509104 0.711508 0.171085
0.531742 0.712884 0.172201
0.554381 0.714259 0.173318
0.577020 0.715635 0.174435
0.599659 0.717011 0.175552
0.622297 0.718386 0.176669
0.644936 0.719762 0.177786
0.667575 0.721137 0.178902
0.690214 0.722513 0.180019
0.712853 0.723888 0.181136
0.735491 0.725264 0.182253
0.758130 0.726640 0.183370
0.780769 0.728015 0.184486
0.803408 0.729391 0.185603
0.826047 0.730766 0.186720
